assets/luts/bleach_bypass.cube
# Bleach Bypass — high contrast, low saturation
# Generated for ProCut Studio. Original transfer function, no third-party LUT data.
TITLE "Bleach Bypass"
LUT_3D_SIZE 5
DOMAIN_MIN 0.0 0.0 0.0
DOMAIN_MAX 1.0 1.0 1.0
0.000000 0.000000 0.000000
0.127116 0.000000 0.000000
0.283465 0.000000 0.000000
0.469046 0.000000 0.000000
0.683860 0.000000 0.000000
0.000000 0.161670 0.000000
0.176286 0.176286 0.000000
0.381805 0.190903 0.000000
0.616556 0.205519 0.000000
0.880540 0.220135 0.000000
0.000000 0.421680 0.000000
0.225456 0.450912 0.000000
0.480145 0.480145 0.000000
0.754689 0.509378 0.018755
1.000000 0.538610 0.077220
0.040040 0.760010 0.040040
0.323879 0.774626 0.098505
0.578485 0.789243 0.156970
0.803859 0.803859 0.215435
1.000000 0.818475 0.273900
0.236720 1.000000 0.236720
0.471389 1.000000 0.295185
0.676825 1.000000 0.353650
0.853029 1.000000 0.412115
1.000000 1.000000 0.470580
0.000000 0.000000 0.117464
0.132080 0.000000 0.132080
0.293393 0.000000 0.146696
0.483938 0.000000 0.161313
0.703715 0.000000 0.175929
0.000000 0.166634 0.166634
0.181250 0.181250 0.181250
0.391733 0.195866 0.195866
0.631448 0.210483 0.210483
0.900395 0.225099 0.225099
0.000000 0.431608 0.215804
0.230420 0.460840 0.230420
0.490073 0.490073 0.245036
0.759653 0.519305 0.278958
1.000000 0.548538 0.322806
0.059895 0.764974 0.294921
0.338770 0.779590 0.338770
0.588413 0.794206 0.382619
0.808822 0.808822 0.426467
1.000000 0.823439 0.470316
0.256575 1.000000 0.442431
0.486280 1.000000 0.486280
0.686752 1.000000 0.530129
0.857993 1.000000 0.573977
1.000000 1.000000 0.617826
0.000000 0.000000 0.244855
0.137044 0.000000 0.274087
0.303320 0.000000 0.303320
0.498829 0.000000 0.332553
0.723570 0.000000 0.361785
0.000000 0.171598 0.343195
0.186214 0.186214 0.372428
0.401660 0.200830 0.401660
0.646339 0.215446 0.430893
0.920250 0.230063 0.460125
0.000000 0.441535 0.441535
0.235384 0.470768 0.470768
0.500000 0.500000 0.500000
0.764616 0.529232 0.529232
1.000000 0.558465 0.558465
0.079750 0.769938 0.539875
0.353661 0.784554 0.569108
0.598340 0.799170 0.598340
0.813786 0.813786 0.627572
1.000000 0.828403 0.656805
0.276430 1.000000 0.638215
0.501171 1.000000 0.667448
0.696680 1.000000 0.696680
0.862956 1.000000 0.725912
1.000000 1.000000 0.755145
0.000000 0.000000 0.382174
0.142008 0.000000 0.426023
0.313248 0.000000 0.469871
0.513720 0.000000 0.513720
0.743425 0.000000 0.557569
0.000000 0.176561 0.529684
0.191178 0.191178 0.573533
0.411588 0.205794 0.617381
0.661230 0.220410 0.661230
0.940105 0.235026 0.705079
0.000000 0.451462 0.677194
0.240347 0.480695 0.721043
0.509928 0.509928 0.754964
0.769580 0.539160 0.769580
1.000000 0.568393 0.784196
0.099605 0.774901 0.774901
0.368553 0.789518 0.789518
0.608268 0.804134 0.804134
0.818750 0.818750 0.818750
1.000000 0.833366 0.833366
0.296285 1.000000 0.824071
0.516063 1.000000 0.838688
0.706608 1.000000 0.853304
0.867920 1.000000 0.867920
1.000000 1.000000 0.882536
0.000000 0.000000 0.529420
0.146971 0.000000 0.587885
0.323175 0.000000 0.646350
0.528611 0.000000 0.704815
0.763280 0.000000 0.763280
0.000000 0.181525 0.726100
0.196141 0.196141 0.784565
0.421515 0.210758 0.843030
0.676121 0.225374 0.901495
0.959960 0.239990 0.959960
0.000000 0.461390 0.922780
0.245311 0.490622 0.981245
0.519855 0.519855 1.000000
0.774544 0.549088 1.000000
1.000000 0.578320 1.000000
0.119460 0.779865 1.000000
0.383444 0.794481 1.000000
0.618195 0.809098 1.000000
0.823714 0.823714 1.000000
1.000000 0.838330 1.000000
0.316140 1.000000 1.000000
0.530954 1.000000 1.000000
0.716535 1.000000 1.000000
0.872884 1.000000 1.000000
1.000000 1.000000 1.000000
