assets/luts/bleach_bypass.cube
# Bleach Bypass — high contrast, low saturation
# Generated for ProCut Studio. Original transfer function, no third-party LUT data.
TITLE "Bleach Bypass"
LUT_3D_SIZE 17
DOMAIN_MIN 0.0 0.0 0.0
DOMAIN_MAX 1.0 1.0 1.0
0.000000 0.000000 0.000000
0.029039 0.000000 0.000000
0.059904 0.000000 0.000000
0.092597 0.000000 0.000000
0.127116 0.000000 0.000000
0.163463 0.000000 0.000000
0.201637 0.000000 0.000000
0.241637 0.000000 0.000000
0.283465 0.000000 0.000000
0.327120 0.000000 0.000000
0.372602 0.000000 0.000000
0.419910 0.000000 0.000000
0.469046 0.000000 0.000000
0.520009 0.000000 0.000000
0.572799 0.000000 0.000000
0.627416 0.000000 0.000000
0.683860 0.000000 0.000000
0.000000 0.031198 0.000000
0.032112 0.032112 0.000000
0.066050 0.033025 0.000000
0.101816 0.033939 0.000000
0.139409 0.034852 0.000000
0.178829 0.035766 0.000000
0.220075 0.036679 0.000000
0.263149 0.037593 0.000000
0.308050 0.038506 0.000000
0.354778 0.039420 0.000000
0.403333 0.040333 0.000000
0.453715 0.041247 0.000000
0.505924 0.042160 0.000000
0.559960 0.043074 0.000000
0.615823 0.043987 0.000000
0.673513 0.044901 0.000000
0.733030 0.045814 0.000000
0.000000 0.068543 0.000000
0.035185 0.070370 0.000000
0.072197 0.072197 0.000000
0.111035 0.074024 0.000000
0.151701 0.075851 0.000000
0.194194 0.077678 0.000000
0.238514 0.079505 0.000000
0.284661 0.081332 0.000000
0.332635 0.083159 0.000000
0.382436 0.084986 0.000000
0.434064 0.086813 0.000000
0.487519 0.088640 0.000000
0.542801 0.090467 0.000000
0.599910 0.092294 0.000000
0.658847 0.094121 0.000000
0.719610 0.095948 0.000000
0.782200 0.097775 0.000000
0.000000 0.112033 0.000000
0.038258 0.114774 0.000000
0.078343 0.117514 0.000000
0.120255 0.120255 0.000000
0.163994 0.122995 0.000000
0.209560 0.125736 0.000000
0.256953 0.128476 0.000000
0.306173 0.131217 0.000000
0.357220 0.133958 0.000000
0.410094 0.136698 0.000000
0.464795 0.139439 0.000000
0.521324 0.142179 0.000000
0.579679 0.144920 0.000000
0.639861 0.147660 0.000000
0.701870 0.150401 0.000000
0.765707 0.153141 0.000000
0.831370 0.155882 0.000000
0.000000 0.161670 0.000000
0.041331 0.165324 0.000000
0.084489 0.168978 0.000000
0.129474 0.172632 0.000000
0.176286 0.176286 0.000000
0.224925 0.179940 0.000000
0.275392 0.183594 0.000000
0.327685 0.187248 0.000000
0.381805 0.190903 0.000000
0.437752 0.194557 0.000000
0.495527 0.198211 0.000000
0.555128 0.201865 0.000000
0.616556 0.205519 0.000000
0.679812 0.209173 0.000000
0.744894 0.212827 0.000000
0.811804 0.216481 0.000000
0.880540 0.220135 0.000000
0.000000 0.217453 0.000000
0.044404 0.222021 0.000000
0.090635 0.226588 0.000000
0.138694 0.231156 0.000000
0.188579 0.235723 0.000000
0.240291 0.240291 0.000000
0.293830 0.244859 0.000000
0.349197 0.249426 0.000000
0.406390 0.253994 0.000000
0.465410 0.258561 0.000000
0.526258 0.263129 0.000000
0.588932 0.267696 0.000000
0.653434 0.272264 0.000000
0.719762 0.276832 0.000000
0.787918 0.281399 0.000000
0.857900 0.285967 0.000000
0.929710 0.290534 0.000000
0.000000 0.279383 0.000000
0.047477 0.284864 0.000000
0.096782 0.290345 0.000000
0.147913 0.295826 0.000000
0.200871 0.301307 0.000000
0.255657 0.306788 0.000000
0.312269 0.312269 0.000000
0.370709 0.317750 0.000000
0.430975 0.323231 0.000000
0.493069 0.328712 0.000000
0.556989 0.334193 0.000000
0.622737 0.339675 0.000000
0.690311 0.345156 0.000000
0.759713 0.350637 0.000000
0.830942 0.356118 0.000000
0.903997 0.361599 0.000000
0.978880 0.367080 0.000000
0.000000 0.347458 0.000000
0.050550 0.353853 0.000000
0.102928 0.360247 0.000000
0.157132 0.366642 0.000000
0.213164 0.373037 0.000000
0.271022 0.379431 0.000000
0.330708 0.385826 0.000000
0.392220 0.392220 0.000000
0.455560 0.398615 0.000000
0.520727 0.405010 0.000000
0.587720 0.411404 0.000000
0.656541 0.417799 0.000000
0.727189 0.424193 0.000000
0.799664 0.430588 0.000000
0.873965 0.436983 0.000000
0.938340 0.445056 0.013434
1.000000 0.453278 0.028050
0.000000 0.421680 0.000000
0.053624 0.428988 0.000000
0.109074 0.436296 0.000000
0.166352 0.443604 0.000000
0.225456 0.450912 0.000000
0.286388 0.458221 0.000000
0.349147 0.465529 0.000000
0.413732 0.472837 0.000000
0.480145 0.480145 0.000000
0.548385 0.487453 0.000000
0.618452 0.494761 0.000000
0.688793 0.502069 0.004139
0.754689 0.509378 0.018755
0.818757 0.516686 0.033371
0.880998 0.523994 0.047988
0.941413 0.531302 0.062604
1.000000 0.538610 0.077220
0.000000 0.502048 0.000000
0.056697 0.510270 0.000000
0.115220 0.518491 0.000000
0.175571 0.526713 0.000000
0.237749 0.534935 0.000000
0.301754 0.543156 0.000000
0.367585 0.551378 0.000000
0.435244 0.559600 0.000000
0.504730 0.566639 0.009460
0.573033 0.573033 0.024076
0.639510 0.579428 0.038692
0.704159 0.585823 0.053309
0.766981 0.592217 0.067925
0.827976 0.598612 0.082541
0.887145 0.605006 0.097157
0.944486 0.611401 0.111774
1.000000 0.617796 0.126390
0.000000 0.588562 0.000000
0.059770 0.597698 0.000000
0.121367 0.606833 0.000000
0.184790 0.615968 0.000000
0.250124 0.625062 0.000165
0.322662 0.630543 0.014781
0.393373 0.636024 0.029398
0.462258 0.641505 0.044014
0.529315 0.646986 0.058630
0.594545 0.652467 0.073246
0.657948 0.657948 0.087862
0.719525 0.663430 0.102479
0.779274 0.668911 0.117095
0.837196 0.674392 0.131711
0.893291 0.679873 0.146327
0.947559 0.685354 0.160944
1.000000 0.690835 0.175560
0.000000 0.681223 0.000000
0.067643 0.689214 0.005486
0.142590 0.693782 0.020102
0.215709 0.698350 0.034719
0.287001 0.702917 0.049335
0.356466 0.707485 0.063951
0.424105 0.712052 0.078567
0.489916 0.716620 0.093184
0.553900 0.721188 0.107800
0.616057 0.725755 0.122416
0.676387 0.730323 0.137033
0.734890 0.734890 0.151649
0.791566 0.739458 0.166265
0.846415 0.744025 0.180881
0.899437 0.748593 0.195497
0.950632 0.753161 0.210114
1.000000 0.757728 0.224730
0.040040 0.760010 0.040040
0.113740 0.763664 0.054656
0.185613 0.767318 0.069273
0.255660 0.770972 0.083889
0.323879 0.774626 0.098505
0.390271 0.778280 0.113121
0.454836 0.781934 0.127738
0.517574 0.785588 0.142354
0.578485 0.789243 0.156970
0.637569 0.792897 0.171586
0.694826 0.796551 0.186203
0.750256 0.800205 0.200819
0.803859 0.803859 0.215435
0.855635 0.807513 0.230051
0.905583 0.811167 0.244668
0.953705 0.814821 0.259284
1.000000 0.818475 0.273900
0.089210 0.829227 0.089210
0.159837 0.831967 0.103826
0.228637 0.834708 0.118442
0.295610 0.837449 0.133059
0.360756 0.840189 0.147675
0.424075 0.842930 0.162291
0.485567 0.845670 0.176908
0.545232 0.848411 0.191524
0.603070 0.851151 0.206140
0.659081 0.853892 0.220756
0.713265 0.856632 0.235373
0.765621 0.859373 0.249989
0.816151 0.862113 0.264605
0.864854 0.864854 0.279221
0.911730 0.867595 0.293837
0.956778 0.870335 0.308454
1.000000 0.873076 0.323070
0.138380 0.892297 0.138380
0.205934 0.894125 0.152996
0.271661 0.895952 0.167612
0.335561 0.897779 0.182229
0.397634 0.899606 0.196845
0.457880 0.901433 0.211461
0.516298 0.903260 0.226077
0.572890 0.905087 0.240694
0.627655 0.906914 0.255310
0.680593 0.908741 0.269926
0.731703 0.910568 0.284543
0.780987 0.912395 0.299159
0.828444 0.914222 0.313775
0.874073 0.916049 0.328391
0.917876 0.917876 0.343007
0.959851 0.919703 0.357624
1.000000 0.921530 0.372240
0.187550 0.949222 0.187550
0.252031 0.950135 0.202166
0.314685 0.951049 0.216783
0.375511 0.951962 0.231399
0.434511 0.952876 0.246015
0.491684 0.953789 0.260631
0.547030 0.954703 0.275248
0.600548 0.955616 0.289864
0.652240 0.956530 0.304480
0.702105 0.957444 0.319096
0.750142 0.958357 0.333712
0.796353 0.959271 0.348329
0.840736 0.960184 0.362945
0.883293 0.961098 0.377561
0.924022 0.962011 0.392178
0.962925 0.962925 0.406794
1.000000 0.963838 0.421410
0.236720 1.000000 0.236720
0.298128 1.000000 0.251336
0.357708 1.000000 0.265952
0.415462 1.000000 0.280569
0.471389 1.000000 0.295185
0.525488 1.000000 0.309801
0.577761 1.000000 0.324418
0.628206 1.000000 0.339034
0.676825 1.000000 0.353650
0.723616 1.000000 0.368266
0.768581 1.000000 0.382882
0.811718 1.000000 0.397499
0.853029 1.000000 0.412115
0.892512 1.000000 0.426731
0.930168 1.000000 0.441347
0.965998 1.000000 0.455964
1.000000 1.000000 0.470580
0.000000 0.000000 0.028435
0.029349 0.000000 0.029349
0.060525 0.000000 0.030262
0.093527 0.000000 0.031176
0.128357 0.000000 0.032089
0.165014 0.000000 0.033003
0.203498 0.000000 0.033916
0.243809 0.000000 0.034830
0.285947 0.000000 0.035743
0.329912 0.000000 0.036657
0.375704 0.000000 0.037570
0.423323 0.000000 0.038484
0.472769 0.000000 0.039397
0.524042 0.000000 0.040311
0.577142 0.000000 0.041224
0.632070 0.000000 0.042138
0.688824 0.000000 0.043051
0.000000 0.031508 0.031508
0.032422 0.032422 0.032422
0.066671 0.033335 0.033335
0.102747 0.034249 0.034249
0.140650 0.035162 0.035162
0.180380 0.036076 0.036076
0.221937 0.036989 0.036989
0.265321 0.037903 0.037903
0.310532 0.038816 0.038816
0.357570 0.039730 0.039730
0.406435 0.040644 0.040644
0.457127 0.041557 0.041557
0.509647 0.042471 0.042471
0.563993 0.043384 0.043384
0.620166 0.044298 0.044298
0.678166 0.045211 0.045211
0.737994 0.046125 0.046125
0.000000 0.069163 0.034581
0.035495 0.070990 0.035495
0.072817 0.072817 0.036409
0.111966 0.074644 0.037322
0.152942 0.076471 0.038236
0.195745 0.078298 0.039149
0.240375 0.080125 0.040063
0.286833 0.081952 0.040976
0.335117 0.083779 0.041890
0.385228 0.085606 0.042803
0.437166 0.087433 0.043717
0.490932 0.089260 0.044630
0.546524 0.091087 0.045544
0.603943 0.092914 0.046457
0.663190 0.094741 0.047371
0.724263 0.096568 0.048284
0.787164 0.098395 0.049198
0.000000 0.112964 0.037655
0.038568 0.115704 0.038568
0.078963 0.118445 0.039482
0.121185 0.121185 0.040395
0.165235 0.123926 0.041309
0.211111 0.126667 0.042222
0.258814 0.129407 0.043136
0.308345 0.132148 0.044049
0.359702 0.134888 0.044963
0.412886 0.137629 0.045876
0.467898 0.140369 0.046790
0.524736 0.143110 0.047703
0.583402 0.145850 0.048617
0.643894 0.148591 0.049530
0.706214 0.151331 0.050444
0.770360 0.154072 0.051357
0.836334 0.156813 0.052271
0.000000 0.162911 0.040728
0.041641 0.166565 0.041641
0.085110 0.170219 0.042555
0.130405 0.173873 0.043468
0.177527 0.177527 0.044382
0.226477 0.181181 0.045295
0.277253 0.184835 0.046209
0.329856 0.188489 0.047122
0.384287 0.192143 0.048036
0.440544 0.195798 0.048949
0.498629 0.199452 0.049863
0.558540 0.203106 0.050776
0.620279 0.206760 0.051690
0.683845 0.210414 0.052603
0.749237 0.214068 0.053517
0.816457 0.217722 0.054430
0.885504 0.221376 0.055344
0.000000 0.219004 0.043801
0.044714 0.223572 0.044714
0.091256 0.228139 0.045628
0.139624 0.232707 0.046541
0.189820 0.237275 0.047455
0.241842 0.241842 0.048368
0.295692 0.246410 0.049282
0.351368 0.250977 0.050195
0.408872 0.255545 0.051109
0.468202 0.260112 0.052022
0.529360 0.264680 0.052936
0.592345 0.269248 0.053850
0.657157 0.273815 0.054763
0.723795 0.278383 0.055677
0.792261 0.282950 0.056590
0.862554 0.287518 0.057504
0.934674 0.292086 0.058417
0.000000 0.281244 0.046874
0.047787 0.286725 0.047787
0.097402 0.292206 0.048701
0.148844 0.297687 0.049615
0.202112 0.303168 0.050528
0.257208 0.308649 0.051442
0.314130 0.314130 0.052355
0.372880 0.319612 0.053269
0.433457 0.325093 0.054182
0.495861 0.330574 0.055096
0.560091 0.336055 0.056009
0.626149 0.341536 0.056923
0.694034 0.347017 0.057836
0.763746 0.352498 0.058750
0.835285 0.357979 0.059663
0.908651 0.363460 0.060577
0.983844 0.368941 0.061490
0.000000 0.349630 0.049947
0.050861 0.356024 0.050861
0.103548 0.362419 0.051774
0.158063 0.368814 0.052688
0.214405 0.375208 0.053601
0.272573 0.381603 0.054515
0.332569 0.387997 0.055428
0.394392 0.394392 0.056342
0.458042 0.400787 0.057255
0.523519 0.407181 0.058169
0.590823 0.413576 0.059082
0.659954 0.419970 0.059996
0.730912 0.426365 0.060909
0.803697 0.432760 0.061823
0.875473 0.439627 0.066045
0.938650 0.447849 0.079748
1.000000 0.456070 0.093450
0.000000 0.424162 0.053020
0.053934 0.431470 0.053934
0.109695 0.438778 0.054847
0.167282 0.446086 0.055761
0.226697 0.453394 0.056674
0.287939 0.460703 0.057588
0.351008 0.468011 0.058501
0.415904 0.475319 0.059415
0.482627 0.482627 0.060328
0.551177 0.489935 0.061242
0.621554 0.497243 0.062155
0.690345 0.504551 0.071034
0.755930 0.511859 0.084736
0.819688 0.519168 0.098439
0.881619 0.526476 0.112142
0.941723 0.533784 0.125845
1.000000 0.541092 0.139547
0.000000 0.504840 0.056093
0.057007 0.513062 0.057007
0.115841 0.521284 0.057920
0.176502 0.529505 0.058834
0.238990 0.537727 0.059747
0.303305 0.545948 0.060661
0.369447 0.554170 0.061574
0.437416 0.562392 0.062488
0.507212 0.568810 0.076022
0.575205 0.575205 0.089725
0.641371 0.581600 0.103428
0.705710 0.587994 0.117130
0.768222 0.594389 0.130833
0.828907 0.600783 0.144536
0.887765 0.607178 0.158239
0.944796 0.613573 0.171941
1.000000 0.619967 0.185644
0.000000 0.591665 0.059166
0.060080 0.600800 0.060080
0.121987 0.609935 0.060994
0.185721 0.619070 0.061907
0.253847 0.626923 0.067308
0.326075 0.632404 0.081011
0.396476 0.637885 0.094714
0.465050 0.643367 0.108416
0.531797 0.648848 0.122119
0.596717 0.654329 0.135822
0.659810 0.659810 0.149525
0.721076 0.665291 0.163227
0.780515 0.670772 0.176930
0.838127 0.676253 0.190633
0.893911 0.681734 0.204336
0.947869 0.687215 0.218038
1.000000 0.692696 0.231741
0.000000 0.684636 0.062240
0.072297 0.690766 0.072297
0.146933 0.695333 0.086000
0.219742 0.699901 0.099702
0.290724 0.704468 0.113405
0.359879 0.709036 0.127108
0.427207 0.713604 0.140811
0.492708 0.718171 0.154513
0.556382 0.722739 0.168216
0.618229 0.727306 0.181919
0.678249 0.731874 0.195621
0.736441 0.736441 0.209324
0.792807 0.741009 0.223027
0.847346 0.745577 0.236730
0.900058 0.750144 0.250432
0.950942 0.754712 0.264135
1.000000 0.759279 0.277838
0.045004 0.761251 0.104691
0.118394 0.764905 0.118394
0.189957 0.768559 0.132096
0.259693 0.772213 0.145799
0.327602 0.775867 0.159502
0.393683 0.779521 0.173205
0.457938 0.783175 0.186907
0.520366 0.786829 0.200610
0.580967 0.790483 0.214313
0.639741 0.794137 0.228016
0.696687 0.797792 0.241718
0.751807 0.801446 0.255421
0.805100 0.805100 0.269124
0.856565 0.808754 0.282827
0.906204 0.812408 0.296529
0.954015 0.816062 0.310232
1.000000 0.819716 0.323935
0.094174 0.830158 0.150788
0.164491 0.832898 0.164491
0.232980 0.835639 0.178193
0.299643 0.838379 0.191896
0.364479 0.841120 0.205599
0.427488 0.843860 0.219302
0.488670 0.846601 0.233004
0.548024 0.849341 0.246707
0.605552 0.852082 0.260410
0.661253 0.854823 0.274112
0.715126 0.857563 0.287815
0.767173 0.860304 0.301518
0.817392 0.863044 0.315221
0.865785 0.865785 0.328923
0.912350 0.868525 0.342626
0.957089 0.871266 0.356329
1.000000 0.874006 0.370032
0.143344 0.892918 0.196885
0.210587 0.894745 0.210587
0.276004 0.896572 0.224290
0.339594 0.898399 0.237993
0.401357 0.900226 0.251696
0.461292 0.902053 0.265398
0.519401 0.903880 0.279101
0.575682 0.905707 0.292804
0.630137 0.907534 0.306507
0.682764 0.909361 0.320209
0.733565 0.911188 0.333912
0.782538 0.913015 0.347615
0.829685 0.914842 0.361318
0.875004 0.916669 0.375020
0.918496 0.918496 0.388723
0.960162 0.920323 0.402426
1.000000 0.922150 0.416129
0.192514 0.949532 0.242982
0.256684 0.950446 0.256684
0.319028 0.951359 0.270387
0.379545 0.952273 0.284090
0.438234 0.953186 0.297793
0.495097 0.954100 0.311495
0.550132 0.955013 0.325198
0.603340 0.955927 0.338901
0.654722 0.956840 0.352604
0.704276 0.957754 0.366306
0.752004 0.958667 0.380009
0.797904 0.959581 0.393712
0.841977 0.960494 0.407414
0.884223 0.961408 0.421117
0.924643 0.962321 0.434820
0.963235 0.963235 0.448523
1.000000 0.964148 0.462225
0.241684 1.000000 0.289079
0.302781 1.000000 0.302781
0.362052 1.000000 0.316484
0.419495 1.000000 0.330187
0.475112 1.000000 0.343889
0.528901 1.000000 0.357592
0.580863 1.000000 0.371295
0.630999 1.000000 0.384998
0.679307 1.000000 0.398700
0.725788 1.000000 0.412403
0.770442 1.000000 0.426106
0.813270 1.000000 0.439809
0.854270 1.000000 0.453511
0.893443 1.000000 0.467214
0.930789 1.000000 0.480917
0.966308 1.000000 0.494620
1.000000 1.000000 0.508322
0.000000 0.000000 0.057491
0.029659 0.000000 0.059318
0.061145 0.000000 0.061145
0.094458 0.000000 0.062972
0.129598 0.000000 0.064799
0.166565 0.000000 0.066626
0.205359 0.000000 0.068453
0.245981 0.000000 0.070280
0.288429 0.000000 0.072107
0.332704 0.000000 0.073934
0.378806 0.000000 0.075761
0.426736 0.000000 0.077588
0.476492 0.000000 0.079415
0.528075 0.000000 0.081242
0.581486 0.000000 0.083069
0.636723 0.000000 0.084896
0.693788 0.000000 0.086723
0.000000 0.031819 0.063637
0.032732 0.032732 0.065464
0.067291 0.033646 0.067291
0.103677 0.034559 0.069118
0.141891 0.035473 0.070945
0.181931 0.036386 0.072772
0.223798 0.037300 0.074599
0.267492 0.038213 0.076426
0.313014 0.039127 0.078253
0.360362 0.040040 0.080080
0.409537 0.040954 0.081908
0.460540 0.041867 0.083735
0.513369 0.042781 0.085562
0.568026 0.043694 0.087389
0.624509 0.044608 0.089216
0.682820 0.045521 0.091043
0.742958 0.046435 0.092870
0.000000 0.069783 0.069783
0.035805 0.071610 0.071610
0.073438 0.073438 0.073438
0.112897 0.075265 0.075265
0.154183 0.077092 0.077092
0.197296 0.078919 0.078919
0.242237 0.080746 0.080746
0.289004 0.082573 0.082573
0.337599 0.084400 0.084400
0.388020 0.086227 0.086227
0.440269 0.088054 0.088054
0.494344 0.089881 0.089881
0.550247 0.091708 0.091708
0.607976 0.093535 0.093535
0.667533 0.095362 0.095362
0.728917 0.097189 0.097189
0.792128 0.099016 0.099016
0.000000 0.113895 0.075930
0.038878 0.116635 0.077757
0.079584 0.119376 0.079584
0.122116 0.122116 0.081411
0.166476 0.124857 0.083238
0.212662 0.127597 0.085065
0.260676 0.130338 0.086892
0.310516 0.133078 0.088719
0.362184 0.135819 0.090546
0.415678 0.138559 0.092373
0.471000 0.141300 0.094200
0.528149 0.144041 0.096027
0.587124 0.146781 0.097854
0.647927 0.149522 0.099681
0.710557 0.152262 0.101508
0.775014 0.155003 0.103335
0.841298 0.157743 0.105162
0.000000 0.164152 0.082076
0.041951 0.167806 0.083903
0.085730 0.171460 0.085730
0.131336 0.175114 0.087557
0.178768 0.178768 0.089384
0.228028 0.182422 0.091211
0.279114 0.186076 0.093038
0.332028 0.189730 0.094865
0.386769 0.193384 0.096692
0.443336 0.197038 0.098519
0.501731 0.200693 0.100346
0.561953 0.204347 0.102173
0.624002 0.208001 0.104000
0.687878 0.211655 0.105827
0.753581 0.215309 0.107654
0.821111 0.218963 0.109481
0.890467 0.222617 0.111308
0.000000 0.220555 0.088222
0.045025 0.225123 0.090049
0.091876 0.229691 0.091876
0.140555 0.234258 0.093703
0.191061 0.238826 0.095530
0.243393 0.243393 0.097357
0.297553 0.247961 0.099184
0.353540 0.252529 0.101011
0.411354 0.257096 0.102838
0.470995 0.261664 0.104665
0.532463 0.266231 0.106493
0.595757 0.270799 0.108320
0.660879 0.275366 0.110147
0.727828 0.279934 0.111974
0.796604 0.284502 0.113801
0.867207 0.289069 0.115628
0.939638 0.293637 0.117455
0.000000 0.283105 0.094368
0.048098 0.288586 0.096195
0.098023 0.294068 0.098023
0.149774 0.299549 0.099850
0.203353 0.305030 0.101677
0.258759 0.310511 0.103504
0.315992 0.315992 0.105331
0.375052 0.321473 0.107158
0.435939 0.326954 0.108985
0.498653 0.332435 0.110812
0.563194 0.337916 0.112639
0.629562 0.343397 0.114466
0.697757 0.348878 0.116293
0.767779 0.354360 0.118120
0.839628 0.359841 0.119947
0.913304 0.365322 0.121774
0.988808 0.370803 0.123601
0.000000 0.351801 0.100515
0.051171 0.358196 0.102342
0.104169 0.364591 0.104169
0.158994 0.370985 0.105996
0.215646 0.377380 0.107823
0.274125 0.383774 0.109650
0.334431 0.390169 0.111477
0.396564 0.396564 0.113304
0.460524 0.402958 0.115131
0.526311 0.409353 0.116958
0.593925 0.415747 0.118785
0.663366 0.422142 0.120612
0.734634 0.428537 0.122439
0.807730 0.434931 0.124266
0.876093 0.442419 0.132652
0.938960 0.450641 0.145441
1.000000 0.458862 0.158230
0.000000 0.426644 0.106661
0.054244 0.433952 0.108488
0.110315 0.441260 0.110315
0.168213 0.448568 0.112142
0.227938 0.455876 0.113969
0.289490 0.463184 0.115796
0.352869 0.470492 0.117623
0.418076 0.477801 0.119450
0.485109 0.485109 0.121277
0.553969 0.492417 0.123104
0.624656 0.499725 0.124931
0.691896 0.507033 0.137308
0.757171 0.514341 0.150097
0.820619 0.521649 0.162886
0.882239 0.528957 0.175676
0.942033 0.536266 0.188465
1.000000 0.543574 0.201254
0.000000 0.507632 0.112807
0.057317 0.515854 0.114634
0.116461 0.524076 0.116461
0.177432 0.532297 0.118288
0.240231 0.540519 0.120115
0.304856 0.548741 0.121942
0.371308 0.556962 0.123769
0.440184 0.564587 0.129175
0.509694 0.570982 0.141964
0.577377 0.577377 0.154753
0.643232 0.583771 0.167542
0.707261 0.590166 0.180332
0.769463 0.596560 0.193121
0.829838 0.602955 0.205910
0.888386 0.609350 0.218699
0.945106 0.615744 0.231489
1.000000 0.622139 0.244278
0.000000 0.594767 0.118953
0.060390 0.603902 0.120780
0.122608 0.613038 0.122608
0.186652 0.622173 0.124435
0.257569 0.628785 0.133831
0.329487 0.634266 0.146620
0.399578 0.639747 0.159409
0.467842 0.645228 0.172199
0.534279 0.650709 0.184988
0.598889 0.656190 0.197777
0.661671 0.661671 0.210566
0.722627 0.667152 0.223355
0.781756 0.672633 0.236145
0.839057 0.678115 0.248934
0.894532 0.683596 0.261723
0.948179 0.689077 0.274512
1.000000 0.694558 0.287302
0.000797 0.687749 0.125698
0.076950 0.692317 0.138487
0.151276 0.696884 0.151276
0.223775 0.701452 0.164065
0.294447 0.706020 0.176855
0.363292 0.710587 0.189644
0.430309 0.715155 0.202433
0.495500 0.719722 0.215222
0.558864 0.724290 0.228012
0.620400 0.728857 0.240801
0.680110 0.733425 0.253590
0.737993 0.737993 0.266379
0.794048 0.742560 0.279168
0.848277 0.747128 0.291958
0.900678 0.751695 0.304747
0.951253 0.756263 0.317536
1.000000 0.760830 0.330325
0.049967 0.762492 0.168722
0.123047 0.766146 0.181511
0.194300 0.769800 0.194300
0.263726 0.773454 0.207089
0.331324 0.777108 0.219878
0.397096 0.780762 0.232668
0.461041 0.784416 0.245457
0.523158 0.788070 0.258246
0.583449 0.791724 0.271035
0.641912 0.795378 0.283825
0.698549 0.799033 0.296614
0.753358 0.802687 0.309403
0.806341 0.806341 0.322192
0.857496 0.809995 0.334981
0.906824 0.813649 0.347771
0.954326 0.817303 0.360560
1.000000 0.820957 0.373349
0.099137 0.831088 0.211745
0.169144 0.833829 0.224535
0.237324 0.836569 0.237324
0.303676 0.839310 0.250113
0.368202 0.842050 0.262902
0.430900 0.844791 0.275691
0.491772 0.847532 0.288481
0.550816 0.850272 0.301270
0.608034 0.853013 0.314059
0.663424 0.855753 0.326848
0.716988 0.858494 0.339638
0.768724 0.861234 0.352427
0.818633 0.863975 0.365216
0.866715 0.866715 0.378005
0.912971 0.869456 0.390794
0.957399 0.872196 0.403584
1.000000 0.874937 0.416373
0.148307 0.893538 0.254769
0.215241 0.895365 0.267558
0.280347 0.897193 0.280347
0.343627 0.899020 0.293137
0.405079 0.900847 0.305926
0.464705 0.902674 0.318715
0.522503 0.904501 0.331504
0.578474 0.906328 0.344294
0.632619 0.908155 0.357083
0.684936 0.909982 0.369872
0.735426 0.911809 0.382661
0.784089 0.913636 0.395450
0.830926 0.915463 0.408240
0.875935 0.917290 0.421029
0.919117 0.919117 0.433818
0.960472 0.920944 0.446607
1.000000 0.922771 0.459397
0.197477 0.949842 0.297793
0.261338 0.950756 0.310582
0.323371 0.951669 0.323371
0.383578 0.952583 0.336160
0.441957 0.953496 0.348950
0.498509 0.954410 0.361739
0.553234 0.955323 0.374528
0.606133 0.956237 0.387317
0.657204 0.957150 0.400107
0.706448 0.958064 0.412896
0.753865 0.958978 0.425685
0.799455 0.959891 0.438474
0.843218 0.960805 0.451263
0.885154 0.961718 0.464053
0.925263 0.962632 0.476842
0.963545 0.963545 0.489631
1.000000 0.964459 0.502420
0.246647 1.000000 0.340817
0.307435 1.000000 0.353606
0.366395 1.000000 0.366395
0.423528 1.000000 0.379184
0.478834 1.000000 0.391973
0.532314 1.000000 0.404763
0.583966 1.000000 0.417552
0.633791 1.000000 0.430341
0.681789 1.000000 0.443130
0.727960 1.000000 0.455920
0.772304 1.000000 0.468709
0.814821 1.000000 0.481498
0.855511 1.000000 0.494287
0.894374 1.000000 0.507076
0.931409 1.000000 0.519866
0.966618 1.000000 0.532655
1.000000 1.000000 0.545444
0.000000 0.000000 0.087167
0.029969 0.000000 0.089908
0.061765 0.000000 0.092648
0.095389 0.000000 0.095389
0.130839 0.000000 0.098129
0.168116 0.000000 0.100870
0.207221 0.000000 0.103610
0.248152 0.000000 0.106351
0.290911 0.000000 0.109091
0.335496 0.000000 0.111832
0.381909 0.000000 0.114573
0.430148 0.000000 0.117313
0.480215 0.000000 0.120054
