assets/luts/bleach_bypass.cube
# Bleach Bypass — high contrast, low saturation
# Generated for ProCut Studio. Original transfer function, no third-party LUT data.
TITLE "Bleach Bypass"
LUT_3D_SIZE 9
DOMAIN_MIN 0.0 0.0 0.0
DOMAIN_MAX 1.0 1.0 1.0
0.000000 0.000000 0.000000
0.059904 0.000000 0.000000
0.127116 0.000000 0.000000
0.201637 0.000000 0.000000
0.283465 0.000000 0.000000
0.372602 0.000000 0.000000
0.469046 0.000000 0.000000
0.572799 0.000000 0.000000
0.683860 0.000000 0.000000
0.000000 0.068543 0.000000
0.072197 0.072197 0.000000
0.151701 0.075851 0.000000
0.238514 0.079505 0.000000
0.332635 0.083159 0.000000
0.434064 0.086813 0.000000
0.542801 0.090467 0.000000
0.658847 0.094121 0.000000
0.782200 0.097775 0.000000
0.000000 0.161670 0.000000
0.084489 0.168978 0.000000
0.176286 0.176286 0.000000
0.275392 0.183594 0.000000
0.381805 0.190903 0.000000
0.495527 0.198211 0.000000
0.616556 0.205519 0.000000
0.744894 0.212827 0.000000
0.880540 0.220135 0.000000
0.000000 0.279383 0.000000
0.096782 0.290345 0.000000
0.200871 0.301307 0.000000
0.312269 0.312269 0.000000
0.430975 0.323231 0.000000
0.556989 0.334193 0.000000
0.690311 0.345156 0.000000
0.830942 0.356118 0.000000
0.978880 0.367080 0.000000
0.000000 0.421680 0.000000
0.109074 0.436296 0.000000
0.225456 0.450912 0.000000
0.349147 0.465529 0.000000
0.480145 0.480145 0.000000
0.618452 0.494761 0.000000
0.754689 0.509378 0.018755
0.880998 0.523994 0.047988
1.000000 0.538610 0.077220
0.000000 0.588562 0.000000
0.121367 0.606833 0.000000
0.250124 0.625062 0.000165
0.393373 0.636024 0.029398
0.529315 0.646986 0.058630
0.657948 0.657948 0.087862
0.779274 0.668911 0.117095
0.893291 0.679873 0.146327
1.000000 0.690835 0.175560
0.040040 0.760010 0.040040
0.185613 0.767318 0.069273
0.323879 0.774626 0.098505
0.454836 0.781934 0.127738
0.578485 0.789243 0.156970
0.694826 0.796551 0.186203
0.803859 0.803859 0.215435
0.905583 0.811167 0.244668
1.000000 0.818475 0.273900
0.138380 0.892297 0.138380
0.271661 0.895952 0.167612
0.397634 0.899606 0.196845
0.516298 0.903260 0.226077
0.627655 0.906914 0.255310
0.731703 0.910568 0.284543
0.828444 0.914222 0.313775
0.917876 0.917876 0.343007
1.000000 0.921530 0.372240
0.236720 1.000000 0.236720
0.357708 1.000000 0.265952
0.471389 1.000000 0.295185
0.577761 1.000000 0.324418
0.676825 1.000000 0.353650
0.768581 1.000000 0.382882
0.853029 1.000000 0.412115
0.930168 1.000000 0.441347
1.000000 1.000000 0.470580
0.000000 0.000000 0.057491
0.061145 0.000000 0.061145
0.129598 0.000000 0.064799
0.205359 0.000000 0.068453
0.288429 0.000000 0.072107
0.378806 0.000000 0.075761
0.476492 0.000000 0.079415
0.581486 0.000000 0.083069
0.693788 0.000000 0.086723
0.000000 0.069783 0.069783
0.073438 0.073438 0.073438
0.154183 0.077092 0.077092
0.242237 0.080746 0.080746
0.337599 0.084400 0.084400
0.440269 0.088054 0.088054
0.550247 0.091708 0.091708
0.667533 0.095362 0.095362
0.792128 0.099016 0.099016
0.000000 0.164152 0.082076
0.085730 0.171460 0.085730
0.178768 0.178768 0.089384
0.279114 0.186076 0.093038
0.386769 0.193384 0.096692
0.501731 0.200693 0.100346
0.624002 0.208001 0.104000
0.753581 0.215309 0.107654
0.890467 0.222617 0.111308
0.000000 0.283105 0.094368
0.098023 0.294068 0.098023
0.203353 0.305030 0.101677
0.315992 0.315992 0.105331
0.435939 0.326954 0.108985
0.563194 0.337916 0.112639
0.697757 0.348878 0.116293
0.839628 0.359841 0.119947
0.988808 0.370803 0.123601
0.000000 0.426644 0.106661
0.110315 0.441260 0.110315
0.227938 0.455876 0.113969
0.352869 0.470492 0.117623
0.485109 0.485109 0.121277
0.624656 0.499725 0.124931
0.757171 0.514341 0.150097
0.882239 0.528957 0.175676
1.000000 0.543574 0.201254
0.000000 0.594767 0.118953
0.122608 0.613038 0.122608
0.257569 0.628785 0.133831
0.399578 0.639747 0.159409
0.534279 0.650709 0.184988
0.661671 0.661671 0.210566
0.781756 0.672633 0.236145
0.894532 0.683596 0.261723
1.000000 0.694558 0.287302
0.049967 0.762492 0.168722
0.194300 0.769800 0.194300
0.331324 0.777108 0.219878
0.461041 0.784416 0.245457
0.583449 0.791724 0.271035
0.698549 0.799033 0.296614
0.806341 0.806341 0.322192
0.906824 0.813649 0.347771
1.000000 0.820957 0.373349
0.148307 0.893538 0.254769
0.280347 0.897193 0.280347
0.405079 0.900847 0.305926
0.522503 0.904501 0.331504
0.632619 0.908155 0.357083
0.735426 0.911809 0.382661
0.830926 0.915463 0.408240
0.919117 0.919117 0.433818
1.000000 0.922771 0.459397
0.246647 1.000000 0.340817
0.366395 1.000000 0.366395
0.478834 1.000000 0.391973
0.583966 1.000000 0.417552
0.681789 1.000000 0.443130
0.772304 1.000000 0.468709
0.855511 1.000000 0.494287
0.931409 1.000000 0.519866
1.000000 1.000000 0.545444
0.000000 0.000000 0.117464
0.062386 0.000000 0.124772
0.132080 0.000000 0.132080
0.209082 0.000000 0.139388
0.293393 0.000000 0.146696
0.385011 0.000000 0.154004
0.483938 0.000000 0.161313
0.590172 0.000000 0.168621
0.703715 0.000000 0.175929
0.000000 0.071024 0.142049
0.074678 0.074678 0.149357
0.156665 0.078332 0.156665
0.245960 0.081987 0.163973
0.342562 0.085641 0.171281
0.446473 0.089295 0.178589
0.557693 0.092949 0.185898
0.676220 0.096603 0.193206
0.802055 0.100257 0.200514
0.000000 0.166634 0.166634
0.086971 0.173942 0.173942
0.181250 0.181250 0.181250
0.282837 0.188558 0.188558
0.391733 0.195866 0.195866
0.507936 0.203174 0.203174
0.631448 0.210483 0.210483
0.762267 0.217791 0.217791
0.900395 0.225099 0.225099
0.000000 0.286828 0.191219
0.099263 0.297790 0.198527
0.205835 0.308753 0.205835
0.319715 0.319715 0.213143
0.440903 0.330677 0.220451
0.569398 0.341639 0.227759
0.705203 0.352601 0.235068
0.848315 0.363563 0.242376
0.998735 0.374526 0.249684
0.000000 0.431608 0.215804
0.111556 0.446224 0.223112
0.230420 0.460840 0.230420
0.356592 0.475456 0.237728
0.490073 0.490073 0.245036
0.628517 0.504689 0.257033
0.759653 0.519305 0.278958
0.883480 0.533921 0.300882
1.000000 0.548538 0.322806
0.000000 0.600972 0.240389
0.123848 0.619242 0.247697
0.265015 0.632508 0.265015
0.405783 0.643470 0.286939
0.539242 0.654432 0.308864
0.665394 0.665394 0.330788
0.784238 0.676356 0.352712
0.895773 0.687318 0.374637
1.000000 0.698281 0.396561
0.059895 0.764974 0.294921
0.202987 0.772282 0.316846
0.338770 0.779590 0.338770
0.467245 0.786898 0.360694
0.588413 0.794206 0.382619
0.702272 0.801514 0.404543
0.808822 0.808822 0.426467
0.908065 0.816131 0.448392
1.000000 0.823439 0.470316
0.158235 0.894779 0.368676
0.289034 0.898433 0.390601
0.412525 0.902087 0.412525
0.528708 0.905742 0.434449
0.637583 0.909396 0.456374
0.739149 0.913050 0.478298
0.833408 0.916704 0.500223
0.920358 0.920358 0.522147
1.000000 0.924012 0.544071
0.256575 1.000000 0.442431
0.375082 1.000000 0.464356
0.486280 1.000000 0.486280
0.590170 1.000000 0.508204
0.686752 1.000000 0.530129
0.776027 1.000000 0.552053
0.857993 1.000000 0.573977
0.932650 1.000000 0.595902
1.000000 1.000000 0.617826
0.000000 0.000000 0.179918
0.063627 0.000000 0.190881
0.134562 0.000000 0.201843
0.212805 0.000000 0.212805
0.298356 0.000000 0.223767
0.391216 0.000000 0.234729
0.491383 0.000000 0.245692
0.598859 0.000000 0.256654
0.713643 0.000000 0.267616
0.000000 0.072265 0.216796
0.075919 0.075919 0.227758
0.159147 0.079573 0.238720
0.249683 0.083228 0.249683
0.347526 0.086882 0.260645
0.452678 0.090536 0.271607
0.565138 0.094190 0.282569
0.684906 0.097844 0.293531
0.811983 0.101498 0.304493
0.000000 0.169116 0.253673
0.088212 0.176424 0.264636
0.183732 0.183732 0.275598
0.286560 0.191040 0.286560
0.396696 0.198348 0.297522
0.514141 0.205656 0.308484
0.638893 0.212964 0.319447
0.770954 0.220273 0.330409
0.910323 0.227581 0.341371
0.000000 0.290551 0.290551
0.100504 0.301513 0.301513
0.208317 0.312475 0.312475
0.323438 0.323438 0.323438
0.445866 0.334400 0.334400
0.575603 0.345362 0.345362
0.712648 0.356324 0.356324
0.857001 0.367286 0.367286
1.000000 0.380414 0.380414
0.000000 0.436571 0.327428
0.112797 0.451188 0.338391
0.232902 0.465804 0.349353
0.360315 0.480420 0.360315
0.495036 0.495036 0.371277
0.632239 0.509652 0.387066
0.762134 0.524269 0.405336
0.884721 0.538885 0.423606
1.000000 0.553501 0.441877
0.000000 0.607177 0.364306
0.125626 0.625268 0.375447
0.272461 0.636230 0.393717
0.411987 0.647193 0.411987
0.544206 0.658155 0.430258
0.669117 0.669117 0.448528
0.786719 0.680079 0.466798
0.897014 0.691041 0.485069
1.000000 0.702003 0.503339
0.069822 0.767456 0.418639
0.211673 0.774764 0.436909
0.346216 0.782072 0.455180
0.473450 0.789380 0.473450
0.593376 0.796688 0.491720
0.705994 0.803996 0.509991
0.811304 0.811304 0.528261
0.909306 0.818612 0.546531
1.000000 0.825921 0.564802
0.168162 0.896020 0.480102
0.297721 0.899674 0.498372
0.419971 0.903328 0.516642
0.534912 0.906983 0.534912
0.642546 0.910637 0.553183
0.742872 0.914291 0.571453
0.835889 0.917945 0.589723
0.921599 0.921599 0.607994
1.000000 0.925253 0.626264
0.266502 1.000000 0.541564
0.383768 1.000000 0.559834
0.493726 1.000000 0.578105
0.596375 1.000000 0.596375
0.691716 1.000000 0.614645
0.779749 1.000000 0.632916
0.860474 1.000000 0.651186
0.933891 1.000000 0.669456
1.000000 1.000000 0.687727
0.000000 0.000000 0.244855
0.064868 0.000000 0.259471
0.137044 0.000000 0.274087
0.216528 0.000000 0.288704
0.303320 0.000000 0.303320
0.397420 0.000000 0.317936
0.498829 0.000000 0.332553
0.607545 0.000000 0.347169
0.723570 0.000000 0.361785
0.000000 0.073506 0.294025
0.077160 0.077160 0.308641
0.161629 0.080814 0.323258
0.253405 0.084468 0.337874
0.352490 0.088122 0.352490
0.458883 0.091777 0.367106
0.572584 0.095431 0.381723
0.693593 0.099085 0.396339
0.821910 0.102739 0.410955
0.000000 0.171598 0.343195
0.089453 0.178906 0.357811
0.186214 0.186214 0.372428
0.290283 0.193522 0.387044
0.401660 0.200830 0.401660
0.520345 0.208138 0.416276
0.646339 0.215446 0.430893
0.779640 0.222754 0.445509
0.920250 0.230063 0.460125
0.000000 0.294274 0.392365
0.101745 0.305236 0.406981
0.210799 0.316198 0.421598
0.327160 0.327160 0.436214
0.450830 0.338122 0.450830
0.581808 0.349085 0.465446
0.720094 0.360047 0.480063
0.865688 0.371009 0.494679
1.000000 0.386619 0.509295
0.000000 0.441535 0.441535
0.114038 0.456151 0.456151
0.235384 0.470768 0.470768
0.364038 0.485384 0.485384
0.500000 0.500000 0.500000
0.635962 0.514616 0.514616
0.764616 0.529232 0.529232
0.885962 0.543849 0.543849
1.000000 0.558465 0.558465
0.000000 0.613381 0.490705
0.134312 0.628991 0.505321
0.279906 0.639953 0.519938
0.418192 0.650915 0.534554
0.549170 0.661878 0.549170
0.672840 0.672840 0.563786
0.789201 0.683802 0.578403
0.898255 0.694764 0.593019
1.000000 0.705726 0.607635
0.079750 0.769938 0.539875
0.220360 0.777246 0.554491
0.353661 0.784554 0.569108
0.479655 0.791862 0.583724
0.598340 0.799170 0.598340
0.709717 0.806478 0.612956
0.813786 0.813786 0.627572
0.910547 0.821094 0.642189
1.000000 0.828403 0.656805
0.178090 0.897261 0.589045
0.306407 0.900915 0.603661
0.427416 0.904569 0.618278
0.541117 0.908223 0.632894
0.647510 0.911878 0.647510
0.746595 0.915532 0.662126
0.838371 0.919186 0.676743
0.922840 0.922840 0.691359
1.000000 0.926494 0.705975
0.276430 1.000000 0.638215
0.392455 1.000000 0.652831
0.501171 1.000000 0.667448
0.602580 1.000000 0.682064
0.696680 1.000000 0.696680
0.783472 1.000000 0.711296
0.862956 1.000000 0.725912
0.935132 1.000000 0.740529
1.000000 1.000000 0.755145
0.000000 0.000000 0.312273
0.066109 0.000000 0.330544
0.139526 0.000000 0.348814
0.220251 0.000000 0.367084
0.308284 0.000000 0.385355
0.403625 0.000000 0.403625
0.506274 0.000000 0.421895
0.616232 0.000000 0.440166
0.733498 0.000000 0.458436
0.000000 0.074747 0.373736
0.078401 0.078401 0.392006
0.164111 0.082055 0.410277
0.257128 0.085709 0.428547
0.357454 0.089363 0.446817
0.465087 0.093018 0.465087
0.580029 0.096672 0.483358
0.702279 0.100326 0.501628
0.831838 0.103980 0.519898
0.000000 0.174079 0.435198
0.090694 0.181387 0.453469
0.188696 0.188696 0.471739
0.294006 0.196004 0.490009
0.406624 0.203312 0.508280
0.526550 0.210620 0.526550
0.653784 0.217928 0.544820
0.788327 0.225236 0.563091
0.930177 0.232544 0.581361
0.000000 0.297997 0.496661
0.102986 0.308959 0.514931
0.213281 0.319921 0.533202
0.330883 0.330883 0.551472
0.455794 0.341845 0.569742
0.588013 0.352808 0.588013
0.727539 0.363770 0.606283
0.874374 0.374732 0.624553
1.000000 0.392823 0.635694
0.000000 0.446499 0.558123
0.115279 0.461115 0.576394
0.237866 0.475731 0.594664
0.367761 0.490347 0.612934
0.504964 0.504964 0.628723
0.639685 0.519580 0.639685
0.767098 0.534196 0.650647
0.887203 0.548813 0.661609
1.000000 0.563429 0.672572
0.000000 0.619586 0.619586
0.142999 0.632714 0.632714
0.287352 0.643676 0.643676
0.424397 0.654638 0.654638
0.554134 0.665600 0.665600
0.676562 0.676562 0.676562
0.791683 0.687525 0.687525
0.899496 0.698487 0.698487
1.000000 0.709449 0.709449
0.089677 0.772419 0.658629
0.229046 0.779728 0.669591
0.361107 0.787036 0.680553
0.485859 0.794344 0.691516
0.603304 0.801652 0.702478
0.713440 0.808960 0.713440
0.816268 0.816268 0.724402
0.911788 0.823576 0.735364
1.000000 0.830884 0.746327
0.188017 0.898502 0.695507
0.315094 0.902156 0.706469
0.434862 0.905810 0.717431
0.547322 0.909464 0.728393
0.652474 0.913118 0.739355
0.750317 0.916772 0.750317
0.840853 0.920427 0.761280
0.924081 0.924081 0.772242
1.000000 0.927735 0.783204
0.286357 1.000000 0.732384
0.401141 1.000000 0.743346
0.508617 1.000000 0.754308
0.608784 1.000000 0.765271
0.701644 1.000000 0.776233
0.787195 1.000000 0.787195
0.865438 1.000000 0.798157
0.936373 1.000000 0.809119
1.000000 1.000000 0.820082
0.000000 0.000000 0.382174
0.067350 0.000000 0.404098
0.142008 0.000000 0.426023
0.223973 0.000000 0.447947
0.313248 0.000000 0.469871
0.409830 0.000000 0.491796
0.513720 0.000000 0.513720
0.624918 0.000000 0.535644
0.743425 0.000000 0.557569
0.000000 0.075988 0.455929
0.079642 0.079642 0.477853
0.166593 0.083296 0.499778
0.260851 0.086950 0.521702
0.362418 0.090604 0.543626
0.471292 0.094258 0.565551
0.587475 0.097913 0.587475
0.710966 0.101567 0.609399
0.841765 0.105221 0.631324
0.000000 0.176561 0.529684
0.091935 0.183869 0.551608
0.191178 0.191178 0.573533
0.297728 0.198486 0.595457
0.411588 0.205794 0.617381
0.532755 0.213102 0.639306
0.661230 0.220410 0.661230
0.797013 0.227718 0.683154
0.940105 0.235026 0.705079
0.000000 0.301719 0.603439
0.104227 0.312682 0.625363
0.215763 0.323644 0.647288
0.334606 0.334606 0.669212
0.460758 0.345568 0.691136
0.594217 0.356530 0.713061
0.734985 0.367492 0.734985
0.876152 0.380758 0.752303
1.000000 0.399028 0.759611
0.000000 0.451462 0.677194
0.116520 0.466079 0.699118
0.240347 0.480695 0.721043
0.371483 0.495311 0.742967
0.509928 0.509928 0.754964
0.643408 0.524544 0.762272
0.769580 0.539160 0.769580
0.888444 0.553776 0.776888
1.000000 0.568393 0.784196
0.001265 0.625474 0.750316
0.151685 0.636437 0.757624
0.294798 0.647399 0.764933
0.430602 0.658361 0.772241
0.559098 0.669323 0.779549
0.680285 0.680285 0.786857
0.794165 0.691248 0.794165
0.900737 0.702210 0.801473
1.000000 0.713172 0.808781
0.099605 0.774901 0.774901
0.237733 0.782209 0.782209
0.368553 0.789518 0.789518
0.492064 0.796826 0.796826
0.608268 0.804134 0.804134
0.717163 0.811442 0.811442
0.818750 0.818750 0.818750
0.913029 0.826058 0.826058
1.000000 0.833366 0.833366
0.197945 0.899743 0.799486
0.323780 0.903397 0.806794
0.442308 0.907051 0.814102
0.553527 0.910705 0.821411
0.657438 0.914359 0.828719
0.754040 0.918013 0.836027
0.843335 0.921668 0.843335
0.925322 0.925322 0.850643
1.000000 0.928976 0.857951
0.296285 1.000000 0.824071
0.409828 1.000000 0.831379
0.516063 1.000000 0.838688
0.614989 1.000000 0.845996
0.706608 1.000000 0.853304
0.790918 1.000000 0.860612
0.867920 1.000000 0.867920
0.937614 1.000000 0.875228
1.000000 1.000000 0.882536
0.000000 0.000000 0.454556
0.068591 0.000000 0.480134
0.144489 0.000000 0.505713
0.227696 0.000000 0.531291
0.318211 0.000000 0.556870
0.416034 0.000000 0.582448
0.521166 0.000000 0.608027
0.633605 0.000000 0.633605
0.753353 0.000000 0.659183
0.000000 0.077229 0.540603
0.080883 0.080883 0.566182
0.169074 0.084537 0.591760
0.264574 0.088191 0.617339
0.367381 0.091845 0.642917
0.477497 0.095499 0.668496
0.594921 0.099153 0.694074
0.719653 0.102807 0.719653
0.851692 0.106462 0.745231
0.000000 0.179043 0.626651
0.093176 0.186351 0.652229
0.193659 0.193659 0.677808
0.301451 0.200968 0.703386
0.416551 0.208276 0.728965
0.538959 0.215584 0.754543
0.668676 0.222892 0.780122
0.805700 0.230200 0.805700
0.950033 0.237508 0.831278
0.000000 0.305442 0.712698
0.105468 0.316404 0.738277
0.218244 0.327367 0.763855
0.338329 0.338329 0.789434
0.465721 0.349291 0.815012
0.600422 0.360253 0.840591
0.742431 0.371215 0.866169
0.877393 0.386962 0.877393
1.000000 0.405233 0.881047
0.000000 0.456426 0.798746
0.117761 0.471043 0.824324
0.242829 0.485659 0.849903
0.375344 0.500275 0.875069
0.514891 0.514891 0.878723
0.647131 0.529508 0.882377
0.772062 0.544124 0.886031
0.889685 0.558740 0.889685
1.000000 0.573356 0.893339
0.011192 0.629197 0.876399
0.160372 0.640159 0.880053
0.302243 0.651122 0.883707
0.436806 0.662084 0.887361
0.564061 0.673046 0.891015
0.684008 0.684008 0.894669
0.796647 0.694970 0.898323
0.901978 0.705932 0.901978
1.000000 0.716895 0.905632
0.109532 0.777383 0.888692
0.246419 0.784691 0.892346
0.375998 0.791999 0.896000
0.498269 0.799308 0.899654
0.613231 0.806616 0.903308
0.720886 0.813924 0.906962
0.821232 0.821232 0.910616
0.914270 0.828540 0.914270
1.000000 0.835848 0.917924
0.207872 0.900984 0.900984
0.332467 0.904638 0.904638
0.449753 0.908292 0.908292
0.559731 0.911946 0.911946
0.662401 0.915600 0.915600
0.757763 0.919254 0.919254
0.845817 0.922908 0.922908
0.926562 0.926562 0.926562
1.000000 0.930217 0.930217
0.306212 1.000000 0.913277
0.418514 1.000000 0.916931
0.523508 1.000000 0.920585
0.621194 1.000000 0.924239
0.711571 1.000000 0.927893
0.794641 1.000000 0.931547
0.870402 1.000000 0.935201
0.938855 1.000000 0.938855
1.000000 1.000000 0.942509
0.000000 0.000000 0.529420
0.069832 0.000000 0.558652
0.146971 0.000000 0.587885
0.231419 0.000000 0.617117
0.323175 0.000000 0.646350
0.422239 0.000000 0.675582
0.528611 0.000000 0.704815
0.642292 0.000000 0.734047
0.763280 0.000000 0.763280
0.000000 0.078470 0.627760
0.082124 0.082124 0.656992
0.171556 0.085778 0.686225
0.268297 0.089432 0.715458
0.372345 0.093086 0.744690
0.483702 0.096740 0.773923
0.602366 0.100394 0.803155
0.728339 0.104048 0.832388
0.861620 0.107703 0.861620
0.000000 0.181525 0.726100
0.094417 0.188833 0.755332
0.196141 0.196141 0.784565
0.305174 0.203449 0.813797
0.421515 0.210758 0.843030
0.545164 0.218066 0.872263
0.676121 0.225374 0.901495
0.814387 0.232682 0.930727
0.959960 0.239990 0.959960
0.000000 0.309165 0.824440
0.106709 0.320127 0.853673
0.220726 0.331089 0.882905
0.342052 0.342052 0.912138
0.470685 0.353014 0.941370
0.606627 0.363976 0.970603
0.749876 0.374938 0.999835
0.878633 0.393167 1.000000
1.000000 0.411438 1.000000
0.000000 0.461390 0.922780
0.119002 0.476006 0.952012
0.245311 0.490622 0.981245
0.381548 0.505239 1.000000
0.519855 0.519855 1.000000
0.650853 0.534471 1.000000
0.774544 0.549088 1.000000
0.890926 0.563704 1.000000
1.000000 0.578320 1.000000
0.021120 0.632920 1.000000
0.169058 0.643882 1.000000
0.309689 0.654844 1.000000
0.443011 0.665807 1.000000
0.569025 0.676769 1.000000
0.687731 0.687731 1.000000
0.799129 0.698693 1.000000
0.903218 0.709655 1.000000
1.000000 0.720618 1.000000
0.119460 0.779865 1.000000
0.255106 0.787173 1.000000
0.383444 0.794481 1.000000
0.504473 0.801789 1.000000
0.618195 0.809098 1.000000
0.724608 0.816406 1.000000
0.823714 0.823714 1.000000
0.915511 0.831022 1.000000
1.000000 0.838330 1.000000
0.217800 0.902225 1.000000
0.341153 0.905879 1.000000
0.457199 0.909533 1.000000
0.565936 0.913187 1.000000
0.667365 0.916841 1.000000
0.761486 0.920495 1.000000
0.848299 0.924149 1.000000
0.927803 0.927803 1.000000
1.000000 0.931458 1.000000
0.316140 1.000000 1.000000
0.427201 1.000000 1.000000
0.530954 1.000000 1.000000
0.627398 1.000000 1.000000
0.716535 1.000000 1.000000
0.798363 1.000000 1.000000
0.872884 1.000000 1.000000
0.940096 1.000000 1.000000
1.000000 1.000000 1.000000
