assets/luts/moody_blue.cube
# Moody Blue — cool shadows for night scenes
# Generated for ProCut Studio. Original transfer function, no third-party LUT data.
TITLE "Moody Blue"
LUT_3D_SIZE 5
DOMAIN_MIN 0.0 0.0 0.0
DOMAIN_MAX 1.0 1.0 1.0
0.020000 0.030000 0.080000
0.240000 0.030000 0.075748
0.460000 0.030000 0.071496
0.680000 0.030000 0.067244
0.900000 0.030000 0.062992
0.020000 0.265000 0.065696
0.240000 0.265000 0.061444
0.460000 0.265000 0.057192
0.680000 0.265000 0.052940
0.900000 0.265000 0.048688
0.020000 0.500000 0.051392
0.240000 0.500000 0.047140
0.460000 0.500000 0.042888
0.680000 0.500000 0.038636
0.900000 0.500000 0.034384
0.020000 0.735000 0.037088
0.240000 0.735000 0.032836
0.460000 0.735000 0.028584
0.680000 0.735000 0.024332
0.900000 0.735000 0.020080
0.020000 0.970000 0.022784
0.240000 0.970000 0.018532
0.460000 0.970000 0.014280
0.680000 0.970000 0.010028
0.900000 0.970000 0.005776
0.020000 0.030000 0.333556
0.240000 0.030000 0.329304
0.460000 0.030000 0.325052
0.680000 0.030000 0.320800
0.900000 0.030000 0.316548
0.020000 0.265000 0.319252
0.240000 0.265000 0.315000
0.460000 0.265000 0.310748
0.680000 0.265000 0.306496
0.900000 0.265000 0.302244
0.020000 0.500000 0.304948
0.240000 0.500000 0.300696
0.460000 0.500000 0.296444
0.680000 0.500000 0.292192
0.900000 0.500000 0.287940
0.020000 0.735000 0.290644
0.240000 0.735000 0.286392
0.460000 0.735000 0.282140
0.680000 0.735000 0.277888
0.900000 0.735000 0.273636
0.020000 0.970000 0.276340
0.240000 0.970000 0.272088
0.460000 0.970000 0.267836
0.680000 0.970000 0.263584
0.900000 0.970000 0.259332
0.020000 0.030000 0.587112
0.240000 0.030000 0.582860
0.460000 0.030000 0.578608
0.680000 0.030000 0.574356
0.900000 0.030000 0.570104
0.020000 0.265000 0.572808
0.240000 0.265000 0.568556
0.460000 0.265000 0.564304
0.680000 0.265000 0.560052
0.900000 0.265000 0.555800
0.020000 0.500000 0.558504
0.240000 0.500000 0.554252
0.460000 0.500000 0.550000
0.680000 0.500000 0.545748
0.900000 0.500000 0.541496
0.020000 0.735000 0.544200
0.240000 0.735000 0.539948
0.460000 0.735000 0.535696
0.680000 0.735000 0.531444
0.900000 0.735000 0.527192
0.020000 0.970000 0.529896
0.240000 0.970000 0.525644
0.460000 0.970000 0.521392
0.680000 0.970000 0.517140
0.900000 0.970000 0.512888
0.020000 0.030000 0.840668
0.240000 0.030000 0.836416
0.460000 0.030000 0.832164
0.680000 0.030000 0.827912
0.900000 0.030000 0.823660
0.020000 0.265000 0.826364
0.240000 0.265000 0.822112
0.460000 0.265000 0.817860
0.680000 0.265000 0.813608
0.900000 0.265000 0.809356
0.020000 0.500000 0.812060
0.240000 0.500000 0.807808
0.460000 0.500000 0.803556
0.680000 0.500000 0.799304
0.900000 0.500000 0.795052
0.020000 0.735000 0.797756
0.240000 0.735000 0.793504
0.460000 0.735000 0.789252
0.680000 0.735000 0.785000
0.900000 0.735000 0.780748
0.020000 0.970000 0.783452
0.240000 0.970000 0.779200
0.460000 0.970000 0.774948
0.680000 0.970000 0.770696
0.900000 0.970000 0.766444
0.020000 0.030000 1.000000
0.240000 0.030000 1.000000
0.460000 0.030000 1.000000
0.680000 0.030000 1.000000
0.900000 0.030000 1.000000
0.020000 0.265000 1.000000
0.240000 0.265000 1.000000
0.460000 0.265000 1.000000
0.680000 0.265000 1.000000
0.900000 0.265000 1.000000
0.020000 0.500000 1.000000
0.240000 0.500000 1.000000
0.460000 0.500000 1.000000
0.680000 0.500000 1.000000
0.900000 0.500000 1.000000
0.020000 0.735000 1.000000
0.240000 0.735000 1.000000
0.460000 0.735000 1.000000
0.680000 0.735000 1.000000
0.900000 0.735000 1.000000
0.020000 0.970000 1.000000
0.240000 0.970000 1.000000
0.460000 0.970000 1.000000
0.680000 0.970000 1.000000
0.900000 0.970000 1.000000
