assets/luts/moody_blue.cube
# Moody Blue — cool shadows for night scenes
# Generated for ProCut Studio. Original transfer function, no third-party LUT data.
TITLE "Moody Blue"
LUT_3D_SIZE 9
DOMAIN_MIN 0.0 0.0 0.0
DOMAIN_MAX 1.0 1.0 1.0
0.020000 0.030000 0.080000
0.130000 0.030000 0.077874
0.240000 0.030000 0.075748
0.350000 0.030000 0.073622
0.460000 0.030000 0.071496
0.570000 0.030000 0.069370
0.680000 0.030000 0.067244
0.790000 0.030000 0.065118
0.900000 0.030000 0.062992
0.020000 0.147500 0.072848
0.130000 0.147500 0.070722
0.240000 0.147500 0.068596
0.350000 0.147500 0.066470
0.460000 0.147500 0.064344
0.570000 0.147500 0.062218
0.680000 0.147500 0.060092
0.790000 0.147500 0.057966
0.900000 0.147500 0.055840
0.020000 0.265000 0.065696
0.130000 0.265000 0.063570
0.240000 0.265000 0.061444
0.350000 0.265000 0.059318
0.460000 0.265000 0.057192
0.570000 0.265000 0.055066
0.680000 0.265000 0.052940
0.790000 0.265000 0.050814
0.900000 0.265000 0.048688
0.020000 0.382500 0.058544
0.130000 0.382500 0.056418
0.240000 0.382500 0.054292
0.350000 0.382500 0.052166
0.460000 0.382500 0.050040
0.570000 0.382500 0.047914
0.680000 0.382500 0.045788
0.790000 0.382500 0.043662
0.900000 0.382500 0.041536
0.020000 0.500000 0.051392
0.130000 0.500000 0.049266
0.240000 0.500000 0.047140
0.350000 0.500000 0.045014
0.460000 0.500000 0.042888
0.570000 0.500000 0.040762
0.680000 0.500000 0.038636
0.790000 0.500000 0.036510
0.900000 0.500000 0.034384
0.020000 0.617500 0.044240
0.130000 0.617500 0.042114
0.240000 0.617500 0.039988
0.350000 0.617500 0.037862
0.460000 0.617500 0.035736
0.570000 0.617500 0.033610
0.680000 0.617500 0.031484
0.790000 0.617500 0.029358
0.900000 0.617500 0.027232
0.020000 0.735000 0.037088
0.130000 0.735000 0.034962
0.240000 0.735000 0.032836
0.350000 0.735000 0.030710
0.460000 0.735000 0.028584
0.570000 0.735000 0.026458
0.680000 0.735000 0.024332
0.790000 0.735000 0.022206
0.900000 0.735000 0.020080
0.020000 0.852500 0.029936
0.130000 0.852500 0.027810
0.240000 0.852500 0.025684
0.350000 0.852500 0.023558
0.460000 0.852500 0.021432
0.570000 0.852500 0.019306
0.680000 0.852500 0.017180
0.790000 0.852500 0.015054
0.900000 0.852500 0.012928
0.020000 0.970000 0.022784
0.130000 0.970000 0.020658
0.240000 0.970000 0.018532
0.350000 0.970000 0.016406
0.460000 0.970000 0.014280
0.570000 0.970000 0.012154
0.680000 0.970000 0.010028
0.790000 0.970000 0.007902
0.900000 0.970000 0.005776
0.020000 0.030000 0.206778
0.130000 0.030000 0.204652
0.240000 0.030000 0.202526
0.350000 0.030000 0.200400
0.460000 0.030000 0.198274
0.570000 0.030000 0.196148
0.680000 0.030000 0.194022
0.790000 0.030000 0.191896
0.900000 0.030000 0.189770
0.020000 0.147500 0.199626
0.130000 0.147500 0.197500
0.240000 0.147500 0.195374
0.350000 0.147500 0.193248
0.460000 0.147500 0.191122
0.570000 0.147500 0.188996
0.680000 0.147500 0.186870
0.790000 0.147500 0.184744
0.900000 0.147500 0.182618
0.020000 0.265000 0.192474
0.130000 0.265000 0.190348
0.240000 0.265000 0.188222
0.350000 0.265000 0.186096
0.460000 0.265000 0.183970
0.570000 0.265000 0.181844
0.680000 0.265000 0.179718
0.790000 0.265000 0.177592
0.900000 0.265000 0.175466
0.020000 0.382500 0.185322
0.130000 0.382500 0.183196
0.240000 0.382500 0.181070
0.350000 0.382500 0.178944
0.460000 0.382500 0.176818
0.570000 0.382500 0.174692
0.680000 0.382500 0.172566
0.790000 0.382500 0.170440
0.900000 0.382500 0.168314
0.020000 0.500000 0.178170
0.130000 0.500000 0.176044
0.240000 0.500000 0.173918
0.350000 0.500000 0.171792
0.460000 0.500000 0.169666
0.570000 0.500000 0.167540
0.680000 0.500000 0.165414
0.790000 0.500000 0.163288
0.900000 0.500000 0.161162
0.020000 0.617500 0.171018
0.130000 0.617500 0.168892
0.240000 0.617500 0.166766
0.350000 0.617500 0.164640
0.460000 0.617500 0.162514
0.570000 0.617500 0.160388
0.680000 0.617500 0.158262
0.790000 0.617500 0.156136
0.900000 0.617500 0.154010
0.020000 0.735000 0.163866
0.130000 0.735000 0.161740
0.240000 0.735000 0.159614
0.350000 0.735000 0.157488
0.460000 0.735000 0.155362
0.570000 0.735000 0.153236
0.680000 0.735000 0.151110
0.790000 0.735000 0.148984
0.900000 0.735000 0.146858
0.020000 0.852500 0.156714
0.130000 0.852500 0.154588
0.240000 0.852500 0.152462
0.350000 0.852500 0.150336
0.460000 0.852500 0.148210
0.570000 0.852500 0.146084
0.680000 0.852500 0.143958
0.790000 0.852500 0.141832
0.900000 0.852500 0.139706
0.020000 0.970000 0.149562
0.130000 0.970000 0.147436
0.240000 0.970000 0.145310
0.350000 0.970000 0.143184
0.460000 0.970000 0.141058
0.570000 0.970000 0.138932
0.680000 0.970000 0.136806
0.790000 0.970000 0.134680
0.900000 0.970000 0.132554
0.020000 0.030000 0.333556
0.130000 0.030000 0.331430
0.240000 0.030000 0.329304
0.350000 0.030000 0.327178
0.460000 0.030000 0.325052
0.570000 0.030000 0.322926
0.680000 0.030000 0.320800
0.790000 0.030000 0.318674
0.900000 0.030000 0.316548
0.020000 0.147500 0.326404
0.130000 0.147500 0.324278
0.240000 0.147500 0.322152
0.350000 0.147500 0.320026
0.460000 0.147500 0.317900
0.570000 0.147500 0.315774
0.680000 0.147500 0.313648
0.790000 0.147500 0.311522
0.900000 0.147500 0.309396
0.020000 0.265000 0.319252
0.130000 0.265000 0.317126
0.240000 0.265000 0.315000
0.350000 0.265000 0.312874
0.460000 0.265000 0.310748
0.570000 0.265000 0.308622
0.680000 0.265000 0.306496
0.790000 0.265000 0.304370
0.900000 0.265000 0.302244
0.020000 0.382500 0.312100
0.130000 0.382500 0.309974
0.240000 0.382500 0.307848
0.350000 0.382500 0.305722
0.460000 0.382500 0.303596
0.570000 0.382500 0.301470
0.680000 0.382500 0.299344
0.790000 0.382500 0.297218
0.900000 0.382500 0.295092
0.020000 0.500000 0.304948
0.130000 0.500000 0.302822
0.240000 0.500000 0.300696
0.350000 0.500000 0.298570
0.460000 0.500000 0.296444
0.570000 0.500000 0.294318
0.680000 0.500000 0.292192
0.790000 0.500000 0.290066
0.900000 0.500000 0.287940
0.020000 0.617500 0.297796
0.130000 0.617500 0.295670
0.240000 0.617500 0.293544
0.350000 0.617500 0.291418
0.460000 0.617500 0.289292
0.570000 0.617500 0.287166
0.680000 0.617500 0.285040
0.790000 0.617500 0.282914
0.900000 0.617500 0.280788
0.020000 0.735000 0.290644
0.130000 0.735000 0.288518
0.240000 0.735000 0.286392
0.350000 0.735000 0.284266
0.460000 0.735000 0.282140
0.570000 0.735000 0.280014
0.680000 0.735000 0.277888
0.790000 0.735000 0.275762
0.900000 0.735000 0.273636
0.020000 0.852500 0.283492
0.130000 0.852500 0.281366
0.240000 0.852500 0.279240
0.350000 0.852500 0.277114
0.460000 0.852500 0.274988
0.570000 0.852500 0.272862
0.680000 0.852500 0.270736
0.790000 0.852500 0.268610
0.900000 0.852500 0.266484
0.020000 0.970000 0.276340
0.130000 0.970000 0.274214
0.240000 0.970000 0.272088
0.350000 0.970000 0.269962
0.460000 0.970000 0.267836
0.570000 0.970000 0.265710
0.680000 0.970000 0.263584
0.790000 0.970000 0.261458
0.900000 0.970000 0.259332
0.020000 0.030000 0.460334
0.130000 0.030000 0.458208
0.240000 0.030000 0.456082
0.350000 0.030000 0.453956
0.460000 0.030000 0.451830
0.570000 0.030000 0.449704
0.680000 0.030000 0.447578
0.790000 0.030000 0.445452
0.900000 0.030000 0.443326
0.020000 0.147500 0.453182
0.130000 0.147500 0.451056
0.240000 0.147500 0.448930
0.350000 0.147500 0.446804
0.460000 0.147500 0.444678
0.570000 0.147500 0.442552
0.680000 0.147500 0.440426
0.790000 0.147500 0.438300
0.900000 0.147500 0.436174
0.020000 0.265000 0.446030
0.130000 0.265000 0.443904
0.240000 0.265000 0.441778
0.350000 0.265000 0.439652
0.460000 0.265000 0.437526
0.570000 0.265000 0.435400
0.680000 0.265000 0.433274
0.790000 0.265000 0.431148
0.900000 0.265000 0.429022
0.020000 0.382500 0.438878
0.130000 0.382500 0.436752
0.240000 0.382500 0.434626
0.350000 0.382500 0.432500
0.460000 0.382500 0.430374
0.570000 0.382500 0.428248
0.680000 0.382500 0.426122
0.790000 0.382500 0.423996
0.900000 0.382500 0.421870
0.020000 0.500000 0.431726
0.130000 0.500000 0.429600
0.240000 0.500000 0.427474
0.350000 0.500000 0.425348
0.460000 0.500000 0.423222
0.570000 0.500000 0.421096
0.680000 0.500000 0.418970
0.790000 0.500000 0.416844
0.900000 0.500000 0.414718
0.020000 0.617500 0.424574
0.130000 0.617500 0.422448
0.240000 0.617500 0.420322
0.350000 0.617500 0.418196
0.460000 0.617500 0.416070
0.570000 0.617500 0.413944
0.680000 0.617500 0.411818
0.790000 0.617500 0.409692
0.900000 0.617500 0.407566
0.020000 0.735000 0.417422
0.130000 0.735000 0.415296
0.240000 0.735000 0.413170
0.350000 0.735000 0.411044
0.460000 0.735000 0.408918
0.570000 0.735000 0.406792
0.680000 0.735000 0.404666
0.790000 0.735000 0.402540
0.900000 0.735000 0.400414
0.020000 0.852500 0.410270
0.130000 0.852500 0.408144
0.240000 0.852500 0.406018
0.350000 0.852500 0.403892
0.460000 0.852500 0.401766
0.570000 0.852500 0.399640
0.680000 0.852500 0.397514
0.790000 0.852500 0.395388
0.900000 0.852500 0.393262
0.020000 0.970000 0.403118
0.130000 0.970000 0.400992
0.240000 0.970000 0.398866
0.350000 0.970000 0.396740
0.460000 0.970000 0.394614
0.570000 0.970000 0.392488
0.680000 0.970000 0.390362
0.790000 0.970000 0.388236
0.900000 0.970000 0.386110
0.020000 0.030000 0.587112
0.130000 0.030000 0.584986
0.240000 0.030000 0.582860
0.350000 0.030000 0.580734
0.460000 0.030000 0.578608
0.570000 0.030000 0.576482
0.680000 0.030000 0.574356
0.790000 0.030000 0.572230
0.900000 0.030000 0.570104
0.020000 0.147500 0.579960
0.130000 0.147500 0.577834
0.240000 0.147500 0.575708
0.350000 0.147500 0.573582
0.460000 0.147500 0.571456
0.570000 0.147500 0.569330
0.680000 0.147500 0.567204
0.790000 0.147500 0.565078
0.900000 0.147500 0.562952
0.020000 0.265000 0.572808
0.130000 0.265000 0.570682
0.240000 0.265000 0.568556
0.350000 0.265000 0.566430
0.460000 0.265000 0.564304
0.570000 0.265000 0.562178
0.680000 0.265000 0.560052
0.790000 0.265000 0.557926
0.900000 0.265000 0.555800
0.020000 0.382500 0.565656
0.130000 0.382500 0.563530
0.240000 0.382500 0.561404
0.350000 0.382500 0.559278
0.460000 0.382500 0.557152
0.570000 0.382500 0.555026
0.680000 0.382500 0.552900
0.790000 0.382500 0.550774
0.900000 0.382500 0.548648
0.020000 0.500000 0.558504
0.130000 0.500000 0.556378
0.240000 0.500000 0.554252
0.350000 0.500000 0.552126
0.460000 0.500000 0.550000
0.570000 0.500000 0.547874
0.680000 0.500000 0.545748
0.790000 0.500000 0.543622
0.900000 0.500000 0.541496
0.020000 0.617500 0.551352
0.130000 0.617500 0.549226
0.240000 0.617500 0.547100
0.350000 0.617500 0.544974
0.460000 0.617500 0.542848
0.570000 0.617500 0.540722
0.680000 0.617500 0.538596
0.790000 0.617500 0.536470
0.900000 0.617500 0.534344
0.020000 0.735000 0.544200
0.130000 0.735000 0.542074
0.240000 0.735000 0.539948
0.350000 0.735000 0.537822
0.460000 0.735000 0.535696
0.570000 0.735000 0.533570
0.680000 0.735000 0.531444
0.790000 0.735000 0.529318
0.900000 0.735000 0.527192
0.020000 0.852500 0.537048
0.130000 0.852500 0.534922
0.240000 0.852500 0.532796
0.350000 0.852500 0.530670
0.460000 0.852500 0.528544
0.570000 0.852500 0.526418
0.680000 0.852500 0.524292
0.790000 0.852500 0.522166
0.900000 0.852500 0.520040
0.020000 0.970000 0.529896
0.130000 0.970000 0.527770
0.240000 0.970000 0.525644
0.350000 0.970000 0.523518
0.460000 0.970000 0.521392
0.570000 0.970000 0.519266
0.680000 0.970000 0.517140
0.790000 0.970000 0.515014
0.900000 0.970000 0.512888
0.020000 0.030000 0.713890
0.130000 0.030000 0.711764
0.240000 0.030000 0.709638
0.350000 0.030000 0.707512
0.460000 0.030000 0.705386
0.570000 0.030000 0.703260
0.680000 0.030000 0.701134
0.790000 0.030000 0.699008
0.900000 0.030000 0.696882
0.020000 0.147500 0.706738
0.130000 0.147500 0.704612
0.240000 0.147500 0.702486
0.350000 0.147500 0.700360
0.460000 0.147500 0.698234
0.570000 0.147500 0.696108
0.680000 0.147500 0.693982
0.790000 0.147500 0.691856
0.900000 0.147500 0.689730
0.020000 0.265000 0.699586
0.130000 0.265000 0.697460
0.240000 0.265000 0.695334
0.350000 0.265000 0.693208
0.460000 0.265000 0.691082
0.570000 0.265000 0.688956
0.680000 0.265000 0.686830
0.790000 0.265000 0.684704
0.900000 0.265000 0.682578
0.020000 0.382500 0.692434
0.130000 0.382500 0.690308
0.240000 0.382500 0.688182
0.350000 0.382500 0.686056
0.460000 0.382500 0.683930
0.570000 0.382500 0.681804
0.680000 0.382500 0.679678
0.790000 0.382500 0.677552
0.900000 0.382500 0.675426
0.020000 0.500000 0.685282
0.130000 0.500000 0.683156
0.240000 0.500000 0.681030
0.350000 0.500000 0.678904
0.460000 0.500000 0.676778
0.570000 0.500000 0.674652
0.680000 0.500000 0.672526
0.790000 0.500000 0.670400
0.900000 0.500000 0.668274
0.020000 0.617500 0.678130
0.130000 0.617500 0.676004
0.240000 0.617500 0.673878
0.350000 0.617500 0.671752
0.460000 0.617500 0.669626
0.570000 0.617500 0.667500
0.680000 0.617500 0.665374
0.790000 0.617500 0.663248
0.900000 0.617500 0.661122
0.020000 0.735000 0.670978
0.130000 0.735000 0.668852
0.240000 0.735000 0.666726
0.350000 0.735000 0.664600
0.460000 0.735000 0.662474
0.570000 0.735000 0.660348
0.680000 0.735000 0.658222
0.790000 0.735000 0.656096
0.900000 0.735000 0.653970
0.020000 0.852500 0.663826
0.130000 0.852500 0.661700
0.240000 0.852500 0.659574
0.350000 0.852500 0.657448
0.460000 0.852500 0.655322
0.570000 0.852500 0.653196
0.680000 0.852500 0.651070
0.790000 0.852500 0.648944
0.900000 0.852500 0.646818
0.020000 0.970000 0.656674
0.130000 0.970000 0.654548
0.240000 0.970000 0.652422
0.350000 0.970000 0.650296
0.460000 0.970000 0.648170
0.570000 0.970000 0.646044
0.680000 0.970000 0.643918
0.790000 0.970000 0.641792
0.900000 0.970000 0.639666
0.020000 0.030000 0.840668
0.130000 0.030000 0.838542
0.240000 0.030000 0.836416
0.350000 0.030000 0.834290
0.460000 0.030000 0.832164
0.570000 0.030000 0.830038
0.680000 0.030000 0.827912
0.790000 0.030000 0.825786
0.900000 0.030000 0.823660
0.020000 0.147500 0.833516
0.130000 0.147500 0.831390
0.240000 0.147500 0.829264
0.350000 0.147500 0.827138
0.460000 0.147500 0.825012
0.570000 0.147500 0.822886
0.680000 0.147500 0.820760
0.790000 0.147500 0.818634
0.900000 0.147500 0.816508
0.020000 0.265000 0.826364
0.130000 0.265000 0.824238
0.240000 0.265000 0.822112
0.350000 0.265000 0.819986
0.460000 0.265000 0.817860
0.570000 0.265000 0.815734
0.680000 0.265000 0.813608
0.790000 0.265000 0.811482
0.900000 0.265000 0.809356
0.020000 0.382500 0.819212
0.130000 0.382500 0.817086
0.240000 0.382500 0.814960
0.350000 0.382500 0.812834
0.460000 0.382500 0.810708
0.570000 0.382500 0.808582
0.680000 0.382500 0.806456
0.790000 0.382500 0.804330
0.900000 0.382500 0.802204
0.020000 0.500000 0.812060
0.130000 0.500000 0.809934
0.240000 0.500000 0.807808
0.350000 0.500000 0.805682
0.460000 0.500000 0.803556
0.570000 0.500000 0.801430
0.680000 0.500000 0.799304
0.790000 0.500000 0.797178
0.900000 0.500000 0.795052
0.020000 0.617500 0.804908
0.130000 0.617500 0.802782
0.240000 0.617500 0.800656
0.350000 0.617500 0.798530
0.460000 0.617500 0.796404
0.570000 0.617500 0.794278
0.680000 0.617500 0.792152
0.790000 0.617500 0.790026
0.900000 0.617500 0.787900
0.020000 0.735000 0.797756
0.130000 0.735000 0.795630
0.240000 0.735000 0.793504
0.350000 0.735000 0.791378
0.460000 0.735000 0.789252
0.570000 0.735000 0.787126
0.680000 0.735000 0.785000
0.790000 0.735000 0.782874
0.900000 0.735000 0.780748
0.020000 0.852500 0.790604
0.130000 0.852500 0.788478
0.240000 0.852500 0.786352
0.350000 0.852500 0.784226
0.460000 0.852500 0.782100
0.570000 0.852500 0.779974
0.680000 0.852500 0.777848
0.790000 0.852500 0.775722
0.900000 0.852500 0.773596
0.020000 0.970000 0.783452
0.130000 0.970000 0.781326
0.240000 0.970000 0.779200
0.350000 0.970000 0.777074
0.460000 0.970000 0.774948
0.570000 0.970000 0.772822
0.680000 0.970000 0.770696
0.790000 0.970000 0.768570
0.900000 0.970000 0.766444
0.020000 0.030000 0.967446
0.130000 0.030000 0.965320
0.240000 0.030000 0.963194
0.350000 0.030000 0.961068
0.460000 0.030000 0.958942
0.570000 0.030000 0.956816
0.680000 0.030000 0.954690
0.790000 0.030000 0.952564
0.900000 0.030000 0.950438
0.020000 0.147500 0.960294
0.130000 0.147500 0.958168
0.240000 0.147500 0.956042
0.350000 0.147500 0.953916
0.460000 0.147500 0.951790
0.570000 0.147500 0.949664
0.680000 0.147500 0.947538
0.790000 0.147500 0.945412
0.900000 0.147500 0.943286
0.020000 0.265000 0.953142
0.130000 0.265000 0.951016
0.240000 0.265000 0.948890
0.350000 0.265000 0.946764
0.460000 0.265000 0.944638
0.570000 0.265000 0.942512
0.680000 0.265000 0.940386
0.790000 0.265000 0.938260
0.900000 0.265000 0.936134
0.020000 0.382500 0.945990
0.130000 0.382500 0.943864
0.240000 0.382500 0.941738
0.350000 0.382500 0.939612
0.460000 0.382500 0.937486
0.570000 0.382500 0.935360
0.680000 0.382500 0.933234
0.790000 0.382500 0.931108
0.900000 0.382500 0.928982
0.020000 0.500000 0.938838
0.130000 0.500000 0.936712
0.240000 0.500000 0.934586
0.350000 0.500000 0.932460
0.460000 0.500000 0.930334
0.570000 0.500000 0.928208
0.680000 0.500000 0.926082
0.790000 0.500000 0.923956
0.900000 0.500000 0.921830
0.020000 0.617500 0.931686
0.130000 0.617500 0.929560
0.240000 0.617500 0.927434
0.350000 0.617500 0.925308
0.460000 0.617500 0.923182
0.570000 0.617500 0.921056
0.680000 0.617500 0.918930
0.790000 0.617500 0.916804
0.900000 0.617500 0.914678
0.020000 0.735000 0.924534
0.130000 0.735000 0.922408
0.240000 0.735000 0.920282
0.350000 0.735000 0.918156
0.460000 0.735000 0.916030
0.570000 0.735000 0.913904
0.680000 0.735000 0.911778
0.790000 0.735000 0.909652
0.900000 0.735000 0.907526
0.020000 0.852500 0.917382
0.130000 0.852500 0.915256
0.240000 0.852500 0.913130
0.350000 0.852500 0.911004
0.460000 0.852500 0.908878
0.570000 0.852500 0.906752
0.680000 0.852500 0.904626
0.790000 0.852500 0.902500
0.900000 0.852500 0.900374
0.020000 0.970000 0.910230
0.130000 0.970000 0.908104
0.240000 0.970000 0.905978
0.350000 0.970000 0.903852
0.460000 0.970000 0.901726
0.570000 0.970000 0.899600
0.680000 0.970000 0.897474
0.790000 0.970000 0.895348
0.900000 0.970000 0.893222
0.020000 0.030000 1.000000
0.130000 0.030000 1.000000
0.240000 0.030000 1.000000
0.350000 0.030000 1.000000
0.460000 0.030000 1.000000
0.570000 0.030000 1.000000
0.680000 0.030000 1.000000
0.790000 0.030000 1.000000
0.900000 0.030000 1.000000
0.020000 0.147500 1.000000
0.130000 0.147500 1.000000
0.240000 0.147500 1.000000
0.350000 0.147500 1.000000
0.460000 0.147500 1.000000
0.570000 0.147500 1.000000
0.680000 0.147500 1.000000
0.790000 0.147500 1.000000
0.900000 0.147500 1.000000
0.020000 0.265000 1.000000
0.130000 0.265000 1.000000
0.240000 0.265000 1.000000
0.350000 0.265000 1.000000
0.460000 0.265000 1.000000
0.570000 0.265000 1.000000
0.680000 0.265000 1.000000
0.790000 0.265000 1.000000
0.900000 0.265000 1.000000
0.020000 0.382500 1.000000
0.130000 0.382500 1.000000
0.240000 0.382500 1.000000
0.350000 0.382500 1.000000
0.460000 0.382500 1.000000
0.570000 0.382500 1.000000
0.680000 0.382500 1.000000
0.790000 0.382500 1.000000
0.900000 0.382500 1.000000
0.020000 0.500000 1.000000
0.130000 0.500000 1.000000
0.240000 0.500000 1.000000
0.350000 0.500000 1.000000
0.460000 0.500000 1.000000
0.570000 0.500000 1.000000
0.680000 0.500000 1.000000
0.790000 0.500000 1.000000
0.900000 0.500000 1.000000
0.020000 0.617500 1.000000
0.130000 0.617500 1.000000
0.240000 0.617500 1.000000
0.350000 0.617500 1.000000
0.460000 0.617500 1.000000
0.570000 0.617500 1.000000
0.680000 0.617500 1.000000
0.790000 0.617500 1.000000
0.900000 0.617500 1.000000
0.020000 0.735000 1.000000
0.130000 0.735000 1.000000
0.240000 0.735000 1.000000
0.350000 0.735000 1.000000
0.460000 0.735000 1.000000
0.570000 0.735000 1.000000
0.680000 0.735000 1.000000
0.790000 0.735000 1.000000
0.900000 0.735000 1.000000
0.020000 0.852500 1.000000
0.130000 0.852500 1.000000
0.240000 0.852500 1.000000
0.350000 0.852500 1.000000
0.460000 0.852500 1.000000
0.570000 0.852500 1.000000
0.680000 0.852500 1.000000
0.790000 0.852500 1.000000
0.900000 0.852500 1.000000
0.020000 0.970000 1.000000
0.130000 0.970000 1.000000
0.240000 0.970000 1.000000
0.350000 0.970000 1.000000
0.460000 0.970000 1.000000
0.570000 0.970000 1.000000
0.680000 0.970000 1.000000
0.790000 0.970000 1.000000
0.900000 0.970000 1.000000
