assets/luts/moody_blue.cube
# Moody Blue — cool shadows for night scenes
# Generated for ProCut Studio. Original transfer function, no third-party LUT data.
TITLE "Moody Blue"
LUT_3D_SIZE 17
DOMAIN_MIN 0.0 0.0 0.0
DOMAIN_MAX 1.0 1.0 1.0
0.020000 0.030000 0.080000
0.075000 0.030000 0.078937
0.130000 0.030000 0.077874
0.185000 0.030000 0.076811
0.240000 0.030000 0.075748
0.295000 0.030000 0.074685
0.350000 0.030000 0.073622
0.405000 0.030000 0.072559
0.460000 0.030000 0.071496
0.515000 0.030000 0.070433
0.570000 0.030000 0.069370
0.625000 0.030000 0.068307
0.680000 0.030000 0.067244
0.735000 0.030000 0.066181
0.790000 0.030000 0.065118
0.845000 0.030000 0.064055
0.900000 0.030000 0.062992
0.020000 0.088750 0.076424
0.075000 0.088750 0.075361
0.130000 0.088750 0.074298
0.185000 0.088750 0.073235
0.240000 0.088750 0.072172
0.295000 0.088750 0.071109
0.350000 0.088750 0.070046
0.405000 0.088750 0.068983
0.460000 0.088750 0.067920
0.515000 0.088750 0.066857
0.570000 0.088750 0.065794
0.625000 0.088750 0.064731
0.680000 0.088750 0.063668
0.735000 0.088750 0.062605
0.790000 0.088750 0.061542
0.845000 0.088750 0.060479
0.900000 0.088750 0.059416
0.020000 0.147500 0.072848
0.075000 0.147500 0.071785
0.130000 0.147500 0.070722
0.185000 0.147500 0.069659
0.240000 0.147500 0.068596
0.295000 0.147500 0.067533
0.350000 0.147500 0.066470
0.405000 0.147500 0.065407
0.460000 0.147500 0.064344
0.515000 0.147500 0.063281
0.570000 0.147500 0.062218
0.625000 0.147500 0.061155
0.680000 0.147500 0.060092
0.735000 0.147500 0.059029
0.790000 0.147500 0.057966
0.845000 0.147500 0.056903
0.900000 0.147500 0.055840
0.020000 0.206250 0.069272
0.075000 0.206250 0.068209
0.130000 0.206250 0.067146
0.185000 0.206250 0.066083
0.240000 0.206250 0.065020
0.295000 0.206250 0.063957
0.350000 0.206250 0.062894
0.405000 0.206250 0.061831
0.460000 0.206250 0.060768
0.515000 0.206250 0.059705
0.570000 0.206250 0.058642
0.625000 0.206250 0.057579
0.680000 0.206250 0.056516
0.735000 0.206250 0.055453
0.790000 0.206250 0.054390
0.845000 0.206250 0.053327
0.900000 0.206250 0.052264
0.020000 0.265000 0.065696
0.075000 0.265000 0.064633
0.130000 0.265000 0.063570
0.185000 0.265000 0.062507
0.240000 0.265000 0.061444
0.295000 0.265000 0.060381
0.350000 0.265000 0.059318
0.405000 0.265000 0.058255
0.460000 0.265000 0.057192
0.515000 0.265000 0.056129
0.570000 0.265000 0.055066
0.625000 0.265000 0.054003
0.680000 0.265000 0.052940
0.735000 0.265000 0.051877
0.790000 0.265000 0.050814
0.845000 0.265000 0.049751
0.900000 0.265000 0.048688
0.020000 0.323750 0.062120
0.075000 0.323750 0.061057
0.130000 0.323750 0.059994
0.185000 0.323750 0.058931
0.240000 0.323750 0.057868
0.295000 0.323750 0.056805
0.350000 0.323750 0.055742
0.405000 0.323750 0.054679
0.460000 0.323750 0.053616
0.515000 0.323750 0.052553
0.570000 0.323750 0.051490
0.625000 0.323750 0.050427
0.680000 0.323750 0.049364
0.735000 0.323750 0.048301
0.790000 0.323750 0.047238
0.845000 0.323750 0.046175
0.900000 0.323750 0.045112
0.020000 0.382500 0.058544
0.075000 0.382500 0.057481
0.130000 0.382500 0.056418
0.185000 0.382500 0.055355
0.240000 0.382500 0.054292
0.295000 0.382500 0.053229
0.350000 0.382500 0.052166
0.405000 0.382500 0.051103
0.460000 0.382500 0.050040
0.515000 0.382500 0.048977
0.570000 0.382500 0.047914
0.625000 0.382500 0.046851
0.680000 0.382500 0.045788
0.735000 0.382500 0.044725
0.790000 0.382500 0.043662
0.845000 0.382500 0.042599
0.900000 0.382500 0.041536
0.020000 0.441250 0.054968
0.075000 0.441250 0.053905
0.130000 0.441250 0.052842
0.185000 0.441250 0.051779
0.240000 0.441250 0.050716
0.295000 0.441250 0.049653
0.350000 0.441250 0.048590
0.405000 0.441250 0.047527
0.460000 0.441250 0.046464
0.515000 0.441250 0.045401
0.570000 0.441250 0.044338
0.625000 0.441250 0.043275
0.680000 0.441250 0.042212
0.735000 0.441250 0.041149
0.790000 0.441250 0.040086
0.845000 0.441250 0.039023
0.900000 0.441250 0.037960
0.020000 0.500000 0.051392
0.075000 0.500000 0.050329
0.130000 0.500000 0.049266
0.185000 0.500000 0.048203
0.240000 0.500000 0.047140
0.295000 0.500000 0.046077
0.350000 0.500000 0.045014
0.405000 0.500000 0.043951
0.460000 0.500000 0.042888
0.515000 0.500000 0.041825
0.570000 0.500000 0.040762
0.625000 0.500000 0.039699
0.680000 0.500000 0.038636
0.735000 0.500000 0.037573
0.790000 0.500000 0.036510
0.845000 0.500000 0.035447
0.900000 0.500000 0.034384
0.020000 0.558750 0.047816
0.075000 0.558750 0.046753
0.130000 0.558750 0.045690
0.185000 0.558750 0.044627
0.240000 0.558750 0.043564
0.295000 0.558750 0.042501
0.350000 0.558750 0.041438
0.405000 0.558750 0.040375
0.460000 0.558750 0.039312
0.515000 0.558750 0.038249
0.570000 0.558750 0.037186
0.625000 0.558750 0.036123
0.680000 0.558750 0.035060
0.735000 0.558750 0.033997
0.790000 0.558750 0.032934
0.845000 0.558750 0.031871
0.900000 0.558750 0.030808
0.020000 0.617500 0.044240
0.075000 0.617500 0.043177
0.130000 0.617500 0.042114
0.185000 0.617500 0.041051
0.240000 0.617500 0.039988
0.295000 0.617500 0.038925
0.350000 0.617500 0.037862
0.405000 0.617500 0.036799
0.460000 0.617500 0.035736
0.515000 0.617500 0.034673
0.570000 0.617500 0.033610
0.625000 0.617500 0.032547
0.680000 0.617500 0.031484
0.735000 0.617500 0.030421
0.790000 0.617500 0.029358
0.845000 0.617500 0.028295
0.900000 0.617500 0.027232
0.020000 0.676250 0.040664
0.075000 0.676250 0.039601
0.130000 0.676250 0.038538
0.185000 0.676250 0.037475
0.240000 0.676250 0.036412
0.295000 0.676250 0.035349
0.350000 0.676250 0.034286
0.405000 0.676250 0.033223
0.460000 0.676250 0.032160
0.515000 0.676250 0.031097
0.570000 0.676250 0.030034
0.625000 0.676250 0.028971
0.680000 0.676250 0.027908
0.735000 0.676250 0.026845
0.790000 0.676250 0.025782
0.845000 0.676250 0.024719
0.900000 0.676250 0.023656
0.020000 0.735000 0.037088
0.075000 0.735000 0.036025
0.130000 0.735000 0.034962
0.185000 0.735000 0.033899
0.240000 0.735000 0.032836
0.295000 0.735000 0.031773
0.350000 0.735000 0.030710
0.405000 0.735000 0.029647
0.460000 0.735000 0.028584
0.515000 0.735000 0.027521
0.570000 0.735000 0.026458
0.625000 0.735000 0.025395
0.680000 0.735000 0.024332
0.735000 0.735000 0.023269
0.790000 0.735000 0.022206
0.845000 0.735000 0.021143
0.900000 0.735000 0.020080
0.020000 0.793750 0.033512
0.075000 0.793750 0.032449
0.130000 0.793750 0.031386
0.185000 0.793750 0.030323
0.240000 0.793750 0.029260
0.295000 0.793750 0.028197
0.350000 0.793750 0.027134
0.405000 0.793750 0.026071
0.460000 0.793750 0.025008
0.515000 0.793750 0.023945
0.570000 0.793750 0.022882
0.625000 0.793750 0.021819
0.680000 0.793750 0.020756
0.735000 0.793750 0.019693
0.790000 0.793750 0.018630
0.845000 0.793750 0.017567
0.900000 0.793750 0.016504
0.020000 0.852500 0.029936
0.075000 0.852500 0.028873
0.130000 0.852500 0.027810
0.185000 0.852500 0.026747
0.240000 0.852500 0.025684
0.295000 0.852500 0.024621
0.350000 0.852500 0.023558
0.405000 0.852500 0.022495
0.460000 0.852500 0.021432
0.515000 0.852500 0.020369
0.570000 0.852500 0.019306
0.625000 0.852500 0.018243
0.680000 0.852500 0.017180
0.735000 0.852500 0.016117
0.790000 0.852500 0.015054
0.845000 0.852500 0.013991
0.900000 0.852500 0.012928
0.020000 0.911250 0.026360
0.075000 0.911250 0.025297
0.130000 0.911250 0.024234
0.185000 0.911250 0.023171
0.240000 0.911250 0.022108
0.295000 0.911250 0.021045
0.350000 0.911250 0.019982
0.405000 0.911250 0.018919
0.460000 0.911250 0.017856
0.515000 0.911250 0.016793
0.570000 0.911250 0.015730
0.625000 0.911250 0.014667
0.680000 0.911250 0.013604
0.735000 0.911250 0.012541
0.790000 0.911250 0.011478
0.845000 0.911250 0.010415
0.900000 0.911250 0.009352
0.020000 0.970000 0.022784
0.075000 0.970000 0.021721
0.130000 0.970000 0.020658
0.185000 0.970000 0.019595
0.240000 0.970000 0.018532
0.295000 0.970000 0.017469
0.350000 0.970000 0.016406
0.405000 0.970000 0.015343
0.460000 0.970000 0.014280
0.515000 0.970000 0.013217
0.570000 0.970000 0.012154
0.625000 0.970000 0.011091
0.680000 0.970000 0.010028
0.735000 0.970000 0.008965
0.790000 0.970000 0.007902
0.845000 0.970000 0.006839
0.900000 0.970000 0.005776
0.020000 0.030000 0.143389
0.075000 0.030000 0.142326
0.130000 0.030000 0.141263
0.185000 0.030000 0.140200
0.240000 0.030000 0.139137
0.295000 0.030000 0.138074
0.350000 0.030000 0.137011
0.405000 0.030000 0.135948
0.460000 0.030000 0.134885
0.515000 0.030000 0.133822
0.570000 0.030000 0.132759
0.625000 0.030000 0.131696
0.680000 0.030000 0.130633
0.735000 0.030000 0.129570
0.790000 0.030000 0.128507
0.845000 0.030000 0.127444
0.900000 0.030000 0.126381
0.020000 0.088750 0.139813
0.075000 0.088750 0.138750
0.130000 0.088750 0.137687
0.185000 0.088750 0.136624
0.240000 0.088750 0.135561
0.295000 0.088750 0.134498
0.350000 0.088750 0.133435
0.405000 0.088750 0.132372
0.460000 0.088750 0.131309
0.515000 0.088750 0.130246
0.570000 0.088750 0.129183
0.625000 0.088750 0.128120
0.680000 0.088750 0.127057
0.735000 0.088750 0.125994
0.790000 0.088750 0.124931
0.845000 0.088750 0.123868
0.900000 0.088750 0.122805
0.020000 0.147500 0.136237
0.075000 0.147500 0.135174
0.130000 0.147500 0.134111
0.185000 0.147500 0.133048
0.240000 0.147500 0.131985
0.295000 0.147500 0.130922
0.350000 0.147500 0.129859
0.405000 0.147500 0.128796
0.460000 0.147500 0.127733
0.515000 0.147500 0.126670
0.570000 0.147500 0.125607
0.625000 0.147500 0.124544
0.680000 0.147500 0.123481
0.735000 0.147500 0.122418
0.790000 0.147500 0.121355
0.845000 0.147500 0.120292
0.900000 0.147500 0.119229
0.020000 0.206250 0.132661
0.075000 0.206250 0.131598
0.130000 0.206250 0.130535
0.185000 0.206250 0.129472
0.240000 0.206250 0.128409
0.295000 0.206250 0.127346
0.350000 0.206250 0.126283
0.405000 0.206250 0.125220
0.460000 0.206250 0.124157
0.515000 0.206250 0.123094
0.570000 0.206250 0.122031
0.625000 0.206250 0.120968
0.680000 0.206250 0.119905
0.735000 0.206250 0.118842
0.790000 0.206250 0.117779
0.845000 0.206250 0.116716
0.900000 0.206250 0.115653
0.020000 0.265000 0.129085
0.075000 0.265000 0.128022
0.130000 0.265000 0.126959
0.185000 0.265000 0.125896
0.240000 0.265000 0.124833
0.295000 0.265000 0.123770
0.350000 0.265000 0.122707
0.405000 0.265000 0.121644
0.460000 0.265000 0.120581
0.515000 0.265000 0.119518
0.570000 0.265000 0.118455
0.625000 0.265000 0.117392
0.680000 0.265000 0.116329
0.735000 0.265000 0.115266
0.790000 0.265000 0.114203
0.845000 0.265000 0.113140
0.900000 0.265000 0.112077
0.020000 0.323750 0.125509
0.075000 0.323750 0.124446
0.130000 0.323750 0.123383
0.185000 0.323750 0.122320
0.240000 0.323750 0.121257
0.295000 0.323750 0.120194
0.350000 0.323750 0.119131
0.405000 0.323750 0.118068
0.460000 0.323750 0.117005
0.515000 0.323750 0.115942
0.570000 0.323750 0.114879
0.625000 0.323750 0.113816
0.680000 0.323750 0.112753
0.735000 0.323750 0.111690
0.790000 0.323750 0.110627
0.845000 0.323750 0.109564
0.900000 0.323750 0.108501
0.020000 0.382500 0.121933
0.075000 0.382500 0.120870
0.130000 0.382500 0.119807
0.185000 0.382500 0.118744
0.240000 0.382500 0.117681
0.295000 0.382500 0.116618
0.350000 0.382500 0.115555
0.405000 0.382500 0.114492
0.460000 0.382500 0.113429
0.515000 0.382500 0.112366
0.570000 0.382500 0.111303
0.625000 0.382500 0.110240
0.680000 0.382500 0.109177
0.735000 0.382500 0.108114
0.790000 0.382500 0.107051
0.845000 0.382500 0.105988
0.900000 0.382500 0.104925
0.020000 0.441250 0.118357
0.075000 0.441250 0.117294
0.130000 0.441250 0.116231
0.185000 0.441250 0.115168
0.240000 0.441250 0.114105
0.295000 0.441250 0.113042
0.350000 0.441250 0.111979
0.405000 0.441250 0.110916
0.460000 0.441250 0.109853
0.515000 0.441250 0.108790
0.570000 0.441250 0.107727
0.625000 0.441250 0.106664
0.680000 0.441250 0.105601
0.735000 0.441250 0.104538
0.790000 0.441250 0.103475
0.845000 0.441250 0.102412
0.900000 0.441250 0.101349
0.020000 0.500000 0.114781
0.075000 0.500000 0.113718
0.130000 0.500000 0.112655
0.185000 0.500000 0.111592
0.240000 0.500000 0.110529
0.295000 0.500000 0.109466
0.350000 0.500000 0.108403
0.405000 0.500000 0.107340
0.460000 0.500000 0.106277
0.515000 0.500000 0.105214
0.570000 0.500000 0.104151
0.625000 0.500000 0.103088
0.680000 0.500000 0.102025
0.735000 0.500000 0.100962
0.790000 0.500000 0.099899
0.845000 0.500000 0.098836
0.900000 0.500000 0.097773
0.020000 0.558750 0.111205
0.075000 0.558750 0.110142
0.130000 0.558750 0.109079
0.185000 0.558750 0.108016
0.240000 0.558750 0.106953
0.295000 0.558750 0.105890
0.350000 0.558750 0.104827
0.405000 0.558750 0.103764
0.460000 0.558750 0.102701
0.515000 0.558750 0.101638
0.570000 0.558750 0.100575
0.625000 0.558750 0.099512
0.680000 0.558750 0.098449
0.735000 0.558750 0.097386
0.790000 0.558750 0.096323
0.845000 0.558750 0.095260
0.900000 0.558750 0.094197
0.020000 0.617500 0.107629
0.075000 0.617500 0.106566
0.130000 0.617500 0.105503
0.185000 0.617500 0.104440
0.240000 0.617500 0.103377
0.295000 0.617500 0.102314
0.350000 0.617500 0.101251
0.405000 0.617500 0.100188
0.460000 0.617500 0.099125
0.515000 0.617500 0.098062
0.570000 0.617500 0.096999
0.625000 0.617500 0.095936
0.680000 0.617500 0.094873
0.735000 0.617500 0.093810
0.790000 0.617500 0.092747
0.845000 0.617500 0.091684
0.900000 0.617500 0.090621
0.020000 0.676250 0.104053
0.075000 0.676250 0.102990
0.130000 0.676250 0.101927
0.185000 0.676250 0.100864
0.240000 0.676250 0.099801
0.295000 0.676250 0.098738
0.350000 0.676250 0.097675
0.405000 0.676250 0.096612
0.460000 0.676250 0.095549
0.515000 0.676250 0.094486
0.570000 0.676250 0.093423
0.625000 0.676250 0.092360
0.680000 0.676250 0.091297
0.735000 0.676250 0.090234
0.790000 0.676250 0.089171
0.845000 0.676250 0.088108
0.900000 0.676250 0.087045
0.020000 0.735000 0.100477
0.075000 0.735000 0.099414
0.130000 0.735000 0.098351
0.185000 0.735000 0.097288
0.240000 0.735000 0.096225
0.295000 0.735000 0.095162
0.350000 0.735000 0.094099
0.405000 0.735000 0.093036
0.460000 0.735000 0.091973
0.515000 0.735000 0.090910
0.570000 0.735000 0.089847
0.625000 0.735000 0.088784
0.680000 0.735000 0.087721
0.735000 0.735000 0.086658
0.790000 0.735000 0.085595
0.845000 0.735000 0.084532
0.900000 0.735000 0.083469
0.020000 0.793750 0.096901
0.075000 0.793750 0.095838
0.130000 0.793750 0.094775
0.185000 0.793750 0.093712
0.240000 0.793750 0.092649
0.295000 0.793750 0.091586
0.350000 0.793750 0.090523
0.405000 0.793750 0.089460
0.460000 0.793750 0.088397
0.515000 0.793750 0.087334
0.570000 0.793750 0.086271
0.625000 0.793750 0.085208
0.680000 0.793750 0.084145
0.735000 0.793750 0.083082
0.790000 0.793750 0.082019
0.845000 0.793750 0.080956
0.900000 0.793750 0.079893
0.020000 0.852500 0.093325
0.075000 0.852500 0.092262
0.130000 0.852500 0.091199
0.185000 0.852500 0.090136
0.240000 0.852500 0.089073
0.295000 0.852500 0.088010
0.350000 0.852500 0.086947
0.405000 0.852500 0.085884
0.460000 0.852500 0.084821
0.515000 0.852500 0.083758
0.570000 0.852500 0.082695
0.625000 0.852500 0.081632
0.680000 0.852500 0.080569
0.735000 0.852500 0.079506
0.790000 0.852500 0.078443
0.845000 0.852500 0.077380
0.900000 0.852500 0.076317
0.020000 0.911250 0.089749
0.075000 0.911250 0.088686
0.130000 0.911250 0.087623
0.185000 0.911250 0.086560
0.240000 0.911250 0.085497
0.295000 0.911250 0.084434
0.350000 0.911250 0.083371
0.405000 0.911250 0.082308
0.460000 0.911250 0.081245
0.515000 0.911250 0.080182
0.570000 0.911250 0.079119
0.625000 0.911250 0.078056
0.680000 0.911250 0.076993
0.735000 0.911250 0.075930
0.790000 0.911250 0.074867
0.845000 0.911250 0.073804
0.900000 0.911250 0.072741
0.020000 0.970000 0.086173
0.075000 0.970000 0.085110
0.130000 0.970000 0.084047
0.185000 0.970000 0.082984
0.240000 0.970000 0.081921
0.295000 0.970000 0.080858
0.350000 0.970000 0.079795
0.405000 0.970000 0.078732
0.460000 0.970000 0.077669
0.515000 0.970000 0.076606
0.570000 0.970000 0.075543
0.625000 0.970000 0.074480
0.680000 0.970000 0.073417
0.735000 0.970000 0.072354
0.790000 0.970000 0.071291
0.845000 0.970000 0.070228
0.900000 0.970000 0.069165
0.020000 0.030000 0.206778
0.075000 0.030000 0.205715
0.130000 0.030000 0.204652
0.185000 0.030000 0.203589
0.240000 0.030000 0.202526
0.295000 0.030000 0.201463
0.350000 0.030000 0.200400
0.405000 0.030000 0.199337
0.460000 0.030000 0.198274
0.515000 0.030000 0.197211
0.570000 0.030000 0.196148
0.625000 0.030000 0.195085
0.680000 0.030000 0.194022
0.735000 0.030000 0.192959
0.790000 0.030000 0.191896
0.845000 0.030000 0.190833
0.900000 0.030000 0.189770
0.020000 0.088750 0.203202
0.075000 0.088750 0.202139
0.130000 0.088750 0.201076
0.185000 0.088750 0.200013
0.240000 0.088750 0.198950
0.295000 0.088750 0.197887
0.350000 0.088750 0.196824
0.405000 0.088750 0.195761
0.460000 0.088750 0.194698
0.515000 0.088750 0.193635
0.570000 0.088750 0.192572
0.625000 0.088750 0.191509
0.680000 0.088750 0.190446
0.735000 0.088750 0.189383
0.790000 0.088750 0.188320
0.845000 0.088750 0.187257
0.900000 0.088750 0.186194
0.020000 0.147500 0.199626
0.075000 0.147500 0.198563
0.130000 0.147500 0.197500
0.185000 0.147500 0.196437
0.240000 0.147500 0.195374
0.295000 0.147500 0.194311
0.350000 0.147500 0.193248
0.405000 0.147500 0.192185
0.460000 0.147500 0.191122
0.515000 0.147500 0.190059
0.570000 0.147500 0.188996
0.625000 0.147500 0.187933
0.680000 0.147500 0.186870
0.735000 0.147500 0.185807
0.790000 0.147500 0.184744
0.845000 0.147500 0.183681
0.900000 0.147500 0.182618
0.020000 0.206250 0.196050
0.075000 0.206250 0.194987
0.130000 0.206250 0.193924
0.185000 0.206250 0.192861
0.240000 0.206250 0.191798
0.295000 0.206250 0.190735
0.350000 0.206250 0.189672
0.405000 0.206250 0.188609
0.460000 0.206250 0.187546
0.515000 0.206250 0.186483
0.570000 0.206250 0.185420
0.625000 0.206250 0.184357
0.680000 0.206250 0.183294
0.735000 0.206250 0.182231
0.790000 0.206250 0.181168
0.845000 0.206250 0.180105
0.900000 0.206250 0.179042
0.020000 0.265000 0.192474
0.075000 0.265000 0.191411
0.130000 0.265000 0.190348
0.185000 0.265000 0.189285
0.240000 0.265000 0.188222
0.295000 0.265000 0.187159
0.350000 0.265000 0.186096
0.405000 0.265000 0.185033
0.460000 0.265000 0.183970
0.515000 0.265000 0.182907
0.570000 0.265000 0.181844
0.625000 0.265000 0.180781
0.680000 0.265000 0.179718
0.735000 0.265000 0.178655
0.790000 0.265000 0.177592
0.845000 0.265000 0.176529
0.900000 0.265000 0.175466
0.020000 0.323750 0.188898
0.075000 0.323750 0.187835
0.130000 0.323750 0.186772
0.185000 0.323750 0.185709
0.240000 0.323750 0.184646
0.295000 0.323750 0.183583
0.350000 0.323750 0.182520
0.405000 0.323750 0.181457
0.460000 0.323750 0.180394
0.515000 0.323750 0.179331
0.570000 0.323750 0.178268
0.625000 0.323750 0.177205
0.680000 0.323750 0.176142
0.735000 0.323750 0.175079
0.790000 0.323750 0.174016
0.845000 0.323750 0.172953
0.900000 0.323750 0.171890
0.020000 0.382500 0.185322
0.075000 0.382500 0.184259
0.130000 0.382500 0.183196
0.185000 0.382500 0.182133
0.240000 0.382500 0.181070
0.295000 0.382500 0.180007
0.350000 0.382500 0.178944
0.405000 0.382500 0.177881
0.460000 0.382500 0.176818
0.515000 0.382500 0.175755
0.570000 0.382500 0.174692
0.625000 0.382500 0.173629
0.680000 0.382500 0.172566
0.735000 0.382500 0.171503
0.790000 0.382500 0.170440
0.845000 0.382500 0.169377
0.900000 0.382500 0.168314
0.020000 0.441250 0.181746
0.075000 0.441250 0.180683
0.130000 0.441250 0.179620
0.185000 0.441250 0.178557
0.240000 0.441250 0.177494
0.295000 0.441250 0.176431
0.350000 0.441250 0.175368
0.405000 0.441250 0.174305
0.460000 0.441250 0.173242
0.515000 0.441250 0.172179
0.570000 0.441250 0.171116
0.625000 0.441250 0.170053
0.680000 0.441250 0.168990
0.735000 0.441250 0.167927
0.790000 0.441250 0.166864
0.845000 0.441250 0.165801
0.900000 0.441250 0.164738
0.020000 0.500000 0.178170
0.075000 0.500000 0.177107
0.130000 0.500000 0.176044
0.185000 0.500000 0.174981
0.240000 0.500000 0.173918
0.295000 0.500000 0.172855
0.350000 0.500000 0.171792
0.405000 0.500000 0.170729
0.460000 0.500000 0.169666
0.515000 0.500000 0.168603
0.570000 0.500000 0.167540
0.625000 0.500000 0.166477
0.680000 0.500000 0.165414
0.735000 0.500000 0.164351
0.790000 0.500000 0.163288
0.845000 0.500000 0.162225
0.900000 0.500000 0.161162
0.020000 0.558750 0.174594
0.075000 0.558750 0.173531
0.130000 0.558750 0.172468
0.185000 0.558750 0.171405
0.240000 0.558750 0.170342
0.295000 0.558750 0.169279
0.350000 0.558750 0.168216
0.405000 0.558750 0.167153
0.460000 0.558750 0.166090
0.515000 0.558750 0.165027
0.570000 0.558750 0.163964
0.625000 0.558750 0.162901
0.680000 0.558750 0.161838
0.735000 0.558750 0.160775
0.790000 0.558750 0.159712
0.845000 0.558750 0.158649
0.900000 0.558750 0.157586
0.020000 0.617500 0.171018
0.075000 0.617500 0.169955
0.130000 0.617500 0.168892
0.185000 0.617500 0.167829
0.240000 0.617500 0.166766
0.295000 0.617500 0.165703
0.350000 0.617500 0.164640
0.405000 0.617500 0.163577
0.460000 0.617500 0.162514
0.515000 0.617500 0.161451
0.570000 0.617500 0.160388
0.625000 0.617500 0.159325
0.680000 0.617500 0.158262
0.735000 0.617500 0.157199
0.790000 0.617500 0.156136
0.845000 0.617500 0.155073
0.900000 0.617500 0.154010
0.020000 0.676250 0.167442
0.075000 0.676250 0.166379
0.130000 0.676250 0.165316
0.185000 0.676250 0.164253
0.240000 0.676250 0.163190
0.295000 0.676250 0.162127
0.350000 0.676250 0.161064
0.405000 0.676250 0.160001
0.460000 0.676250 0.158938
0.515000 0.676250 0.157875
0.570000 0.676250 0.156812
0.625000 0.676250 0.155749
0.680000 0.676250 0.154686
0.735000 0.676250 0.153623
0.790000 0.676250 0.152560
0.845000 0.676250 0.151497
0.900000 0.676250 0.150434
0.020000 0.735000 0.163866
0.075000 0.735000 0.162803
0.130000 0.735000 0.161740
0.185000 0.735000 0.160677
0.240000 0.735000 0.159614
0.295000 0.735000 0.158551
0.350000 0.735000 0.157488
0.405000 0.735000 0.156425
0.460000 0.735000 0.155362
0.515000 0.735000 0.154299
0.570000 0.735000 0.153236
0.625000 0.735000 0.152173
0.680000 0.735000 0.151110
0.735000 0.735000 0.150047
0.790000 0.735000 0.148984
0.845000 0.735000 0.147921
0.900000 0.735000 0.146858
0.020000 0.793750 0.160290
0.075000 0.793750 0.159227
0.130000 0.793750 0.158164
0.185000 0.793750 0.157101
0.240000 0.793750 0.156038
0.295000 0.793750 0.154975
0.350000 0.793750 0.153912
0.405000 0.793750 0.152849
0.460000 0.793750 0.151786
0.515000 0.793750 0.150723
0.570000 0.793750 0.149660
0.625000 0.793750 0.148597
0.680000 0.793750 0.147534
0.735000 0.793750 0.146471
0.790000 0.793750 0.145408
0.845000 0.793750 0.144345
0.900000 0.793750 0.143282
0.020000 0.852500 0.156714
0.075000 0.852500 0.155651
0.130000 0.852500 0.154588
0.185000 0.852500 0.153525
0.240000 0.852500 0.152462
0.295000 0.852500 0.151399
0.350000 0.852500 0.150336
0.405000 0.852500 0.149273
0.460000 0.852500 0.148210
0.515000 0.852500 0.147147
0.570000 0.852500 0.146084
0.625000 0.852500 0.145021
0.680000 0.852500 0.143958
0.735000 0.852500 0.142895
0.790000 0.852500 0.141832
0.845000 0.852500 0.140769
0.900000 0.852500 0.139706
0.020000 0.911250 0.153138
0.075000 0.911250 0.152075
0.130000 0.911250 0.151012
0.185000 0.911250 0.149949
0.240000 0.911250 0.148886
0.295000 0.911250 0.147823
0.350000 0.911250 0.146760
0.405000 0.911250 0.145697
0.460000 0.911250 0.144634
0.515000 0.911250 0.143571
0.570000 0.911250 0.142508
0.625000 0.911250 0.141445
0.680000 0.911250 0.140382
0.735000 0.911250 0.139319
0.790000 0.911250 0.138256
0.845000 0.911250 0.137193
0.900000 0.911250 0.136130
0.020000 0.970000 0.149562
0.075000 0.970000 0.148499
0.130000 0.970000 0.147436
0.185000 0.970000 0.146373
0.240000 0.970000 0.145310
0.295000 0.970000 0.144247
0.350000 0.970000 0.143184
0.405000 0.970000 0.142121
0.460000 0.970000 0.141058
0.515000 0.970000 0.139995
0.570000 0.970000 0.138932
0.625000 0.970000 0.137869
0.680000 0.970000 0.136806
0.735000 0.970000 0.135743
0.790000 0.970000 0.134680
0.845000 0.970000 0.133617
0.900000 0.970000 0.132554
0.020000 0.030000 0.270167
0.075000 0.030000 0.269104
0.130000 0.030000 0.268041
0.185000 0.030000 0.266978
0.240000 0.030000 0.265915
0.295000 0.030000 0.264852
0.350000 0.030000 0.263789
0.405000 0.030000 0.262726
0.460000 0.030000 0.261663
0.515000 0.030000 0.260600
0.570000 0.030000 0.259537
0.625000 0.030000 0.258474
0.680000 0.030000 0.257411
0.735000 0.030000 0.256348
