assets/luts/teal_orange.cube
# Teal & Orange — cinematic complementary grade
# Generated for ProCut Studio. Original transfer function, no third-party LUT data.
TITLE "Teal & Orange"
LUT_3D_SIZE 5
DOMAIN_MIN 0.0 0.0 0.0
DOMAIN_MAX 1.0 1.0 1.0
0.000000 0.006604 0.091910
0.164926 0.007319 0.082735
0.449540 0.008035 0.073744
0.746220 0.008754 0.064944
0.982414 0.009475 0.056340
0.000000 0.231452 0.061789
0.193582 0.232577 0.053257
0.483101 0.233703 0.044927
0.776657 0.234830 0.036805
1.000000 0.235958 0.028895
0.000000 0.520150 0.033900
0.223175 0.521398 0.026069
0.516711 0.522647 0.018457
0.806255 0.523895 0.011069
1.000000 0.525143 0.003911
0.017474 0.804216 0.008436
0.253608 0.805300 0.001363
0.550273 0.806384 0.000000
0.834916 0.807466 0.000000
1.000000 0.808547 0.000000
0.038379 1.000000 0.000000
0.284782 1.000000 0.000000
0.583687 1.000000 0.000000
0.862541 1.000000 0.000000
1.000000 1.000000 0.000000
0.000000 0.006847 0.344678
0.167774 0.007562 0.332619
0.452923 0.008279 0.320628
0.749328 0.008999 0.308711
0.984436 0.009720 0.296872
0.000000 0.231834 0.304391
0.196528 0.232960 0.292582
0.486493 0.234086 0.280859
0.779685 0.235213 0.269226
1.000000 0.236342 0.257689
0.000068 0.520574 0.265014
0.226211 0.521822 0.253513
0.520103 0.523071 0.242114
0.809193 0.524319 0.230822
1.000000 0.525567 0.219643
0.019512 0.804584 0.226739
0.256723 0.805668 0.215602
0.553654 0.806751 0.204585
0.837754 0.807833 0.193692
1.000000 0.808914 0.182928
0.040576 1.000000 0.189758
0.287966 1.000000 0.179042
0.587048 1.000000 0.168463
0.865268 1.000000 0.158026
1.000000 1.000000 0.147735
0.000000 0.007089 0.631512
0.170632 0.007805 0.619280
0.456307 0.008523 0.606999
0.752428 0.009243 0.594675
0.986442 0.009966 0.582313
0.000000 0.232216 0.590179
0.199484 0.233342 0.577803
0.489886 0.234469 0.565397
0.782704 0.235596 0.552963
1.000000 0.236725 0.540509
0.001954 0.520998 0.548431
0.229255 0.522246 0.535970
0.523494 0.523494 0.523494
0.812121 0.524742 0.511009
1.000000 0.525990 0.498520
0.021566 0.804952 0.506462
0.259845 0.806036 0.493972
0.557034 0.807119 0.481485
0.840580 0.808200 0.469005
1.000000 0.809280 0.456537
0.042789 1.000000 0.464464
0.291157 1.000000 0.452002
0.590407 1.000000 0.439560
0.867984 1.000000 0.427142
1.000000 1.000000 0.414753
0.000000 0.007332 0.889591
0.173500 0.008049 0.879896
0.459693 0.008767 0.870036
0.755521 0.009489 0.860015
0.988431 0.010212 0.849839
0.000000 0.232598 0.856328
0.202449 0.233724 0.846097
0.493279 0.234851 0.835717
0.785714 0.235980 0.825194
1.000000 0.237109 0.814532
0.003858 0.521422 0.821328
0.232307 0.522670 0.810618
0.526885 0.523918 0.799775
0.815039 0.525166 0.788807
1.000000 0.526414 0.777717
0.023637 0.805321 0.784783
0.262975 0.806404 0.773650
0.560412 0.807486 0.762403
0.843396 0.808567 0.751046
1.000000 0.809647 0.739585
0.045017 1.000000 0.746886
0.294355 1.000000 0.735388
0.593762 1.000000 0.723792
0.870688 1.000000 0.712104
1.000000 1.000000 0.700329
0.000000 0.007575 1.000000
0.176378 0.008292 1.000000
0.463080 0.009012 1.000000
0.758605 0.009734 1.000000
0.990403 0.010458 1.000000
0.000000 0.232981 1.000000
0.205424 0.234107 1.000000
0.496672 0.235234 1.000000
0.788716 0.236363 1.000000
1.000000 0.237493 1.000000
0.005779 0.521846 1.000000
0.235368 0.523094 1.000000
0.530275 0.524342 1.000000
0.817947 0.525590 1.000000
1.000000 0.526838 0.994413
0.025725 0.805689 0.998879
0.266112 0.806772 0.991814
0.563789 0.807854 0.984517
0.846201 0.808934 0.976994
1.000000 0.810013 0.969250
0.047260 1.000000 0.974200
0.297558 1.000000 0.966376
0.597115 1.000000 0.958338
0.873380 1.000000 0.950090
1.000000 1.000000 0.941638
