assets/luts/teal_orange.cube
# Teal & Orange — cinematic complementary grade
# Generated for ProCut Studio. Original transfer function, no third-party LUT data.
TITLE "Teal & Orange"
LUT_3D_SIZE 9
DOMAIN_MIN 0.0 0.0 0.0
DOMAIN_MAX 1.0 1.0 1.0
0.000000 0.006604 0.091910
0.049817 0.006961 0.087300
0.164926 0.007319 0.082735
0.301190 0.007676 0.078216
0.449540 0.008035 0.073744
0.600906 0.008394 0.069320
0.746220 0.008754 0.064944
0.876412 0.009114 0.060617
0.982414 0.009475 0.056340
0.000000 0.106767 0.076582
0.061234 0.107245 0.072128
0.179131 0.107722 0.067721
0.317178 0.108201 0.063363
0.466308 0.108680 0.059054
0.617451 0.109159 0.054795
0.761537 0.109638 0.050586
0.889499 0.110118 0.046428
0.992266 0.110599 0.042322
0.000000 0.231452 0.061789
0.073008 0.232015 0.057498
0.193582 0.232577 0.053257
0.333302 0.233140 0.049066
0.483101 0.233703 0.044927
0.633909 0.234267 0.040840
0.776657 0.234830 0.036805
0.902277 0.235394 0.032823
1.000000 0.235958 0.028895
0.000000 0.372100 0.047553
0.085129 0.372711 0.043433
0.208267 0.373323 0.039364
0.349549 0.373934 0.035349
0.499906 0.374546 0.031386
0.650268 0.375157 0.027478
0.791567 0.375769 0.023624
0.914734 0.376381 0.019826
1.000000 0.376993 0.016083
0.000000 0.520150 0.033900
0.097582 0.520774 0.029957
0.223175 0.521398 0.026069
0.365907 0.522023 0.022235
0.516711 0.522647 0.018457
0.666517 0.523271 0.014735
0.806255 0.523895 0.011069
0.926858 0.524519 0.007461
1.000000 0.525143 0.003911
0.007626 0.667042 0.020853
0.110357 0.667643 0.017095
0.238292 0.668244 0.013394
0.382365 0.668845 0.009749
0.533504 0.669446 0.006162
0.682642 0.670047 0.002633
0.820709 0.670647 0.000000
0.938637 0.671247 0.000000
1.000000 0.671848 0.000000
0.017474 0.804216 0.008436
0.123440 0.804758 0.004871
0.253608 0.805300 0.001363
0.398908 0.805842 0.000000
0.550273 0.806384 0.000000
0.698632 0.806925 0.000000
0.834916 0.807466 0.000000
0.950057 0.808007 0.000000
1.000000 0.808547 0.000000
0.027729 0.923111 0.000000
0.136819 0.923559 0.000000
0.269108 0.924006 0.000000
0.415526 0.924453 0.000000
0.567004 0.924900 0.000000
0.714473 0.925346 0.000000
0.848864 0.925791 0.000000
0.961108 0.926236 0.000000
1.000000 0.926681 0.000000
0.038379 1.000000 0.000000
0.150483 1.000000 0.000000
0.284782 1.000000 0.000000
0.432206 1.000000 0.000000
0.583687 1.000000 0.000000
0.730155 1.000000 0.000000
0.862541 1.000000 0.000000
0.971777 1.000000 0.000000
1.000000 1.000000 0.000000
0.000000 0.006725 0.210109
0.050953 0.007082 0.204616
0.166349 0.007440 0.199153
0.302798 0.007798 0.193722
0.451231 0.008157 0.188324
0.602580 0.008516 0.182958
0.747775 0.008876 0.177626
0.877747 0.009237 0.172329
0.983427 0.009598 0.167066
0.000000 0.106929 0.191753
0.062406 0.107407 0.186366
0.180578 0.107885 0.181013
0.318800 0.108363 0.175694
0.468002 0.108842 0.170409
0.619116 0.109322 0.165159
0.763073 0.109801 0.159944
0.890803 0.110282 0.154767
0.993237 0.110762 0.149626
0.000000 0.231643 0.173765
0.074216 0.232206 0.168493
0.195054 0.232768 0.163256
0.334937 0.233331 0.158055
0.484797 0.233894 0.152891
0.635565 0.234458 0.147764
0.778172 0.235022 0.142674
0.903549 0.235586 0.137624
1.000000 0.236150 0.132612
0.000000 0.372308 0.156171
0.086371 0.372919 0.151020
0.209762 0.373530 0.145906
0.351196 0.374142 0.140831
0.501603 0.374753 0.135794
0.651914 0.375365 0.130797
0.793060 0.375977 0.125840
0.915973 0.376589 0.120923
1.000000 0.377201 0.116048
0.000000 0.520362 0.138993
0.098857 0.520986 0.133971
0.224692 0.521610 0.128988
0.367565 0.522234 0.124045
0.518407 0.522859 0.119143
0.668150 0.523483 0.114283
0.807725 0.524107 0.109465
0.928063 0.524731 0.104690
1.000000 0.525355 0.099958
0.008602 0.667246 0.122256
0.111664 0.667847 0.117369
0.239830 0.668448 0.112524
0.384031 0.669049 0.107722
0.535198 0.669650 0.102962
0.684263 0.670251 0.098246
0.822155 0.670851 0.093574
0.939806 0.671451 0.088947
1.000000 0.672051 0.084366
0.018491 0.804400 0.105984
0.124777 0.804942 0.101240
0.255164 0.805484 0.096540
0.400583 0.806026 0.091884
0.551964 0.806568 0.087274
0.700238 0.807109 0.082709
0.836336 0.807650 0.078191
0.951190 0.808190 0.073719
1.000000 0.808730 0.069295
0.028786 0.923263 0.090200
0.138186 0.923711 0.085607
0.270683 0.924158 0.081059
0.417207 0.924605 0.076557
0.568691 0.925051 0.072103
0.716064 0.925497 0.067697
0.850257 0.925942 0.063339
0.962203 0.926387 0.059030
1.000000 0.926832 0.054771
0.039476 1.000000 0.074930
0.151878 1.000000 0.070493
0.286373 1.000000 0.066104
0.433893 1.000000 0.061764
0.585368 1.000000 0.057474
0.731728 1.000000 0.053233
0.863906 1.000000 0.049043
0.972832 1.000000 0.044904
1.000000 1.000000 0.040817
0.000000 0.006847 0.344678
0.052093 0.007204 0.338640
0.167774 0.007562 0.332619
0.304407 0.007920 0.326614
0.452923 0.008279 0.320628
0.604253 0.008638 0.314660
0.749328 0.008999 0.308711
0.879079 0.009359 0.302781
0.984436 0.009720 0.296872
0.000000 0.107091 0.324433
0.063583 0.107569 0.318453
0.182029 0.108047 0.312492
0.320423 0.108526 0.306550
0.469697 0.109005 0.300627
0.620781 0.109485 0.294726
0.764606 0.109964 0.288845
0.892104 0.110445 0.282986
0.994205 0.110926 0.277150
0.000000 0.231834 0.304391
0.075428 0.232397 0.298476
0.196528 0.232960 0.292582
0.336573 0.233523 0.286710
0.486493 0.234086 0.280859
0.637220 0.234649 0.275031
0.779685 0.235213 0.269226
0.904818 0.235777 0.263445
1.000000 0.236342 0.257689
0.000000 0.372515 0.284577
0.087617 0.373127 0.278735
0.211259 0.373738 0.272915
0.352843 0.374349 0.267119
0.503299 0.374961 0.261346
0.653558 0.375573 0.255599
0.794551 0.376185 0.249877
0.917209 0.376797 0.244181
1.000000 0.377409 0.238512
0.000068 0.520574 0.265014
0.100136 0.521198 0.259251
0.226211 0.521822 0.253513
0.369223 0.522446 0.247800
0.520103 0.523071 0.242114
0.669783 0.523695 0.236454
0.809193 0.524319 0.230822
0.929264 0.524943 0.225218
1.000000 0.525567 0.219643
0.009581 0.667450 0.245727
0.112974 0.668052 0.240050
0.241369 0.668653 0.234401
0.385698 0.669253 0.228779
0.536892 0.669854 0.223185
0.685882 0.670455 0.217621
0.823598 0.671055 0.212086
0.940972 0.671655 0.206581
1.000000 0.672255 0.201107
0.019512 0.804584 0.226739
0.126118 0.805126 0.221156
0.256723 0.805668 0.215602
0.402258 0.806210 0.210078
0.553654 0.806751 0.204585
0.701842 0.807292 0.199122
0.837754 0.807833 0.193692
0.952319 0.808374 0.188293
1.000000 0.808914 0.182928
0.029848 0.923415 0.208075
0.139556 0.923863 0.202592
0.272259 0.924310 0.197141
0.418889 0.924756 0.191722
0.570377 0.925203 0.186336
0.717653 0.925648 0.180983
0.851648 0.926093 0.175664
0.963293 0.926538 0.170379
1.000000 0.926982 0.165129
0.040576 1.000000 0.189758
0.153275 1.000000 0.184383
0.287966 1.000000 0.179042
0.435580 1.000000 0.173736
0.587048 1.000000 0.168463
0.733300 1.000000 0.163227
0.865268 1.000000 0.158026
0.973883 1.000000 0.152862
1.000000 1.000000 0.147735
0.000000 0.006968 0.487763
0.053236 0.007325 0.481520
0.169201 0.007683 0.475279
0.306017 0.008042 0.469040
0.454615 0.008401 0.462804
0.605925 0.008761 0.456572
0.750879 0.009121 0.450345
0.880407 0.009482 0.444122
0.985441 0.009843 0.437905
0.000000 0.107254 0.466769
0.064763 0.107731 0.460535
0.183482 0.108210 0.454304
0.322048 0.108689 0.448079
0.471392 0.109168 0.441858
0.622445 0.109647 0.435643
0.766138 0.110128 0.429435
0.893402 0.110608 0.423234
0.995167 0.111089 0.417041
0.000000 0.232025 0.445813
0.076643 0.232588 0.439595
0.198005 0.233151 0.433382
0.338210 0.233714 0.427177
0.488190 0.234277 0.420979
0.638874 0.234841 0.414788
0.781196 0.235405 0.408607
0.906084 0.235969 0.402434
1.000000 0.236533 0.396272
0.000000 0.372723 0.424919
0.088866 0.373334 0.418724
0.212759 0.373946 0.412537
0.354492 0.374557 0.406358
0.504996 0.375169 0.400190
0.655202 0.375781 0.394031
0.796040 0.376393 0.387883
0.918441 0.377005 0.381746
1.000000 0.377617 0.375622
0.001009 0.520786 0.404111
0.101418 0.521410 0.397946
0.227732 0.522034 0.391791
0.370882 0.522658 0.385647
0.521799 0.523282 0.379515
0.671414 0.523907 0.373395
0.810658 0.524531 0.367288
0.930462 0.525155 0.361194
1.000000 0.525779 0.355115
0.010565 0.667655 0.383413
0.114287 0.668256 0.377286
0.242910 0.668857 0.371170
0.387366 0.669457 0.365068
0.538586 0.670058 0.358979
0.687499 0.670658 0.352905
0.825038 0.671259 0.346846
0.942134 0.671859 0.340802
1.000000 0.672459 0.334775
0.020537 0.804768 0.362850
0.127461 0.805311 0.356766
0.258283 0.805852 0.350697
0.403934 0.806394 0.344644
0.555344 0.806935 0.338606
0.703445 0.807476 0.332585
0.839168 0.808017 0.326581
0.953444 0.808557 0.320594
1.000000 0.809097 0.314626
0.030913 0.923567 0.342444
0.140928 0.924015 0.336412
0.273837 0.924461 0.330397
0.420572 0.924908 0.324399
0.572062 0.925354 0.318419
0.719240 0.925799 0.312458
0.853036 0.926245 0.306516
0.964380 0.926689 0.300594
1.000000 0.927133 0.294693
0.041680 1.000000 0.322220
0.154675 1.000000 0.316247
0.289561 1.000000 0.310293
0.437268 1.000000 0.304358
0.588728 1.000000 0.298443
0.734870 1.000000 0.292549
0.866628 1.000000 0.286677
0.974930 1.000000 0.280826
1.000000 1.000000 0.274998
0.000000 0.007089 0.631512
0.054383 0.007447 0.625403
0.170632 0.007805 0.619280
0.307629 0.008164 0.613146
0.456307 0.008523 0.606999
0.607597 0.008883 0.600842
0.752428 0.009243 0.594675
0.881733 0.009605 0.588498
0.986442 0.009966 0.582313
0.000000 0.107416 0.610909
0.065946 0.107894 0.604759
0.184937 0.108372 0.598598
0.323674 0.108851 0.592428
0.473087 0.109331 0.586247
0.624108 0.109810 0.580059
0.767667 0.110291 0.573862
0.894696 0.110771 0.567657
0.996126 0.111252 0.561446
0.000000 0.232216 0.590179
0.077862 0.232779 0.583995
0.199484 0.233342 0.577803
0.339849 0.233905 0.571604
0.489886 0.234469 0.565397
0.640528 0.235032 0.559183
0.782704 0.235596 0.552963
0.907346 0.236161 0.546738
1.000000 0.236725 0.540509
0.000000 0.372930 0.569345
0.090118 0.373542 0.563135
0.214261 0.374153 0.556919
0.356142 0.374765 0.550698
0.506693 0.375377 0.544471
0.656844 0.375988 0.538240
0.797526 0.376600 0.532005
0.919670 0.377212 0.525766
1.000000 0.377825 0.519525
0.001954 0.520998 0.548431
0.102703 0.521622 0.542203
0.229255 0.522246 0.535970
0.372542 0.522870 0.529734
0.523494 0.523494 0.523494
0.673044 0.524118 0.517253
0.812121 0.524742 0.511009
0.931656 0.525366 0.504765
1.000000 0.525990 0.498520
0.011553 0.667859 0.527463
0.115603 0.668460 0.521222
0.244454 0.669061 0.514980
0.389035 0.669661 0.508736
0.540279 0.670262 0.502491
0.689116 0.670862 0.496246
0.826476 0.671463 0.490001
0.943292 0.672063 0.483757
1.000000 0.672662 0.477515
0.021566 0.804952 0.506462
0.128808 0.805495 0.500217
0.259845 0.806036 0.493972
0.405610 0.806578 0.487728
0.557034 0.807119 0.481485
0.705047 0.807660 0.475243
0.840580 0.808200 0.469005
0.954565 0.808740 0.462769
1.000000 0.809280 0.456537
0.031982 0.923719 0.485455
0.142303 0.924166 0.479212
0.275417 0.924613 0.472972
0.422255 0.925059 0.466734
0.573747 0.925505 0.460500
0.720825 0.925951 0.454269
0.854420 0.926396 0.448043
0.965463 0.926840 0.441823
1.000000 0.927284 0.435608
0.042789 1.000000 0.464464
0.156078 1.000000 0.458231
0.291157 1.000000 0.452002
0.438956 1.000000 0.445778
0.590407 1.000000 0.439560
0.736439 1.000000 0.433347
0.867984 1.000000 0.427142
0.975974 1.000000 0.420944
1.000000 1.000000 0.414753
0.000000 0.007211 0.768073
0.055534 0.007568 0.762435
0.172064 0.007927 0.756770
0.309243 0.008286 0.751079
0.458000 0.008645 0.745361
0.609267 0.009005 0.739618
0.753975 0.009366 0.733850
0.883055 0.009727 0.728057
0.987438 0.010089 0.722242
0.000000 0.107578 0.749000
0.067133 0.108056 0.743273
0.186395 0.108535 0.737521
0.325301 0.109014 0.731744
0.474782 0.109494 0.725943
0.625770 0.109973 0.720119
0.769195 0.110454 0.714272
0.895988 0.110935 0.708402
0.997080 0.111416 0.702512
0.000000 0.232407 0.729635
0.079084 0.232970 0.723825
0.200966 0.233533 0.717992
0.341488 0.234096 0.712137
0.491583 0.234660 0.706260
0.642180 0.235224 0.700362
0.784210 0.235788 0.694443
0.908605 0.236352 0.688505
1.000000 0.236917 0.682547
0.000000 0.373138 0.710000
0.091374 0.373749 0.704116
0.215765 0.374361 0.698210
0.357793 0.374973 0.692284
0.508389 0.375584 0.686338
0.658485 0.376196 0.680373
0.799010 0.376808 0.674389
0.920896 0.377420 0.668388
1.000000 0.378033 0.662369
0.002904 0.521210 0.690121
0.103991 0.521834 0.684168
0.230780 0.522458 0.678196
0.374203 0.523082 0.672206
0.525190 0.523706 0.666199
0.674672 0.524330 0.660174
0.813581 0.524954 0.654133
0.932847 0.525578 0.648076
1.000000 0.526202 0.642005
0.012545 0.668063 0.670021
0.116923 0.668664 0.664007
0.245999 0.669265 0.657977
0.390705 0.669865 0.651930
0.541972 0.670466 0.645868
0.690731 0.671066 0.639790
0.827912 0.671666 0.633699
0.944447 0.672266 0.627594
1.000000 0.672866 0.621476
0.022600 0.805137 0.649725
0.130157 0.805679 0.643657
0.261409 0.806220 0.637574
0.407288 0.806762 0.631478
0.558723 0.807303 0.625368
0.706647 0.807843 0.619246
0.841990 0.808384 0.613111
0.955682 0.808924 0.606965
1.000000 0.809464 0.600808
0.033056 0.923871 0.629255
0.143682 0.924318 0.623141
0.276999 0.924765 0.617013
0.423939 0.925211 0.610875
0.575432 0.925657 0.604724
0.722409 0.926102 0.598564
0.855802 0.926547 0.592393
0.966542 0.926991 0.586213
1.000000 0.927435 0.580024
0.043901 1.000000 0.608637
0.157484 1.000000 0.602483
0.292755 1.000000 0.596318
0.440645 1.000000 0.590144
0.592085 1.000000 0.583960
0.738005 1.000000 0.577768
0.869338 1.000000 0.571569
0.977013 1.000000 0.565362
1.000000 1.000000 0.559148
0.000000 0.007332 0.889591
0.056689 0.007690 0.884764
0.173500 0.008049 0.879896
0.310857 0.008408 0.874986
0.459693 0.008767 0.870036
0.610937 0.009128 0.865045
0.755521 0.009489 0.860015
0.884375 0.009850 0.854946
0.988431 0.010212 0.849839
0.000000 0.107740 0.873189
0.068324 0.108219 0.868223
0.187855 0.108698 0.863218
0.326929 0.109177 0.858174
0.476477 0.109656 0.853091
0.627431 0.110137 0.847970
0.770720 0.110617 0.842812
0.897276 0.111098 0.837617
0.998030 0.111579 0.832386
0.000000 0.232598 0.856328
0.080309 0.233161 0.851231
0.202449 0.233724 0.846097
0.343129 0.234288 0.840925
0.493279 0.234851 0.835717
0.643831 0.235415 0.830473
0.785714 0.235980 0.825194
0.909861 0.236544 0.819880
1.000000 0.237109 0.814532
0.000000 0.373346 0.839033
0.092633 0.373957 0.833812
0.217271 0.374569 0.828555
0.359445 0.375180 0.823263
0.510086 0.375792 0.817937
0.660124 0.376404 0.812577
0.800491 0.377016 0.807184
0.922118 0.377628 0.801759
1.000000 0.378241 0.796301
0.003858 0.521422 0.821328
0.105282 0.522046 0.815990
0.232307 0.522670 0.810618
0.375865 0.523294 0.805213
0.526885 0.523918 0.799775
0.676299 0.524542 0.794307
0.815039 0.525166 0.788807
0.934034 0.525790 0.783277
1.000000 0.526414 0.777717
0.013542 0.668267 0.803237
0.118245 0.668868 0.797788
0.247546 0.669469 0.792308
0.392376 0.670069 0.786797
0.543665 0.670670 0.781256
0.692344 0.671270 0.775686
0.829345 0.671870 0.770086
0.945598 0.672470 0.764459
1.000000 0.673070 0.758804
0.023637 0.805321 0.784783
0.131509 0.805863 0.779232
0.262975 0.806404 0.773650
0.408966 0.806945 0.768041
0.560412 0.807486 0.762403
0.708245 0.808027 0.756738
0.843396 0.808567 0.751046
0.956796 0.809107 0.745329
1.000000 0.809647 0.739585
0.034133 0.924023 0.765992
0.145062 0.924470 0.760344
0.278582 0.924916 0.754669
0.425623 0.925362 0.748968
0.577116 0.925808 0.743241
0.723992 0.926253 0.737488
0.857182 0.926697 0.731711
0.967617 0.927142 0.725910
1.000000 0.927585 0.720086
0.045017 1.000000 0.746886
0.158892 1.000000 0.741149
0.294355 1.000000 0.735388
0.442334 1.000000 0.729602
0.593762 1.000000 0.723792
0.739570 1.000000 0.717959
0.870688 1.000000 0.712104
0.978048 1.000000 0.706227
1.000000 1.000000 0.700329
0.000000 0.007453 0.988215
0.057847 0.007812 0.984538
0.174938 0.008170 0.980805
0.312474 0.008530 0.977016
0.461386 0.008890 0.973171
0.612606 0.009250 0.969272
0.757064 0.009611 0.965318
0.885691 0.009973 0.961312
0.989419 0.010335 0.957252
0.000000 0.107903 0.975622
0.069518 0.108381 0.971758
0.189318 0.108860 0.967839
0.328559 0.109340 0.963866
0.478173 0.109819 0.959840
0.629091 0.110300 0.955761
0.772243 0.110780 0.951631
0.898561 0.111261 0.947449
0.998976 0.111743 0.943216
0.000000 0.232790 0.962406
0.081538 0.233352 0.958361
0.203936 0.233916 0.954263
0.344771 0.234479 0.950114
0.494976 0.235043 0.945913
0.645480 0.235607 0.941663
0.787216 0.236171 0.937362
0.911114 0.236736 0.933012
1.000000 0.237301 0.928613
0.000000 0.373553 0.948591
0.093895 0.374165 0.944372
0.218779 0.374776 0.940103
0.361098 0.375388 0.935784
0.511782 0.376000 0.931416
0.661763 0.376612 0.927000
0.801971 0.377224 0.922536
0.923337 0.377836 0.918025
1.000000 0.378449 0.913468
0.004817 0.521634 0.934199
0.106577 0.522258 0.929814
0.233837 0.522882 0.925380
0.377527 0.523506 0.920899
0.528580 0.524130 0.916371
0.677925 0.524754 0.911797
0.816494 0.525378 0.907178
0.935218 0.526002 0.902513
1.000000 0.526626 0.897804
0.014542 0.668471 0.919256
0.119571 0.669072 0.914712
0.249095 0.669673 0.910121
0.394047 0.670273 0.905485
0.545357 0.670874 0.900804
0.693956 0.671474 0.896079
0.830775 0.672074 0.891310
0.946745 0.672674 0.886499
1.000000 0.673273 0.881646
0.024679 0.805505 0.903786
0.132865 0.806047 0.899089
0.264543 0.806588 0.894348
0.410644 0.807129 0.889564
0.562101 0.807670 0.884737
0.709842 0.808210 0.879868
0.844800 0.808751 0.874958
0.957906 0.809290 0.870008
1.000000 0.809830 0.865017
0.035214 0.924175 0.887811
0.146446 0.924622 0.882969
0.280167 0.925068 0.878086
0.427307 0.925514 0.873161
0.578799 0.925959 0.868195
0.725572 0.926404 0.863190
0.858558 0.926848 0.858145
0.968688 0.927292 0.853062
1.000000 0.927736 0.847941
0.046136 1.000000 0.871358
0.160303 1.000000 0.866378
0.295955 1.000000 0.861358
0.444024 1.000000 0.856299
0.595439 1.000000 0.851202
0.741133 1.000000 0.846068
0.872036 1.000000 0.840896
0.979078 1.000000 0.835687
1.000000 1.000000 0.830443
0.000000 0.007575 1.000000
0.059009 0.007933 1.000000
0.176378 0.008292 1.000000
0.314091 0.008652 1.000000
0.463080 0.009012 1.000000
0.614274 0.009373 1.000000
0.758605 0.009734 1.000000
0.887005 0.010096 1.000000
0.990403 0.010458 1.000000
0.000000 0.108065 1.000000
0.070716 0.108544 1.000000
0.190783 0.109023 1.000000
0.330190 0.109503 1.000000
0.479869 0.109983 1.000000
0.630750 0.110463 1.000000
0.773764 0.110944 1.000000
0.899843 0.111425 1.000000
0.999917 0.111907 1.000000
0.000000 0.232981 1.000000
0.082770 0.233544 1.000000
0.205424 0.234107 1.000000
0.346414 0.234671 1.000000
0.496672 0.235234 1.000000
0.647129 0.235799 1.000000
0.788716 0.236363 1.000000
0.912363 0.236928 1.000000
1.000000 0.237493 1.000000
0.000000 0.373761 1.000000
0.095161 0.374372 1.000000
0.220290 0.374984 1.000000
0.362752 0.375596 1.000000
0.513479 0.376208 1.000000
0.663400 0.376820 1.000000
0.803447 0.377432 1.000000
0.924552 0.378044 1.000000
1.000000 0.378657 1.000000
0.005779 0.521846 1.000000
0.107875 0.522470 1.000000
0.235368 0.523094 1.000000
0.379191 0.523718 1.000000
0.530275 0.524342 1.000000
0.679550 0.524966 1.000000
0.817947 0.525590 1.000000
0.936398 0.526214 0.997932
1.000000 0.526838 0.994413
0.015547 0.668675 1.000000
0.120899 0.669276 1.000000
0.250646 0.669877 1.000000
0.395719 0.670477 1.000000
0.547049 0.671077 0.996658
0.695566 0.671678 0.993117
0.832203 0.672278 0.989518
0.947888 0.672877 0.985862
1.000000 0.673477 0.982149
0.025725 0.805689 0.998879
0.134223 0.806230 0.995376
0.266112 0.806772 0.991814
0.412324 0.807313 0.988194
0.563789 0.807854 0.984517
0.711437 0.808394 0.980783
0.846201 0.808934 0.976994
0.959011 0.809474 0.973149
1.000000 0.810013 0.969250
0.036300 0.924327 0.986862
0.147833 0.924773 0.983164
0.281754 0.925219 0.979410
0.428993 0.925665 0.975601
0.580482 0.926110 0.971736
0.727151 0.926555 0.967816
0.859931 0.926999 0.963843
0.969754 0.927443 0.959817
1.000000 0.927886 0.955738
0.047260 1.000000 0.974200
0.161717 1.000000 0.970315
0.297558 1.000000 0.966376
0.445714 1.000000 0.962384
0.597115 1.000000 0.958338
0.742694 1.000000 0.954240
0.873380 1.000000 0.950090
0.980105 1.000000 0.945890
1.000000 1.000000 0.941638
