assets/luts/teal_orange.cube
# Teal & Orange — cinematic complementary grade
# Generated for ProCut Studio. Original transfer function, no third-party LUT data.
TITLE "Teal & Orange"
LUT_3D_SIZE 17
DOMAIN_MIN 0.0 0.0 0.0
DOMAIN_MAX 1.0 1.0 1.0
0.000000 0.006604 0.091910
0.003029 0.006783 0.089599
0.049817 0.006961 0.087300
0.104161 0.007140 0.085011
0.164926 0.007319 0.082735
0.230981 0.007497 0.080469
0.301190 0.007676 0.078216
0.374421 0.007856 0.075974
0.449540 0.008035 0.073744
0.525413 0.008215 0.071526
0.600906 0.008394 0.069320
0.674886 0.008574 0.067126
0.746220 0.008754 0.064944
0.813773 0.008934 0.062775
0.876412 0.009114 0.060617
0.933004 0.009295 0.058472
0.982414 0.009475 0.056340
0.000000 0.053085 0.084181
0.007800 0.053296 0.081909
0.055480 0.053507 0.079648
0.110590 0.053718 0.077398
0.171997 0.053929 0.075161
0.238567 0.054140 0.072935
0.309167 0.054352 0.070722
0.382662 0.054563 0.068520
0.457920 0.054775 0.066330
0.533807 0.054987 0.064153
0.609189 0.055199 0.061988
0.682932 0.055411 0.059835
0.753903 0.055623 0.057694
0.820968 0.055835 0.055566
0.882993 0.056047 0.053451
0.938846 0.056260 0.051348
0.987391 0.056473 0.049258
0.000000 0.106767 0.076582
0.012676 0.107006 0.074349
0.061234 0.107245 0.072128
0.117096 0.107483 0.069919
0.179131 0.107722 0.067721
0.246202 0.107962 0.065536
0.317178 0.108201 0.063363
0.390925 0.108440 0.061203
0.466308 0.108680 0.059054
0.542195 0.108919 0.056918
0.617451 0.109159 0.054795
0.690943 0.109399 0.052684
0.761537 0.109638 0.050586
0.828100 0.109878 0.048500
0.889499 0.110118 0.046428
0.944598 0.110359 0.044368
0.992266 0.110599 0.042322
0.000000 0.166579 0.069117
0.017655 0.166842 0.066924
0.067077 0.167104 0.064744
0.123679 0.167366 0.062575
0.186326 0.167629 0.060419
0.253886 0.167891 0.058275
0.325224 0.168154 0.056144
0.399207 0.168416 0.054025
0.474702 0.168679 0.051919
0.550575 0.168942 0.049825
0.625691 0.169205 0.047744
0.698919 0.169468 0.045677
0.769123 0.169731 0.043622
0.835170 0.169994 0.041580
0.895927 0.170257 0.039551
0.950260 0.170521 0.037535
0.997035 0.170784 0.035533
0.000000 0.231452 0.061789
0.022736 0.231734 0.059637
0.073008 0.232015 0.057498
0.130335 0.232296 0.055371
0.193582 0.232577 0.053257
0.261615 0.232859 0.051155
0.333302 0.233140 0.049066
0.407509 0.233422 0.046990
0.483101 0.233703 0.044927
0.558946 0.233985 0.042877
0.633909 0.234267 0.040840
0.706857 0.234548 0.038815
0.776657 0.234830 0.036805
0.842175 0.235112 0.034807
0.902277 0.235394 0.032823
0.955829 0.235676 0.030852
1.000000 0.235958 0.028895
0.000000 0.300316 0.054600
0.027917 0.300612 0.052490
0.079026 0.300907 0.050393
0.137063 0.301203 0.048309
0.200896 0.301499 0.046237
0.269390 0.301794 0.044179
0.341411 0.302090 0.042134
0.415827 0.302386 0.040101
0.491503 0.302682 0.038082
0.567306 0.302978 0.036076
0.642102 0.303274 0.034083
0.714758 0.303570 0.032104
0.784139 0.303866 0.030138
0.849113 0.304162 0.028186
0.908546 0.304459 0.026247
0.961304 0.304755 0.024322
1.000000 0.305051 0.022411
0.000000 0.372100 0.047553
0.033197 0.372406 0.045487
0.085129 0.372711 0.043433
0.143863 0.373017 0.041392
0.208267 0.373323 0.039364
0.277207 0.373628 0.037350
0.349549 0.373934 0.035349
0.424160 0.374240 0.033361
0.499906 0.374546 0.031386
0.575653 0.374851 0.029426
0.650268 0.375157 0.027478
0.722618 0.375463 0.025544
0.791567 0.375769 0.023624
0.855984 0.376075 0.021718
0.914734 0.376381 0.019826
0.966683 0.376687 0.017948
1.000000 0.376993 0.016083
0.000000 0.445735 0.040652
0.038575 0.446046 0.038630
0.091314 0.446357 0.036620
0.150732 0.446668 0.034624
0.215694 0.446979 0.032641
0.285066 0.447290 0.030671
0.357715 0.447601 0.028715
0.432508 0.447913 0.026773
0.508309 0.448224 0.024844
0.583987 0.448535 0.022929
0.658407 0.448846 0.021028
0.730436 0.449157 0.019140
0.798940 0.449469 0.017267
0.862785 0.449780 0.015408
0.920838 0.450091 0.013563
0.971966 0.450402 0.011732
1.000000 0.450714 0.009916
0.000000 0.520150 0.033900
0.044047 0.520462 0.031922
0.097582 0.520774 0.029957
0.157669 0.521086 0.028006
0.223175 0.521398 0.026069
0.292965 0.521710 0.024145
0.365907 0.522023 0.022235
0.440867 0.522335 0.020339
0.516711 0.522647 0.018457
0.592306 0.522959 0.016589
0.666517 0.523271 0.014735
0.738211 0.523583 0.012895
0.806255 0.523895 0.011069
0.869516 0.524207 0.009258
0.926858 0.524519 0.007461
0.977149 0.524831 0.005679
1.000000 0.525143 0.003911
0.002859 0.594276 0.027299
0.049614 0.594584 0.025367
0.103930 0.594893 0.023448
0.164672 0.595202 0.021543
0.230708 0.595510 0.019652
0.300903 0.595819 0.017775
0.374124 0.596127 0.015912
0.449238 0.596436 0.014063
0.525110 0.596744 0.012229
0.600607 0.597053 0.010408
0.674596 0.597361 0.008602
0.745942 0.597669 0.006811
0.813512 0.597978 0.005034
0.876173 0.598286 0.003271
0.932791 0.598594 0.001523
0.982232 0.598903 0.000000
1.000000 0.599211 0.000000
0.007626 0.667042 0.020853
0.055274 0.667343 0.018967
0.110357 0.667643 0.017095
0.171741 0.667944 0.015237
0.238292 0.668244 0.013394
0.308878 0.668545 0.011564
0.382365 0.668845 0.009749
0.457618 0.669146 0.007948
0.533504 0.669446 0.006162
0.608890 0.669746 0.004390
0.682642 0.670047 0.002633
0.753626 0.670347 0.000891
0.820709 0.670647 0.000000
0.882757 0.670947 0.000000
0.938637 0.671247 0.000000
0.987214 0.671547 0.000000
1.000000 0.671848 0.000000
0.012498 0.737379 0.014565
0.061025 0.737667 0.012726
0.116860 0.737955 0.010902
0.178872 0.738243 0.009092
0.245926 0.738531 0.007296
0.316889 0.738819 0.005515
0.390626 0.739107 0.003749
0.466005 0.739395 0.001997
0.541892 0.739683 0.000260
0.617153 0.739970 0.000000
0.690654 0.740258 0.000000
0.761263 0.740546 0.000000
0.827844 0.740833 0.000000
0.889265 0.741121 0.000000
0.944392 0.741408 0.000000
0.992092 0.741696 0.000000
1.000000 0.741983 0.000000
0.017474 0.804216 0.008436
0.066865 0.804487 0.006646
0.123440 0.804758 0.004871
0.186065 0.805029 0.003109
0.253608 0.805300 0.001363
0.324933 0.805571 0.000000
0.398908 0.805842 0.000000
0.474399 0.806113 0.000000
0.550273 0.806384 0.000000
0.625395 0.806654 0.000000
0.698632 0.806925 0.000000
0.768850 0.807196 0.000000
0.834916 0.807466 0.000000
0.895697 0.807736 0.000000
0.950057 0.808007 0.000000
0.996865 0.808277 0.000000
1.000000 0.808547 0.000000
0.022551 0.866483 0.002472
0.072793 0.866733 0.000731
0.130093 0.866983 0.000000
0.193319 0.867232 0.000000
0.261336 0.867482 0.000000
0.333010 0.867731 0.000000
0.407209 0.867981 0.000000
0.482798 0.868230 0.000000
0.558644 0.868479 0.000000
0.633613 0.868729 0.000000
0.706572 0.868978 0.000000
0.776386 0.869226 0.000000
0.841923 0.869475 0.000000
0.902049 0.869724 0.000000
0.955630 0.869973 0.000000
1.000000 0.870221 0.000000
1.000000 0.870469 0.000000
0.027729 0.923111 0.000000
0.078808 0.923335 0.000000
0.136819 0.923559 0.000000
0.200631 0.923782 0.000000
0.269108 0.924006 0.000000
0.341118 0.924230 0.000000
0.415526 0.924453 0.000000
0.491200 0.924676 0.000000
0.567004 0.924900 0.000000
0.641807 0.925123 0.000000
0.714473 0.925346 0.000000
0.783870 0.925568 0.000000
0.848864 0.925791 0.000000
0.908321 0.926014 0.000000
0.961108 0.926236 0.000000
1.000000 0.926458 0.000000
1.000000 0.926681 0.000000
0.033005 0.973029 0.000000
0.084907 0.973223 0.000000
0.143617 0.973416 0.000000
0.208000 0.973609 0.000000
0.276924 0.973803 0.000000
0.349255 0.973996 0.000000
0.423859 0.974189 0.000000
0.499603 0.974381 0.000000
0.575352 0.974574 0.000000
0.649974 0.974767 0.000000
0.722335 0.974959 0.000000
0.791300 0.975151 0.000000
0.855737 0.975343 0.000000
0.914512 0.975535 0.000000
0.966491 0.975727 0.000000
1.000000 0.975919 0.000000
1.000000 0.976111 0.000000
0.038379 1.000000 0.000000
0.091090 1.000000 0.000000
0.150483 1.000000 0.000000
0.215425 1.000000 0.000000
0.284782 1.000000 0.000000
0.357420 1.000000 0.000000
0.432206 1.000000 0.000000
0.508006 1.000000 0.000000
0.583687 1.000000 0.000000
0.658114 1.000000 0.000000
0.730155 1.000000 0.000000
0.798675 1.000000 0.000000
0.862541 1.000000 0.000000
0.920620 1.000000 0.000000
0.971777 1.000000 0.000000
1.000000 1.000000 0.000000
1.000000 1.000000 0.000000
0.000000 0.006665 0.148473
0.003506 0.006843 0.145921
0.050384 0.007022 0.143378
0.104806 0.007200 0.140845
0.165637 0.007379 0.138322
0.231744 0.007558 0.135809
0.301994 0.007737 0.133305
0.375252 0.007917 0.130811
0.450386 0.008096 0.128328
0.526260 0.008276 0.125854
0.601743 0.008455 0.123390
0.675700 0.008635 0.120937
0.746998 0.008815 0.118494
0.814502 0.008995 0.116062
0.877080 0.009175 0.113639
0.933597 0.009356 0.111228
0.982921 0.009536 0.108827
0.000000 0.053157 0.139926
0.008288 0.053368 0.137406
0.056057 0.053579 0.134896
0.111243 0.053790 0.132396
0.172714 0.054001 0.129906
0.239336 0.054212 0.127426
0.309974 0.054424 0.124956
0.383495 0.054635 0.122496
0.458767 0.054847 0.120046
0.534654 0.055059 0.117607
0.610024 0.055271 0.115179
0.683742 0.055483 0.112760
0.754675 0.055695 0.110353
0.821690 0.055907 0.107956
0.883653 0.056120 0.105569
0.939431 0.056332 0.103194
0.987888 0.056545 0.100829
0.000000 0.106848 0.131488
0.013174 0.107087 0.129002
0.061820 0.107326 0.126525
0.117758 0.107565 0.124059
0.179854 0.107804 0.121603
0.246976 0.108043 0.119157
0.317989 0.108282 0.116722
0.391760 0.108521 0.114297
0.467155 0.108761 0.111882
0.543041 0.109001 0.109479
0.618284 0.109240 0.107086
0.691750 0.109480 0.104703
0.762305 0.109720 0.102332
0.828817 0.109960 0.099971
0.890151 0.110200 0.097621
0.945174 0.110440 0.095283
0.992752 0.110681 0.092955
0.000000 0.166668 0.123164
0.018163 0.166931 0.120711
0.067672 0.167193 0.118269
0.124347 0.167455 0.115838
0.187056 0.167718 0.113417
0.254664 0.167980 0.111006
0.326038 0.168243 0.108606
0.400045 0.168506 0.106217
0.475550 0.168768 0.103838
0.551420 0.169031 0.101471
0.626522 0.169294 0.099114
0.699722 0.169557 0.096769
0.769886 0.169820 0.094434
0.835880 0.170084 0.092111
0.896572 0.170347 0.089799
0.950826 0.170610 0.087498
0.997511 0.170874 0.085209
0.000000 0.231548 0.114955
0.023255 0.231829 0.112538
0.073612 0.232110 0.110131
0.131011 0.232391 0.107735
0.194317 0.232673 0.105350
0.262398 0.232954 0.102975
0.334119 0.233236 0.100612
0.408347 0.233517 0.098259
0.483949 0.233799 0.095918
0.559790 0.234081 0.093587
0.634737 0.234362 0.091268
0.707657 0.234644 0.088960
0.777415 0.234926 0.086663
0.842878 0.235208 0.084378
0.902913 0.235490 0.082105
0.956386 0.235772 0.079843
1.000000 0.236054 0.077593
0.000000 0.300416 0.106865
0.028446 0.300712 0.104484
0.079638 0.301008 0.102114
0.137747 0.301303 0.099754
0.201637 0.301599 0.097405
0.270177 0.301895 0.095068
0.342231 0.302191 0.092741
0.416667 0.302487 0.090426
0.492351 0.302783 0.088123
0.568149 0.303079 0.085830
0.642927 0.303375 0.083549
0.715553 0.303671 0.081280
0.784892 0.303967 0.079022
0.849810 0.304263 0.076776
0.909175 0.304559 0.074542
0.961851 0.304856 0.072320
1.000000 0.305152 0.070109
0.000000 0.372204 0.098898
0.033736 0.372510 0.096553
0.085749 0.372815 0.094220
0.144553 0.373121 0.091897
0.209014 0.373426 0.089586
0.277999 0.373732 0.087287
0.350372 0.374038 0.084998
0.425002 0.374344 0.082722
0.500754 0.374649 0.080457
0.576495 0.374955 0.078203
0.651091 0.375261 0.075962
0.723409 0.375567 0.073732
0.792314 0.375873 0.071514
0.856674 0.376179 0.069308
0.915354 0.376485 0.067114
0.967221 0.376791 0.064932
1.000000 0.377097 0.062762
0.000000 0.445841 0.091055
0.039123 0.446152 0.088748
0.091944 0.446463 0.086452
0.151429 0.446774 0.084168
0.216447 0.447085 0.081896
0.285862 0.447396 0.079635
0.358541 0.447707 0.077386
0.433351 0.448018 0.075148
0.509158 0.448329 0.072923
0.584828 0.448641 0.070709
0.659227 0.448952 0.068508
0.731223 0.449263 0.066318
0.799681 0.449574 0.064141
0.863468 0.449886 0.061976
0.921450 0.450197 0.059823
0.972493 0.450508 0.057682
1.000000 0.450819 0.055554
0.000000 0.520256 0.083340
0.044605 0.520568 0.081071
0.098219 0.520880 0.078815
0.158373 0.521192 0.076570
0.223933 0.521504 0.074337
0.293765 0.521816 0.072115
0.366736 0.522129 0.069906
0.441712 0.522441 0.067709
0.517559 0.522753 0.065524
0.593144 0.523065 0.063351
0.667334 0.523377 0.061190
0.738994 0.523689 0.059042
0.806991 0.524001 0.056906
0.870191 0.524313 0.054783
0.927461 0.524625 0.052672
0.977667 0.524937 0.050574
1.000000 0.525249 0.048489
0.003336 0.594381 0.075755
0.050182 0.594689 0.073527
0.104575 0.594998 0.071310
0.165383 0.595306 0.069105
0.231471 0.595615 0.066912
0.301707 0.595923 0.064731
0.374955 0.596232 0.062563
0.450083 0.596540 0.060407
0.525958 0.596849 0.058263
0.601444 0.597157 0.056132
0.675409 0.597466 0.054013
0.746720 0.597774 0.051907
0.814242 0.598082 0.049813
0.876841 0.598391 0.047733
0.933385 0.598699 0.045665
0.982740 0.599007 0.043610
1.000000 0.599315 0.041568
0.008113 0.667144 0.068305
0.055850 0.667445 0.066117
0.111010 0.667745 0.063941
0.172458 0.668046 0.061777
0.239061 0.668346 0.059625
0.309685 0.668647 0.057486
0.383198 0.668947 0.055359
0.458464 0.669248 0.053245
0.534351 0.669548 0.051143
0.609725 0.669848 0.049054
0.683452 0.670149 0.046978
0.754399 0.670449 0.044915
0.821432 0.670749 0.042865
0.883418 0.671049 0.040828
0.939222 0.671349 0.038804
0.987711 0.671649 0.036793
1.000000 0.671949 0.034796
0.012996 0.737476 0.060992
0.061610 0.737765 0.058845
0.117521 0.738053 0.056710
0.179596 0.738341 0.054588
0.246699 0.738629 0.052478
0.317699 0.738917 0.050381
0.391462 0.739205 0.048297
0.466853 0.739493 0.046226
0.542739 0.739780 0.044167
0.617986 0.740068 0.042122
0.691461 0.740356 0.040090
0.762031 0.740643 0.038071
0.828561 0.740931 0.036065
0.889918 0.741218 0.034072
0.944968 0.741506 0.032093
0.992578 0.741793 0.030127
1.000000 0.742080 0.028175
0.017982 0.804308 0.053818
0.067459 0.804579 0.051713
0.124108 0.804850 0.049621
0.186795 0.805121 0.047542
0.254386 0.805392 0.045475
0.325747 0.805663 0.043421
0.399745 0.805934 0.041381
0.475247 0.806205 0.039353
0.551118 0.806476 0.037339
0.626225 0.806746 0.035338
0.699435 0.807017 0.033350
0.769613 0.807287 0.031375
0.835627 0.807558 0.029415
0.896341 0.807828 0.027467
0.950624 0.808098 0.025534
0.997341 0.808369 0.023614
1.000000 0.808639 0.021708
0.023069 0.866568 0.046788
0.073396 0.866818 0.044726
0.130769 0.867067 0.042677
0.194054 0.867317 0.040641
0.262118 0.867567 0.038618
0.333827 0.867816 0.036609
0.408048 0.868066 0.034612
0.483646 0.868315 0.032629
0.559488 0.868564 0.030660
0.634441 0.868813 0.028704
0.707371 0.869062 0.026762
0.777144 0.869311 0.024833
0.842627 0.869560 0.022918
0.902686 0.869808 0.021017
0.956187 0.870057 0.019130
1.000000 0.870305 0.017257
1.000000 0.870554 0.015398
0.028257 0.923187 0.039903
0.079419 0.923411 0.037885
0.137502 0.923635 0.035880
0.201372 0.923858 0.033889
0.269895 0.924082 0.031911
0.341938 0.924306 0.029946
0.416367 0.924529 0.027995
0.492048 0.924752 0.026058
0.567848 0.924975 0.024134
0.642632 0.925198 0.022224
0.715269 0.925421 0.020328
0.784623 0.925644 0.018446
0.849561 0.925867 0.016578
0.908950 0.926089 0.014724
0.961656 0.926312 0.012885
1.000000 0.926534 0.011059
1.000000 0.926756 0.009248
0.033543 0.973095 0.033167
0.085527 0.973288 0.031194
0.144307 0.973482 0.029234
0.208747 0.973675 0.027288
0.277716 0.973868 0.025356
0.350078 0.974061 0.023437
0.424701 0.974254 0.021532
0.500451 0.974447 0.019642
0.576194 0.974640 0.017765
0.650797 0.974832 0.015902
0.723126 0.975024 0.014053
0.792047 0.975217 0.012218
0.856427 0.975409 0.010398
0.915132 0.975601 0.008592
0.967029 0.975792 0.006801
1.000000 0.975984 0.005024
1.000000 0.976176 0.003261
0.038927 1.000000 0.026583
0.091719 1.000000 0.024656
0.151180 1.000000 0.022742
0.216178 1.000000 0.020842
0.285577 1.000000 0.018957
0.358246 1.000000 0.017085
0.433050 1.000000 0.015227
0.508855 1.000000 0.013383
0.584527 1.000000 0.011554
0.658934 1.000000 0.009739
0.730942 1.000000 0.007938
0.799416 1.000000 0.006152
0.863224 1.000000 0.004380
0.921231 1.000000 0.002623
0.972305 1.000000 0.000881
1.000000 1.000000 0.000000
1.000000 1.000000 0.000000
0.000000 0.006725 0.210109
0.003984 0.006904 0.207359
0.050953 0.007082 0.204616
0.105452 0.007261 0.201880
0.166349 0.007440 0.199153
0.232508 0.007619 0.196434
0.302798 0.007798 0.193722
0.376083 0.007977 0.191019
0.451231 0.008157 0.188324
0.527108 0.008337 0.185637
0.602580 0.008516 0.182958
0.676513 0.008696 0.180288
0.747775 0.008876 0.177626
0.815231 0.009056 0.174973
0.877747 0.009237 0.172329
0.934190 0.009417 0.169693
0.983427 0.009598 0.167066
0.000000 0.053229 0.200887
0.008776 0.053439 0.198162
0.056634 0.053650 0.195446
0.111897 0.053861 0.192737
0.173432 0.054073 0.190037
0.240105 0.054284 0.187344
0.310781 0.054495 0.184661
0.384329 0.054707 0.181985
0.459613 0.054919 0.179318
0.535501 0.055131 0.176659
0.610858 0.055343 0.174009
0.684552 0.055555 0.171368
0.755448 0.055767 0.168735
0.822413 0.055979 0.166112
0.884313 0.056192 0.163497
0.940014 0.056404 0.160891
0.988384 0.056617 0.158294
0.000000 0.106929 0.191753
0.013673 0.107168 0.189056
0.062406 0.107407 0.186366
0.118419 0.107646 0.183686
0.180578 0.107885 0.181013
0.247750 0.108124 0.178349
0.318800 0.108363 0.175694
0.392596 0.108603 0.173047
0.468002 0.108842 0.170409
0.543887 0.109082 0.167779
0.619116 0.109322 0.165159
0.692556 0.109561 0.162547
0.763073 0.109801 0.159944
0.829533 0.110041 0.157351
0.890803 0.110282 0.154767
0.945749 0.110522 0.152192
0.993237 0.110762 0.149626
0.000000 0.166758 0.182712
0.018673 0.167020 0.180042
0.068268 0.167282 0.177381
0.125017 0.167544 0.174729
0.187786 0.167807 0.172085
0.255443 0.168069 0.169450
0.326852 0.168332 0.166824
0.400882 0.168595 0.164207
0.476398 0.168858 0.161599
0.552266 0.169120 0.158999
0.627352 0.169383 0.156409
0.700525 0.169647 0.153828
0.770648 0.169910 0.151256
0.836590 0.170173 0.148694
0.897215 0.170436 0.146141
0.951392 0.170700 0.143598
0.997985 0.170963 0.141064
0.000000 0.231643 0.173765
0.023774 0.231925 0.171125
0.074216 0.232206 0.168493
0.131687 0.232487 0.165870
0.195054 0.232768 0.163256
0.263181 0.233050 0.160651
0.334937 0.233331 0.158055
0.409187 0.233613 0.155468
0.484797 0.233894 0.152891
0.560634 0.234176 0.150323
0.635565 0.234458 0.147764
0.708456 0.234740 0.145214
0.778172 0.235022 0.142674
0.843581 0.235304 0.140144
0.903549 0.235586 0.137624
0.956942 0.235868 0.135113
1.000000 0.236150 0.132612
0.000000 0.300517 0.164917
0.028976 0.300812 0.162307
0.080251 0.301108 0.159705
0.138431 0.301404 0.157112
0.202380 0.301700 0.154529
0.270964 0.301995 0.151955
0.343052 0.302291 0.149390
0.417508 0.302587 0.146834
0.493199 0.302883 0.144288
0.568992 0.303179 0.141752
0.643753 0.303475 0.139225
0.716348 0.303771 0.136708
0.785643 0.304067 0.134201
0.850506 0.304364 0.131704
0.909802 0.304660 0.129217
0.962398 0.304956 0.126739
1.000000 0.305253 0.124272
0.000000 0.372308 0.156171
0.034275 0.372613 0.153591
0.086371 0.372919 0.151020
0.145244 0.373225 0.148458
0.209762 0.373530 0.145906
0.278790 0.373836 0.143364
0.351196 0.374142 0.140831
0.425844 0.374448 0.138308
0.501603 0.374753 0.135794
0.577337 0.375059 0.133291
0.651914 0.375365 0.130797
0.724200 0.375671 0.128314
0.793060 0.375977 0.125840
0.857363 0.376283 0.123376
0.915973 0.376589 0.120923
0.967758 0.376895 0.118480
1.000000 0.377201 0.116048
0.000000 0.445946 0.147528
0.039672 0.446257 0.144980
0.092573 0.446568 0.142441
0.152127 0.446879 0.139911
0.217200 0.447191 0.137392
0.286658 0.447502 0.134882
0.359367 0.447813 0.132382
0.434194 0.448124 0.129892
0.510006 0.448435 0.127412
0.585668 0.448746 0.124942
0.660047 0.449058 0.122482
0.732009 0.449369 0.120033
0.800422 0.449680 0.117594
0.864150 0.449991 0.115165
0.922061 0.450302 0.112747
0.973020 0.450614 0.110339
1.000000 0.450925 0.107942
0.000000 0.520362 0.138993
0.045164 0.520674 0.136477
0.098857 0.520986 0.133971
0.159078 0.521298 0.131474
0.224692 0.521610 0.128988
0.294565 0.521922 0.126511
0.367565 0.522234 0.124045
0.442556 0.522547 0.121589
0.518407 0.522859 0.119143
0.593983 0.523171 0.116708
0.668150 0.523483 0.114283
0.739776 0.523795 0.111869
0.807725 0.524107 0.109465
0.870866 0.524419 0.107072
0.928063 0.524731 0.104690
0.978183 0.525043 0.102318
1.000000 0.525355 0.099958
0.003813 0.594485 0.130568
0.050750 0.594794 0.128085
0.105221 0.595103 0.125612
0.166094 0.595411 0.123150
0.232235 0.595720 0.120698
0.302511 0.596028 0.118256
0.375786 0.596337 0.115824
0.450929 0.596645 0.113403
0.526805 0.596954 0.110993
0.602281 0.597262 0.108593
0.676223 0.597570 0.106203
0.747497 0.597879 0.103825
0.814970 0.598187 0.101458
0.877509 0.598495 0.099101
0.933978 0.598804 0.096756
0.983246 0.599112 0.094421
1.000000 0.599420 0.092098
0.008602 0.667246 0.122256
0.056428 0.667547 0.119807
0.111664 0.667847 0.117369
0.173175 0.668148 0.114941
0.239830 0.668448 0.112524
0.310493 0.668749 0.110118
0.384031 0.669049 0.107722
0.459311 0.669350 0.105336
0.535198 0.669650 0.102962
0.610560 0.669950 0.100598
0.684263 0.670251 0.098246
0.755172 0.670551 0.095904
0.822155 0.670851 0.093574
0.884077 0.671151 0.091255
0.939806 0.671451 0.088947
0.988207 0.671751 0.086651
1.000000 0.672051 0.084366
0.013495 0.737574 0.114060
0.062197 0.737862 0.111647
0.118183 0.738151 0.109244
0.180320 0.738439 0.106852
0.247473 0.738727 0.104471
0.318510 0.739015 0.102100
0.392297 0.739303 0.099741
0.467700 0.739590 0.097392
0.543585 0.739878 0.095055
0.618819 0.740166 0.092728
0.692268 0.740453 0.090413
0.762799 0.740741 0.088110
0.829277 0.741029 0.085817
0.890570 0.741316 0.083536
0.945544 0.741603 0.081267
0.993064 0.741891 0.079010
1.000000 0.742178 0.076764
0.018491 0.804400 0.105984
0.068055 0.804671 0.103606
0.124777 0.804942 0.101240
0.187525 0.805213 0.098884
0.255164 0.805484 0.096540
0.326561 0.805755 0.094206
0.400583 0.806026 0.091884
0.476095 0.806297 0.089573
0.551964 0.806568 0.087274
0.627056 0.806838 0.084986
0.700238 0.807109 0.082709
0.770376 0.807379 0.080444
0.836336 0.807650 0.078191
0.896985 0.807920 0.075949
0.951190 0.808190 0.073719
0.997816 0.808460 0.071501
1.000000 0.808730 0.069295
0.023588 0.866653 0.098030
0.074000 0.866903 0.095689
0.131446 0.867152 0.093360
0.194790 0.867402 0.091042
0.262901 0.867651 0.088735
0.334645 0.867901 0.086439
0.408887 0.868150 0.084155
0.484494 0.868399 0.081883
0.560333 0.868649 0.079622
0.635269 0.868898 0.077373
0.708170 0.869147 0.075136
0.777902 0.869395 0.072910
0.843330 0.869644 0.070697
0.903322 0.869893 0.068495
0.956744 0.870141 0.066306
1.000000 0.870390 0.064128
1.000000 0.870638 0.061963
0.028786 0.923263 0.090200
0.080032 0.923487 0.087898
0.138186 0.923711 0.085607
0.202114 0.923934 0.083327
0.270683 0.924158 0.081059
0.342759 0.924381 0.078802
0.417207 0.924605 0.076557
0.492896 0.924828 0.074324
0.568691 0.925051 0.072103
0.643458 0.925274 0.069894
0.716064 0.925497 0.067697
0.785375 0.925720 0.065512
0.850257 0.925942 0.063339
0.909578 0.926165 0.061178
0.962203 0.926387 0.059030
1.000000 0.926609 0.056894
1.000000 0.926832 0.054771
0.034082 0.973160 0.082500
0.086149 0.973354 0.080236
0.144997 0.973547 0.077983
0.209495 0.973741 0.075743
0.278507 0.973934 0.073514
0.350901 0.974127 0.071297
0.425543 0.974320 0.069092
0.501300 0.974512 0.066900
0.577036 0.974705 0.064719
0.651620 0.974897 0.062551
0.723917 0.975090 0.060395
0.792794 0.975282 0.058251
0.857117 0.975474 0.056120
0.915752 0.975666 0.054001
0.967566 0.975857 0.051895
1.000000 0.976049 0.049802
1.000000 0.976241 0.047721
0.039476 1.000000 0.074930
0.092348 1.000000 0.072706
0.151878 1.000000 0.070493
0.216931 1.000000 0.068293
0.286373 1.000000 0.066104
0.359072 1.000000 0.063928
0.433893 1.000000 0.061764
0.509703 1.000000 0.059613
0.585368 1.000000 0.057474
0.659754 1.000000 0.055347
0.731728 1.000000 0.053233
0.800157 1.000000 0.051131
0.863906 1.000000 0.049043
0.921842 1.000000 0.046967
0.972832 1.000000 0.044904
1.000000 1.000000 0.042854
1.000000 1.000000 0.040817
0.000000 0.006786 0.275838
0.004463 0.006964 0.272931
0.051522 0.007143 0.270030
0.106099 0.007322 0.267135
0.167061 0.007501 0.264246
0.233273 0.007680 0.261363
0.303602 0.007859 0.258486
0.376915 0.008038 0.255615
0.452077 0.008218 0.252751
0.527956 0.008398 0.249893
0.603417 0.008577 0.247042
0.677326 0.008757 0.244197
0.748552 0.008937 0.241359
