assets/luts/warm_film.cube
# Warm Film — lifted blacks, warm midtones
# Generated for ProCut Studio. Original transfer function, no third-party LUT data.
TITLE "Warm Film"
LUT_3D_SIZE 17
DOMAIN_MIN 0.0 0.0 0.0
DOMAIN_MAX 1.0 1.0 1.0
0.090000 0.030000 0.070000
0.146875 0.030000 0.070000
0.203750 0.030000 0.070000
0.260625 0.030000 0.070000
0.317500 0.030000 0.070000
0.374375 0.030000 0.070000
0.431250 0.030000 0.070000
0.488125 0.030000 0.070000
0.545000 0.030000 0.070000
0.601875 0.030000 0.070000
0.658750 0.030000 0.070000
0.715625 0.030000 0.070000
0.772500 0.030000 0.070000
0.829375 0.030000 0.070000
0.886250 0.030000 0.070000
0.943125 0.030000 0.070000
1.000000 0.030000 0.070000
0.090000 0.089375 0.070000
0.146875 0.089375 0.070000
0.203750 0.089375 0.070000
0.260625 0.089375 0.070000
0.317500 0.089375 0.070000
0.374375 0.089375 0.070000
0.431250 0.089375 0.070000
0.488125 0.089375 0.070000
0.545000 0.089375 0.070000
0.601875 0.089375 0.070000
0.658750 0.089375 0.070000
0.715625 0.089375 0.070000
0.772500 0.089375 0.070000
0.829375 0.089375 0.070000
0.886250 0.089375 0.070000
0.943125 0.089375 0.070000
1.000000 0.089375 0.070000
0.090000 0.148750 0.070000
0.146875 0.148750 0.070000
0.203750 0.148750 0.070000
0.260625 0.148750 0.070000
0.317500 0.148750 0.070000
0.374375 0.148750 0.070000
0.431250 0.148750 0.070000
0.488125 0.148750 0.070000
0.545000 0.148750 0.070000
0.601875 0.148750 0.070000
0.658750 0.148750 0.070000
0.715625 0.148750 0.070000
0.772500 0.148750 0.070000
0.829375 0.148750 0.070000
0.886250 0.148750 0.070000
0.943125 0.148750 0.070000
1.000000 0.148750 0.070000
0.090000 0.208125 0.070000
0.146875 0.208125 0.070000
0.203750 0.208125 0.070000
0.260625 0.208125 0.070000
0.317500 0.208125 0.070000
0.374375 0.208125 0.070000
0.431250 0.208125 0.070000
0.488125 0.208125 0.070000
0.545000 0.208125 0.070000
0.601875 0.208125 0.070000
0.658750 0.208125 0.070000
0.715625 0.208125 0.070000
0.772500 0.208125 0.070000
0.829375 0.208125 0.070000
0.886250 0.208125 0.070000
0.943125 0.208125 0.070000
1.000000 0.208125 0.070000
0.090000 0.267500 0.070000
0.146875 0.267500 0.070000
0.203750 0.267500 0.070000
0.260625 0.267500 0.070000
0.317500 0.267500 0.070000
0.374375 0.267500 0.070000
0.431250 0.267500 0.070000
0.488125 0.267500 0.070000
0.545000 0.267500 0.070000
0.601875 0.267500 0.070000
0.658750 0.267500 0.070000
0.715625 0.267500 0.070000
0.772500 0.267500 0.070000
0.829375 0.267500 0.070000
0.886250 0.267500 0.070000
0.943125 0.267500 0.070000
1.000000 0.267500 0.070000
0.090000 0.326875 0.070000
0.146875 0.326875 0.070000
0.203750 0.326875 0.070000
0.260625 0.326875 0.070000
0.317500 0.326875 0.070000
0.374375 0.326875 0.070000
0.431250 0.326875 0.070000
0.488125 0.326875 0.070000
0.545000 0.326875 0.070000
0.601875 0.326875 0.070000
0.658750 0.326875 0.070000
0.715625 0.326875 0.070000
0.772500 0.326875 0.070000
0.829375 0.326875 0.070000
0.886250 0.326875 0.070000
0.943125 0.326875 0.070000
1.000000 0.326875 0.070000
0.090000 0.386250 0.070000
0.146875 0.386250 0.070000
0.203750 0.386250 0.070000
0.260625 0.386250 0.070000
0.317500 0.386250 0.070000
0.374375 0.386250 0.070000
0.431250 0.386250 0.070000
0.488125 0.386250 0.070000
0.545000 0.386250 0.070000
0.601875 0.386250 0.070000
0.658750 0.386250 0.070000
0.715625 0.386250 0.070000
0.772500 0.386250 0.070000
0.829375 0.386250 0.070000
0.886250 0.386250 0.070000
0.943125 0.386250 0.070000
1.000000 0.386250 0.070000
0.090000 0.445625 0.070000
0.146875 0.445625 0.070000
0.203750 0.445625 0.070000
0.260625 0.445625 0.070000
0.317500 0.445625 0.070000
0.374375 0.445625 0.070000
0.431250 0.445625 0.070000
0.488125 0.445625 0.070000
0.545000 0.445625 0.070000
0.601875 0.445625 0.070000
0.658750 0.445625 0.070000
0.715625 0.445625 0.070000
0.772500 0.445625 0.070000
0.829375 0.445625 0.070000
0.886250 0.445625 0.070000
0.943125 0.445625 0.070000
1.000000 0.445625 0.070000
0.090000 0.505000 0.070000
0.146875 0.505000 0.070000
0.203750 0.505000 0.070000
0.260625 0.505000 0.070000
0.317500 0.505000 0.070000
0.374375 0.505000 0.070000
0.431250 0.505000 0.070000
0.488125 0.505000 0.070000
0.545000 0.505000 0.070000
0.601875 0.505000 0.070000
0.658750 0.505000 0.070000
0.715625 0.505000 0.070000
0.772500 0.505000 0.070000
0.829375 0.505000 0.070000
0.886250 0.505000 0.070000
0.943125 0.505000 0.070000
1.000000 0.505000 0.070000
0.090000 0.564375 0.070000
0.146875 0.564375 0.070000
0.203750 0.564375 0.070000
0.260625 0.564375 0.070000
0.317500 0.564375 0.070000
0.374375 0.564375 0.070000
0.431250 0.564375 0.070000
0.488125 0.564375 0.070000
0.545000 0.564375 0.070000
0.601875 0.564375 0.070000
0.658750 0.564375 0.070000
0.715625 0.564375 0.070000
0.772500 0.564375 0.070000
0.829375 0.564375 0.070000
0.886250 0.564375 0.070000
0.943125 0.564375 0.070000
1.000000 0.564375 0.070000
0.090000 0.623750 0.070000
0.146875 0.623750 0.070000
0.203750 0.623750 0.070000
0.260625 0.623750 0.070000
0.317500 0.623750 0.070000
0.374375 0.623750 0.070000
0.431250 0.623750 0.070000
0.488125 0.623750 0.070000
0.545000 0.623750 0.070000
0.601875 0.623750 0.070000
0.658750 0.623750 0.070000
0.715625 0.623750 0.070000
0.772500 0.623750 0.070000
0.829375 0.623750 0.070000
0.886250 0.623750 0.070000
0.943125 0.623750 0.070000
1.000000 0.623750 0.070000
0.090000 0.683125 0.070000
0.146875 0.683125 0.070000
0.203750 0.683125 0.070000
0.260625 0.683125 0.070000
0.317500 0.683125 0.070000
0.374375 0.683125 0.070000
0.431250 0.683125 0.070000
0.488125 0.683125 0.070000
0.545000 0.683125 0.070000
0.601875 0.683125 0.070000
0.658750 0.683125 0.070000
0.715625 0.683125 0.070000
0.772500 0.683125 0.070000
0.829375 0.683125 0.070000
0.886250 0.683125 0.070000
0.943125 0.683125 0.070000
1.000000 0.683125 0.070000
0.090000 0.742500 0.070000
0.146875 0.742500 0.070000
0.203750 0.742500 0.070000
0.260625 0.742500 0.070000
0.317500 0.742500 0.070000
0.374375 0.742500 0.070000
0.431250 0.742500 0.070000
0.488125 0.742500 0.070000
0.545000 0.742500 0.070000
0.601875 0.742500 0.070000
0.658750 0.742500 0.070000
0.715625 0.742500 0.070000
0.772500 0.742500 0.070000
0.829375 0.742500 0.070000
0.886250 0.742500 0.070000
0.943125 0.742500 0.070000
1.000000 0.742500 0.070000
0.090000 0.801875 0.070000
0.146875 0.801875 0.070000
0.203750 0.801875 0.070000
0.260625 0.801875 0.070000
0.317500 0.801875 0.070000
0.374375 0.801875 0.070000
0.431250 0.801875 0.070000
0.488125 0.801875 0.070000
0.545000 0.801875 0.070000
0.601875 0.801875 0.070000
0.658750 0.801875 0.070000
0.715625 0.801875 0.070000
0.772500 0.801875 0.070000
0.829375 0.801875 0.070000
0.886250 0.801875 0.070000
0.943125 0.801875 0.070000
1.000000 0.801875 0.070000
0.090000 0.861250 0.070000
0.146875 0.861250 0.070000
0.203750 0.861250 0.070000
0.260625 0.861250 0.070000
0.317500 0.861250 0.070000
0.374375 0.861250 0.070000
0.431250 0.861250 0.070000
0.488125 0.861250 0.070000
0.545000 0.861250 0.070000
0.601875 0.861250 0.070000
0.658750 0.861250 0.070000
0.715625 0.861250 0.070000
0.772500 0.861250 0.070000
0.829375 0.861250 0.070000
0.886250 0.861250 0.070000
0.943125 0.861250 0.070000
1.000000 0.861250 0.070000
0.090000 0.920625 0.070000
0.146875 0.920625 0.070000
0.203750 0.920625 0.070000
0.260625 0.920625 0.070000
0.317500 0.920625 0.070000
0.374375 0.920625 0.070000
0.431250 0.920625 0.070000
0.488125 0.920625 0.070000
0.545000 0.920625 0.070000
0.601875 0.920625 0.070000
0.658750 0.920625 0.070000
0.715625 0.920625 0.070000
0.772500 0.920625 0.070000
0.829375 0.920625 0.070000
0.886250 0.920625 0.070000
0.943125 0.920625 0.070000
1.000000 0.920625 0.070000
0.090000 0.980000 0.070000
0.146875 0.980000 0.070000
0.203750 0.980000 0.070000
0.260625 0.980000 0.070000
0.317500 0.980000 0.070000
0.374375 0.980000 0.070000
0.431250 0.980000 0.070000
0.488125 0.980000 0.070000
0.545000 0.980000 0.070000
0.601875 0.980000 0.070000
0.658750 0.980000 0.070000
0.715625 0.980000 0.070000
0.772500 0.980000 0.070000
0.829375 0.980000 0.070000
0.886250 0.980000 0.070000
0.943125 0.980000 0.070000
1.000000 0.980000 0.070000
0.090000 0.030000 0.123750
0.146875 0.030000 0.123750
0.203750 0.030000 0.123750
0.260625 0.030000 0.123750
0.317500 0.030000 0.123750
0.374375 0.030000 0.123750
0.431250 0.030000 0.123750
0.488125 0.030000 0.123750
0.545000 0.030000 0.123750
0.601875 0.030000 0.123750
0.658750 0.030000 0.123750
0.715625 0.030000 0.123750
0.772500 0.030000 0.123750
0.829375 0.030000 0.123750
0.886250 0.030000 0.123750
0.943125 0.030000 0.123750
1.000000 0.030000 0.123750
0.090000 0.089375 0.123750
0.146875 0.089375 0.123750
0.203750 0.089375 0.123750
0.260625 0.089375 0.123750
0.317500 0.089375 0.123750
0.374375 0.089375 0.123750
0.431250 0.089375 0.123750
0.488125 0.089375 0.123750
0.545000 0.089375 0.123750
0.601875 0.089375 0.123750
0.658750 0.089375 0.123750
0.715625 0.089375 0.123750
0.772500 0.089375 0.123750
0.829375 0.089375 0.123750
0.886250 0.089375 0.123750
0.943125 0.089375 0.123750
1.000000 0.089375 0.123750
0.090000 0.148750 0.123750
0.146875 0.148750 0.123750
0.203750 0.148750 0.123750
0.260625 0.148750 0.123750
0.317500 0.148750 0.123750
0.374375 0.148750 0.123750
0.431250 0.148750 0.123750
0.488125 0.148750 0.123750
0.545000 0.148750 0.123750
0.601875 0.148750 0.123750
0.658750 0.148750 0.123750
0.715625 0.148750 0.123750
0.772500 0.148750 0.123750
0.829375 0.148750 0.123750
0.886250 0.148750 0.123750
0.943125 0.148750 0.123750
1.000000 0.148750 0.123750
0.090000 0.208125 0.123750
0.146875 0.208125 0.123750
0.203750 0.208125 0.123750
0.260625 0.208125 0.123750
0.317500 0.208125 0.123750
0.374375 0.208125 0.123750
0.431250 0.208125 0.123750
0.488125 0.208125 0.123750
0.545000 0.208125 0.123750
0.601875 0.208125 0.123750
0.658750 0.208125 0.123750
0.715625 0.208125 0.123750
0.772500 0.208125 0.123750
0.829375 0.208125 0.123750
0.886250 0.208125 0.123750
0.943125 0.208125 0.123750
1.000000 0.208125 0.123750
0.090000 0.267500 0.123750
0.146875 0.267500 0.123750
0.203750 0.267500 0.123750
0.260625 0.267500 0.123750
0.317500 0.267500 0.123750
0.374375 0.267500 0.123750
0.431250 0.267500 0.123750
0.488125 0.267500 0.123750
0.545000 0.267500 0.123750
0.601875 0.267500 0.123750
0.658750 0.267500 0.123750
0.715625 0.267500 0.123750
0.772500 0.267500 0.123750
0.829375 0.267500 0.123750
0.886250 0.267500 0.123750
0.943125 0.267500 0.123750
1.000000 0.267500 0.123750
0.090000 0.326875 0.123750
0.146875 0.326875 0.123750
0.203750 0.326875 0.123750
0.260625 0.326875 0.123750
0.317500 0.326875 0.123750
0.374375 0.326875 0.123750
0.431250 0.326875 0.123750
0.488125 0.326875 0.123750
0.545000 0.326875 0.123750
0.601875 0.326875 0.123750
0.658750 0.326875 0.123750
0.715625 0.326875 0.123750
0.772500 0.326875 0.123750
0.829375 0.326875 0.123750
0.886250 0.326875 0.123750
0.943125 0.326875 0.123750
1.000000 0.326875 0.123750
0.090000 0.386250 0.123750
0.146875 0.386250 0.123750
0.203750 0.386250 0.123750
0.260625 0.386250 0.123750
0.317500 0.386250 0.123750
0.374375 0.386250 0.123750
0.431250 0.386250 0.123750
0.488125 0.386250 0.123750
0.545000 0.386250 0.123750
0.601875 0.386250 0.123750
0.658750 0.386250 0.123750
0.715625 0.386250 0.123750
0.772500 0.386250 0.123750
0.829375 0.386250 0.123750
0.886250 0.386250 0.123750
0.943125 0.386250 0.123750
1.000000 0.386250 0.123750
0.090000 0.445625 0.123750
0.146875 0.445625 0.123750
0.203750 0.445625 0.123750
0.260625 0.445625 0.123750
0.317500 0.445625 0.123750
0.374375 0.445625 0.123750
0.431250 0.445625 0.123750
0.488125 0.445625 0.123750
0.545000 0.445625 0.123750
0.601875 0.445625 0.123750
0.658750 0.445625 0.123750
0.715625 0.445625 0.123750
0.772500 0.445625 0.123750
0.829375 0.445625 0.123750
0.886250 0.445625 0.123750
0.943125 0.445625 0.123750
1.000000 0.445625 0.123750
0.090000 0.505000 0.123750
0.146875 0.505000 0.123750
0.203750 0.505000 0.123750
0.260625 0.505000 0.123750
0.317500 0.505000 0.123750
0.374375 0.505000 0.123750
0.431250 0.505000 0.123750
0.488125 0.505000 0.123750
0.545000 0.505000 0.123750
0.601875 0.505000 0.123750
0.658750 0.505000 0.123750
0.715625 0.505000 0.123750
0.772500 0.505000 0.123750
0.829375 0.505000 0.123750
0.886250 0.505000 0.123750
0.943125 0.505000 0.123750
1.000000 0.505000 0.123750
0.090000 0.564375 0.123750
0.146875 0.564375 0.123750
0.203750 0.564375 0.123750
0.260625 0.564375 0.123750
0.317500 0.564375 0.123750
0.374375 0.564375 0.123750
0.431250 0.564375 0.123750
0.488125 0.564375 0.123750
0.545000 0.564375 0.123750
0.601875 0.564375 0.123750
0.658750 0.564375 0.123750
0.715625 0.564375 0.123750
0.772500 0.564375 0.123750
0.829375 0.564375 0.123750
0.886250 0.564375 0.123750
0.943125 0.564375 0.123750
1.000000 0.564375 0.123750
0.090000 0.623750 0.123750
0.146875 0.623750 0.123750
0.203750 0.623750 0.123750
0.260625 0.623750 0.123750
0.317500 0.623750 0.123750
0.374375 0.623750 0.123750
0.431250 0.623750 0.123750
0.488125 0.623750 0.123750
0.545000 0.623750 0.123750
0.601875 0.623750 0.123750
0.658750 0.623750 0.123750
0.715625 0.623750 0.123750
0.772500 0.623750 0.123750
0.829375 0.623750 0.123750
0.886250 0.623750 0.123750
0.943125 0.623750 0.123750
1.000000 0.623750 0.123750
0.090000 0.683125 0.123750
0.146875 0.683125 0.123750
0.203750 0.683125 0.123750
0.260625 0.683125 0.123750
0.317500 0.683125 0.123750
0.374375 0.683125 0.123750
0.431250 0.683125 0.123750
0.488125 0.683125 0.123750
0.545000 0.683125 0.123750
0.601875 0.683125 0.123750
0.658750 0.683125 0.123750
0.715625 0.683125 0.123750
0.772500 0.683125 0.123750
0.829375 0.683125 0.123750
0.886250 0.683125 0.123750
0.943125 0.683125 0.123750
1.000000 0.683125 0.123750
0.090000 0.742500 0.123750
0.146875 0.742500 0.123750
0.203750 0.742500 0.123750
0.260625 0.742500 0.123750
0.317500 0.742500 0.123750
0.374375 0.742500 0.123750
0.431250 0.742500 0.123750
0.488125 0.742500 0.123750
0.545000 0.742500 0.123750
0.601875 0.742500 0.123750
0.658750 0.742500 0.123750
0.715625 0.742500 0.123750
0.772500 0.742500 0.123750
0.829375 0.742500 0.123750
0.886250 0.742500 0.123750
0.943125 0.742500 0.123750
1.000000 0.742500 0.123750
0.090000 0.801875 0.123750
0.146875 0.801875 0.123750
0.203750 0.801875 0.123750
0.260625 0.801875 0.123750
0.317500 0.801875 0.123750
0.374375 0.801875 0.123750
0.431250 0.801875 0.123750
0.488125 0.801875 0.123750
0.545000 0.801875 0.123750
0.601875 0.801875 0.123750
0.658750 0.801875 0.123750
0.715625 0.801875 0.123750
0.772500 0.801875 0.123750
0.829375 0.801875 0.123750
0.886250 0.801875 0.123750
0.943125 0.801875 0.123750
1.000000 0.801875 0.123750
0.090000 0.861250 0.123750
0.146875 0.861250 0.123750
0.203750 0.861250 0.123750
0.260625 0.861250 0.123750
0.317500 0.861250 0.123750
0.374375 0.861250 0.123750
0.431250 0.861250 0.123750
0.488125 0.861250 0.123750
0.545000 0.861250 0.123750
0.601875 0.861250 0.123750
0.658750 0.861250 0.123750
0.715625 0.861250 0.123750
0.772500 0.861250 0.123750
0.829375 0.861250 0.123750
0.886250 0.861250 0.123750
0.943125 0.861250 0.123750
1.000000 0.861250 0.123750
0.090000 0.920625 0.123750
0.146875 0.920625 0.123750
0.203750 0.920625 0.123750
0.260625 0.920625 0.123750
0.317500 0.920625 0.123750
0.374375 0.920625 0.123750
0.431250 0.920625 0.123750
0.488125 0.920625 0.123750
0.545000 0.920625 0.123750
0.601875 0.920625 0.123750
0.658750 0.920625 0.123750
0.715625 0.920625 0.123750
0.772500 0.920625 0.123750
0.829375 0.920625 0.123750
0.886250 0.920625 0.123750
0.943125 0.920625 0.123750
1.000000 0.920625 0.123750
0.090000 0.980000 0.123750
0.146875 0.980000 0.123750
0.203750 0.980000 0.123750
0.260625 0.980000 0.123750
0.317500 0.980000 0.123750
0.374375 0.980000 0.123750
0.431250 0.980000 0.123750
0.488125 0.980000 0.123750
0.545000 0.980000 0.123750
0.601875 0.980000 0.123750
0.658750 0.980000 0.123750
0.715625 0.980000 0.123750
0.772500 0.980000 0.123750
0.829375 0.980000 0.123750
0.886250 0.980000 0.123750
0.943125 0.980000 0.123750
1.000000 0.980000 0.123750
0.090000 0.030000 0.177500
0.146875 0.030000 0.177500
0.203750 0.030000 0.177500
0.260625 0.030000 0.177500
0.317500 0.030000 0.177500
0.374375 0.030000 0.177500
0.431250 0.030000 0.177500
0.488125 0.030000 0.177500
0.545000 0.030000 0.177500
0.601875 0.030000 0.177500
0.658750 0.030000 0.177500
0.715625 0.030000 0.177500
0.772500 0.030000 0.177500
0.829375 0.030000 0.177500
0.886250 0.030000 0.177500
0.943125 0.030000 0.177500
1.000000 0.030000 0.177500
0.090000 0.089375 0.177500
0.146875 0.089375 0.177500
0.203750 0.089375 0.177500
0.260625 0.089375 0.177500
0.317500 0.089375 0.177500
0.374375 0.089375 0.177500
0.431250 0.089375 0.177500
0.488125 0.089375 0.177500
0.545000 0.089375 0.177500
0.601875 0.089375 0.177500
0.658750 0.089375 0.177500
0.715625 0.089375 0.177500
0.772500 0.089375 0.177500
0.829375 0.089375 0.177500
0.886250 0.089375 0.177500
0.943125 0.089375 0.177500
1.000000 0.089375 0.177500
0.090000 0.148750 0.177500
0.146875 0.148750 0.177500
0.203750 0.148750 0.177500
0.260625 0.148750 0.177500
0.317500 0.148750 0.177500
0.374375 0.148750 0.177500
0.431250 0.148750 0.177500
0.488125 0.148750 0.177500
0.545000 0.148750 0.177500
0.601875 0.148750 0.177500
0.658750 0.148750 0.177500
0.715625 0.148750 0.177500
0.772500 0.148750 0.177500
0.829375 0.148750 0.177500
0.886250 0.148750 0.177500
0.943125 0.148750 0.177500
1.000000 0.148750 0.177500
0.090000 0.208125 0.177500
0.146875 0.208125 0.177500
0.203750 0.208125 0.177500
0.260625 0.208125 0.177500
0.317500 0.208125 0.177500
0.374375 0.208125 0.177500
0.431250 0.208125 0.177500
0.488125 0.208125 0.177500
0.545000 0.208125 0.177500
0.601875 0.208125 0.177500
0.658750 0.208125 0.177500
0.715625 0.208125 0.177500
0.772500 0.208125 0.177500
0.829375 0.208125 0.177500
0.886250 0.208125 0.177500
0.943125 0.208125 0.177500
1.000000 0.208125 0.177500
0.090000 0.267500 0.177500
0.146875 0.267500 0.177500
0.203750 0.267500 0.177500
0.260625 0.267500 0.177500
0.317500 0.267500 0.177500
0.374375 0.267500 0.177500
0.431250 0.267500 0.177500
0.488125 0.267500 0.177500
0.545000 0.267500 0.177500
0.601875 0.267500 0.177500
0.658750 0.267500 0.177500
0.715625 0.267500 0.177500
0.772500 0.267500 0.177500
0.829375 0.267500 0.177500
0.886250 0.267500 0.177500
0.943125 0.267500 0.177500
1.000000 0.267500 0.177500
0.090000 0.326875 0.177500
0.146875 0.326875 0.177500
0.203750 0.326875 0.177500
0.260625 0.326875 0.177500
0.317500 0.326875 0.177500
0.374375 0.326875 0.177500
0.431250 0.326875 0.177500
0.488125 0.326875 0.177500
0.545000 0.326875 0.177500
0.601875 0.326875 0.177500
0.658750 0.326875 0.177500
0.715625 0.326875 0.177500
0.772500 0.326875 0.177500
0.829375 0.326875 0.177500
0.886250 0.326875 0.177500
0.943125 0.326875 0.177500
1.000000 0.326875 0.177500
0.090000 0.386250 0.177500
0.146875 0.386250 0.177500
0.203750 0.386250 0.177500
0.260625 0.386250 0.177500
0.317500 0.386250 0.177500
0.374375 0.386250 0.177500
0.431250 0.386250 0.177500
0.488125 0.386250 0.177500
0.545000 0.386250 0.177500
0.601875 0.386250 0.177500
0.658750 0.386250 0.177500
0.715625 0.386250 0.177500
0.772500 0.386250 0.177500
0.829375 0.386250 0.177500
0.886250 0.386250 0.177500
0.943125 0.386250 0.177500
1.000000 0.386250 0.177500
0.090000 0.445625 0.177500
0.146875 0.445625 0.177500
0.203750 0.445625 0.177500
0.260625 0.445625 0.177500
0.317500 0.445625 0.177500
0.374375 0.445625 0.177500
0.431250 0.445625 0.177500
0.488125 0.445625 0.177500
0.545000 0.445625 0.177500
0.601875 0.445625 0.177500
0.658750 0.445625 0.177500
0.715625 0.445625 0.177500
0.772500 0.445625 0.177500
0.829375 0.445625 0.177500
0.886250 0.445625 0.177500
0.943125 0.445625 0.177500
1.000000 0.445625 0.177500
0.090000 0.505000 0.177500
0.146875 0.505000 0.177500
0.203750 0.505000 0.177500
0.260625 0.505000 0.177500
0.317500 0.505000 0.177500
0.374375 0.505000 0.177500
0.431250 0.505000 0.177500
0.488125 0.505000 0.177500
0.545000 0.505000 0.177500
0.601875 0.505000 0.177500
0.658750 0.505000 0.177500
0.715625 0.505000 0.177500
0.772500 0.505000 0.177500
0.829375 0.505000 0.177500
0.886250 0.505000 0.177500
0.943125 0.505000 0.177500
1.000000 0.505000 0.177500
0.090000 0.564375 0.177500
0.146875 0.564375 0.177500
0.203750 0.564375 0.177500
0.260625 0.564375 0.177500
0.317500 0.564375 0.177500
0.374375 0.564375 0.177500
0.431250 0.564375 0.177500
0.488125 0.564375 0.177500
0.545000 0.564375 0.177500
0.601875 0.564375 0.177500
0.658750 0.564375 0.177500
0.715625 0.564375 0.177500
0.772500 0.564375 0.177500
0.829375 0.564375 0.177500
0.886250 0.564375 0.177500
0.943125 0.564375 0.177500
1.000000 0.564375 0.177500
0.090000 0.623750 0.177500
0.146875 0.623750 0.177500
0.203750 0.623750 0.177500
0.260625 0.623750 0.177500
0.317500 0.623750 0.177500
0.374375 0.623750 0.177500
0.431250 0.623750 0.177500
0.488125 0.623750 0.177500
0.545000 0.623750 0.177500
0.601875 0.623750 0.177500
0.658750 0.623750 0.177500
0.715625 0.623750 0.177500
0.772500 0.623750 0.177500
0.829375 0.623750 0.177500
0.886250 0.623750 0.177500
0.943125 0.623750 0.177500
1.000000 0.623750 0.177500
0.090000 0.683125 0.177500
0.146875 0.683125 0.177500
0.203750 0.683125 0.177500
0.260625 0.683125 0.177500
0.317500 0.683125 0.177500
0.374375 0.683125 0.177500
0.431250 0.683125 0.177500
0.488125 0.683125 0.177500
0.545000 0.683125 0.177500
0.601875 0.683125 0.177500
0.658750 0.683125 0.177500
0.715625 0.683125 0.177500
0.772500 0.683125 0.177500
0.829375 0.683125 0.177500
0.886250 0.683125 0.177500
0.943125 0.683125 0.177500
1.000000 0.683125 0.177500
0.090000 0.742500 0.177500
0.146875 0.742500 0.177500
0.203750 0.742500 0.177500
0.260625 0.742500 0.177500
0.317500 0.742500 0.177500
0.374375 0.742500 0.177500
0.431250 0.742500 0.177500
0.488125 0.742500 0.177500
0.545000 0.742500 0.177500
0.601875 0.742500 0.177500
0.658750 0.742500 0.177500
0.715625 0.742500 0.177500
0.772500 0.742500 0.177500
0.829375 0.742500 0.177500
0.886250 0.742500 0.177500
0.943125 0.742500 0.177500
1.000000 0.742500 0.177500
0.090000 0.801875 0.177500
0.146875 0.801875 0.177500
0.203750 0.801875 0.177500
0.260625 0.801875 0.177500
0.317500 0.801875 0.177500
0.374375 0.801875 0.177500
0.431250 0.801875 0.177500
0.488125 0.801875 0.177500
0.545000 0.801875 0.177500
0.601875 0.801875 0.177500
0.658750 0.801875 0.177500
0.715625 0.801875 0.177500
0.772500 0.801875 0.177500
0.829375 0.801875 0.177500
0.886250 0.801875 0.177500
0.943125 0.801875 0.177500
1.000000 0.801875 0.177500
0.090000 0.861250 0.177500
0.146875 0.861250 0.177500
0.203750 0.861250 0.177500
0.260625 0.861250 0.177500
0.317500 0.861250 0.177500
0.374375 0.861250 0.177500
0.431250 0.861250 0.177500
0.488125 0.861250 0.177500
0.545000 0.861250 0.177500
0.601875 0.861250 0.177500
0.658750 0.861250 0.177500
0.715625 0.861250 0.177500
0.772500 0.861250 0.177500
0.829375 0.861250 0.177500
0.886250 0.861250 0.177500
0.943125 0.861250 0.177500
1.000000 0.861250 0.177500
0.090000 0.920625 0.177500
0.146875 0.920625 0.177500
0.203750 0.920625 0.177500
0.260625 0.920625 0.177500
0.317500 0.920625 0.177500
0.374375 0.920625 0.177500
0.431250 0.920625 0.177500
0.488125 0.920625 0.177500
0.545000 0.920625 0.177500
0.601875 0.920625 0.177500
0.658750 0.920625 0.177500
0.715625 0.920625 0.177500
0.772500 0.920625 0.177500
0.829375 0.920625 0.177500
0.886250 0.920625 0.177500
0.943125 0.920625 0.177500
1.000000 0.920625 0.177500
0.090000 0.980000 0.177500
0.146875 0.980000 0.177500
0.203750 0.980000 0.177500
0.260625 0.980000 0.177500
0.317500 0.980000 0.177500
0.374375 0.980000 0.177500
0.431250 0.980000 0.177500
0.488125 0.980000 0.177500
0.545000 0.980000 0.177500
0.601875 0.980000 0.177500
0.658750 0.980000 0.177500
0.715625 0.980000 0.177500
0.772500 0.980000 0.177500
0.829375 0.980000 0.177500
0.886250 0.980000 0.177500
0.943125 0.980000 0.177500
1.000000 0.980000 0.177500
0.090000 0.030000 0.231250
0.146875 0.030000 0.231250
0.203750 0.030000 0.231250
0.260625 0.030000 0.231250
0.317500 0.030000 0.231250
0.374375 0.030000 0.231250
0.431250 0.030000 0.231250
0.488125 0.030000 0.231250
0.545000 0.030000 0.231250
0.601875 0.030000 0.231250
0.658750 0.030000 0.231250
0.715625 0.030000 0.231250
0.772500 0.030000 0.231250
0.829375 0.030000 0.231250
