assets/luts/warm_film.cube
# Warm Film — lifted blacks, warm midtones
# Generated for ProCut Studio. Original transfer function, no third-party LUT data.
TITLE "Warm Film"
LUT_3D_SIZE 9
DOMAIN_MIN 0.0 0.0 0.0
DOMAIN_MAX 1.0 1.0 1.0
0.090000 0.030000 0.070000
0.203750 0.030000 0.070000
0.317500 0.030000 0.070000
0.431250 0.030000 0.070000
0.545000 0.030000 0.070000
0.658750 0.030000 0.070000
0.772500 0.030000 0.070000
0.886250 0.030000 0.070000
1.000000 0.030000 0.070000
0.090000 0.148750 0.070000
0.203750 0.148750 0.070000
0.317500 0.148750 0.070000
0.431250 0.148750 0.070000
0.545000 0.148750 0.070000
0.658750 0.148750 0.070000
0.772500 0.148750 0.070000
0.886250 0.148750 0.070000
1.000000 0.148750 0.070000
0.090000 0.267500 0.070000
0.203750 0.267500 0.070000
0.317500 0.267500 0.070000
0.431250 0.267500 0.070000
0.545000 0.267500 0.070000
0.658750 0.267500 0.070000
0.772500 0.267500 0.070000
0.886250 0.267500 0.070000
1.000000 0.267500 0.070000
0.090000 0.386250 0.070000
0.203750 0.386250 0.070000
0.317500 0.386250 0.070000
0.431250 0.386250 0.070000
0.545000 0.386250 0.070000
0.658750 0.386250 0.070000
0.772500 0.386250 0.070000
0.886250 0.386250 0.070000
1.000000 0.386250 0.070000
0.090000 0.505000 0.070000
0.203750 0.505000 0.070000
0.317500 0.505000 0.070000
0.431250 0.505000 0.070000
0.545000 0.505000 0.070000
0.658750 0.505000 0.070000
0.772500 0.505000 0.070000
0.886250 0.505000 0.070000
1.000000 0.505000 0.070000
0.090000 0.623750 0.070000
0.203750 0.623750 0.070000
0.317500 0.623750 0.070000
0.431250 0.623750 0.070000
0.545000 0.623750 0.070000
0.658750 0.623750 0.070000
0.772500 0.623750 0.070000
0.886250 0.623750 0.070000
1.000000 0.623750 0.070000
0.090000 0.742500 0.070000
0.203750 0.742500 0.070000
0.317500 0.742500 0.070000
0.431250 0.742500 0.070000
0.545000 0.742500 0.070000
0.658750 0.742500 0.070000
0.772500 0.742500 0.070000
0.886250 0.742500 0.070000
1.000000 0.742500 0.070000
0.090000 0.861250 0.070000
0.203750 0.861250 0.070000
0.317500 0.861250 0.070000
0.431250 0.861250 0.070000
0.545000 0.861250 0.070000
0.658750 0.861250 0.070000
0.772500 0.861250 0.070000
0.886250 0.861250 0.070000
1.000000 0.861250 0.070000
0.090000 0.980000 0.070000
0.203750 0.980000 0.070000
0.317500 0.980000 0.070000
0.431250 0.980000 0.070000
0.545000 0.980000 0.070000
0.658750 0.980000 0.070000
0.772500 0.980000 0.070000
0.886250 0.980000 0.070000
1.000000 0.980000 0.070000
0.090000 0.030000 0.177500
0.203750 0.030000 0.177500
0.317500 0.030000 0.177500
0.431250 0.030000 0.177500
0.545000 0.030000 0.177500
0.658750 0.030000 0.177500
0.772500 0.030000 0.177500
0.886250 0.030000 0.177500
1.000000 0.030000 0.177500
0.090000 0.148750 0.177500
0.203750 0.148750 0.177500
0.317500 0.148750 0.177500
0.431250 0.148750 0.177500
0.545000 0.148750 0.177500
0.658750 0.148750 0.177500
0.772500 0.148750 0.177500
0.886250 0.148750 0.177500
1.000000 0.148750 0.177500
0.090000 0.267500 0.177500
0.203750 0.267500 0.177500
0.317500 0.267500 0.177500
0.431250 0.267500 0.177500
0.545000 0.267500 0.177500
0.658750 0.267500 0.177500
0.772500 0.267500 0.177500
0.886250 0.267500 0.177500
1.000000 0.267500 0.177500
0.090000 0.386250 0.177500
0.203750 0.386250 0.177500
0.317500 0.386250 0.177500
0.431250 0.386250 0.177500
0.545000 0.386250 0.177500
0.658750 0.386250 0.177500
0.772500 0.386250 0.177500
0.886250 0.386250 0.177500
1.000000 0.386250 0.177500
0.090000 0.505000 0.177500
0.203750 0.505000 0.177500
0.317500 0.505000 0.177500
0.431250 0.505000 0.177500
0.545000 0.505000 0.177500
0.658750 0.505000 0.177500
0.772500 0.505000 0.177500
0.886250 0.505000 0.177500
1.000000 0.505000 0.177500
0.090000 0.623750 0.177500
0.203750 0.623750 0.177500
0.317500 0.623750 0.177500
0.431250 0.623750 0.177500
0.545000 0.623750 0.177500
0.658750 0.623750 0.177500
0.772500 0.623750 0.177500
0.886250 0.623750 0.177500
1.000000 0.623750 0.177500
0.090000 0.742500 0.177500
0.203750 0.742500 0.177500
0.317500 0.742500 0.177500
0.431250 0.742500 0.177500
0.545000 0.742500 0.177500
0.658750 0.742500 0.177500
0.772500 0.742500 0.177500
0.886250 0.742500 0.177500
1.000000 0.742500 0.177500
0.090000 0.861250 0.177500
0.203750 0.861250 0.177500
0.317500 0.861250 0.177500
0.431250 0.861250 0.177500
0.545000 0.861250 0.177500
0.658750 0.861250 0.177500
0.772500 0.861250 0.177500
0.886250 0.861250 0.177500
1.000000 0.861250 0.177500
0.090000 0.980000 0.177500
0.203750 0.980000 0.177500
0.317500 0.980000 0.177500
0.431250 0.980000 0.177500
0.545000 0.980000 0.177500
0.658750 0.980000 0.177500
0.772500 0.980000 0.177500
0.886250 0.980000 0.177500
1.000000 0.980000 0.177500
0.090000 0.030000 0.285000
0.203750 0.030000 0.285000
0.317500 0.030000 0.285000
0.431250 0.030000 0.285000
0.545000 0.030000 0.285000
0.658750 0.030000 0.285000
0.772500 0.030000 0.285000
0.886250 0.030000 0.285000
1.000000 0.030000 0.285000
0.090000 0.148750 0.285000
0.203750 0.148750 0.285000
0.317500 0.148750 0.285000
0.431250 0.148750 0.285000
0.545000 0.148750 0.285000
0.658750 0.148750 0.285000
0.772500 0.148750 0.285000
0.886250 0.148750 0.285000
1.000000 0.148750 0.285000
0.090000 0.267500 0.285000
0.203750 0.267500 0.285000
0.317500 0.267500 0.285000
0.431250 0.267500 0.285000
0.545000 0.267500 0.285000
0.658750 0.267500 0.285000
0.772500 0.267500 0.285000
0.886250 0.267500 0.285000
1.000000 0.267500 0.285000
0.090000 0.386250 0.285000
0.203750 0.386250 0.285000
0.317500 0.386250 0.285000
0.431250 0.386250 0.285000
0.545000 0.386250 0.285000
0.658750 0.386250 0.285000
0.772500 0.386250 0.285000
0.886250 0.386250 0.285000
1.000000 0.386250 0.285000
0.090000 0.505000 0.285000
0.203750 0.505000 0.285000
0.317500 0.505000 0.285000
0.431250 0.505000 0.285000
0.545000 0.505000 0.285000
0.658750 0.505000 0.285000
0.772500 0.505000 0.285000
0.886250 0.505000 0.285000
1.000000 0.505000 0.285000
0.090000 0.623750 0.285000
0.203750 0.623750 0.285000
0.317500 0.623750 0.285000
0.431250 0.623750 0.285000
0.545000 0.623750 0.285000
0.658750 0.623750 0.285000
0.772500 0.623750 0.285000
0.886250 0.623750 0.285000
1.000000 0.623750 0.285000
0.090000 0.742500 0.285000
0.203750 0.742500 0.285000
0.317500 0.742500 0.285000
0.431250 0.742500 0.285000
0.545000 0.742500 0.285000
0.658750 0.742500 0.285000
0.772500 0.742500 0.285000
0.886250 0.742500 0.285000
1.000000 0.742500 0.285000
0.090000 0.861250 0.285000
0.203750 0.861250 0.285000
0.317500 0.861250 0.285000
0.431250 0.861250 0.285000
0.545000 0.861250 0.285000
0.658750 0.861250 0.285000
0.772500 0.861250 0.285000
0.886250 0.861250 0.285000
1.000000 0.861250 0.285000
0.090000 0.980000 0.285000
0.203750 0.980000 0.285000
0.317500 0.980000 0.285000
0.431250 0.980000 0.285000
0.545000 0.980000 0.285000
0.658750 0.980000 0.285000
0.772500 0.980000 0.285000
0.886250 0.980000 0.285000
1.000000 0.980000 0.285000
0.090000 0.030000 0.392500
0.203750 0.030000 0.392500
0.317500 0.030000 0.392500
0.431250 0.030000 0.392500
0.545000 0.030000 0.392500
0.658750 0.030000 0.392500
0.772500 0.030000 0.392500
0.886250 0.030000 0.392500
1.000000 0.030000 0.392500
0.090000 0.148750 0.392500
0.203750 0.148750 0.392500
0.317500 0.148750 0.392500
0.431250 0.148750 0.392500
0.545000 0.148750 0.392500
0.658750 0.148750 0.392500
0.772500 0.148750 0.392500
0.886250 0.148750 0.392500
1.000000 0.148750 0.392500
0.090000 0.267500 0.392500
0.203750 0.267500 0.392500
0.317500 0.267500 0.392500
0.431250 0.267500 0.392500
0.545000 0.267500 0.392500
0.658750 0.267500 0.392500
0.772500 0.267500 0.392500
0.886250 0.267500 0.392500
1.000000 0.267500 0.392500
0.090000 0.386250 0.392500
0.203750 0.386250 0.392500
0.317500 0.386250 0.392500
0.431250 0.386250 0.392500
0.545000 0.386250 0.392500
0.658750 0.386250 0.392500
0.772500 0.386250 0.392500
0.886250 0.386250 0.392500
1.000000 0.386250 0.392500
0.090000 0.505000 0.392500
0.203750 0.505000 0.392500
0.317500 0.505000 0.392500
0.431250 0.505000 0.392500
0.545000 0.505000 0.392500
0.658750 0.505000 0.392500
0.772500 0.505000 0.392500
0.886250 0.505000 0.392500
1.000000 0.505000 0.392500
0.090000 0.623750 0.392500
0.203750 0.623750 0.392500
0.317500 0.623750 0.392500
0.431250 0.623750 0.392500
0.545000 0.623750 0.392500
0.658750 0.623750 0.392500
0.772500 0.623750 0.392500
0.886250 0.623750 0.392500
1.000000 0.623750 0.392500
0.090000 0.742500 0.392500
0.203750 0.742500 0.392500
0.317500 0.742500 0.392500
0.431250 0.742500 0.392500
0.545000 0.742500 0.392500
0.658750 0.742500 0.392500
0.772500 0.742500 0.392500
0.886250 0.742500 0.392500
1.000000 0.742500 0.392500
0.090000 0.861250 0.392500
0.203750 0.861250 0.392500
0.317500 0.861250 0.392500
0.431250 0.861250 0.392500
0.545000 0.861250 0.392500
0.658750 0.861250 0.392500
0.772500 0.861250 0.392500
0.886250 0.861250 0.392500
1.000000 0.861250 0.392500
0.090000 0.980000 0.392500
0.203750 0.980000 0.392500
0.317500 0.980000 0.392500
0.431250 0.980000 0.392500
0.545000 0.980000 0.392500
0.658750 0.980000 0.392500
0.772500 0.980000 0.392500
0.886250 0.980000 0.392500
1.000000 0.980000 0.392500
0.090000 0.030000 0.500000
0.203750 0.030000 0.500000
0.317500 0.030000 0.500000
0.431250 0.030000 0.500000
0.545000 0.030000 0.500000
0.658750 0.030000 0.500000
0.772500 0.030000 0.500000
0.886250 0.030000 0.500000
1.000000 0.030000 0.500000
0.090000 0.148750 0.500000
0.203750 0.148750 0.500000
0.317500 0.148750 0.500000
0.431250 0.148750 0.500000
0.545000 0.148750 0.500000
0.658750 0.148750 0.500000
0.772500 0.148750 0.500000
0.886250 0.148750 0.500000
1.000000 0.148750 0.500000
0.090000 0.267500 0.500000
0.203750 0.267500 0.500000
0.317500 0.267500 0.500000
0.431250 0.267500 0.500000
0.545000 0.267500 0.500000
0.658750 0.267500 0.500000
0.772500 0.267500 0.500000
0.886250 0.267500 0.500000
1.000000 0.267500 0.500000
0.090000 0.386250 0.500000
0.203750 0.386250 0.500000
0.317500 0.386250 0.500000
0.431250 0.386250 0.500000
0.545000 0.386250 0.500000
0.658750 0.386250 0.500000
0.772500 0.386250 0.500000
0.886250 0.386250 0.500000
1.000000 0.386250 0.500000
0.090000 0.505000 0.500000
0.203750 0.505000 0.500000
0.317500 0.505000 0.500000
0.431250 0.505000 0.500000
0.545000 0.505000 0.500000
0.658750 0.505000 0.500000
0.772500 0.505000 0.500000
0.886250 0.505000 0.500000
1.000000 0.505000 0.500000
0.090000 0.623750 0.500000
0.203750 0.623750 0.500000
0.317500 0.623750 0.500000
0.431250 0.623750 0.500000
0.545000 0.623750 0.500000
0.658750 0.623750 0.500000
0.772500 0.623750 0.500000
0.886250 0.623750 0.500000
1.000000 0.623750 0.500000
0.090000 0.742500 0.500000
0.203750 0.742500 0.500000
0.317500 0.742500 0.500000
0.431250 0.742500 0.500000
0.545000 0.742500 0.500000
0.658750 0.742500 0.500000
0.772500 0.742500 0.500000
0.886250 0.742500 0.500000
1.000000 0.742500 0.500000
0.090000 0.861250 0.500000
0.203750 0.861250 0.500000
0.317500 0.861250 0.500000
0.431250 0.861250 0.500000
0.545000 0.861250 0.500000
0.658750 0.861250 0.500000
0.772500 0.861250 0.500000
0.886250 0.861250 0.500000
1.000000 0.861250 0.500000
0.090000 0.980000 0.500000
0.203750 0.980000 0.500000
0.317500 0.980000 0.500000
0.431250 0.980000 0.500000
0.545000 0.980000 0.500000
0.658750 0.980000 0.500000
0.772500 0.980000 0.500000
0.886250 0.980000 0.500000
1.000000 0.980000 0.500000
0.090000 0.030000 0.607500
0.203750 0.030000 0.607500
0.317500 0.030000 0.607500
0.431250 0.030000 0.607500
0.545000 0.030000 0.607500
0.658750 0.030000 0.607500
0.772500 0.030000 0.607500
0.886250 0.030000 0.607500
1.000000 0.030000 0.607500
0.090000 0.148750 0.607500
0.203750 0.148750 0.607500
0.317500 0.148750 0.607500
0.431250 0.148750 0.607500
0.545000 0.148750 0.607500
0.658750 0.148750 0.607500
0.772500 0.148750 0.607500
0.886250 0.148750 0.607500
1.000000 0.148750 0.607500
0.090000 0.267500 0.607500
0.203750 0.267500 0.607500
0.317500 0.267500 0.607500
0.431250 0.267500 0.607500
0.545000 0.267500 0.607500
0.658750 0.267500 0.607500
0.772500 0.267500 0.607500
0.886250 0.267500 0.607500
1.000000 0.267500 0.607500
0.090000 0.386250 0.607500
0.203750 0.386250 0.607500
0.317500 0.386250 0.607500
0.431250 0.386250 0.607500
0.545000 0.386250 0.607500
0.658750 0.386250 0.607500
0.772500 0.386250 0.607500
0.886250 0.386250 0.607500
1.000000 0.386250 0.607500
0.090000 0.505000 0.607500
0.203750 0.505000 0.607500
0.317500 0.505000 0.607500
0.431250 0.505000 0.607500
0.545000 0.505000 0.607500
0.658750 0.505000 0.607500
0.772500 0.505000 0.607500
0.886250 0.505000 0.607500
1.000000 0.505000 0.607500
0.090000 0.623750 0.607500
0.203750 0.623750 0.607500
0.317500 0.623750 0.607500
0.431250 0.623750 0.607500
0.545000 0.623750 0.607500
0.658750 0.623750 0.607500
0.772500 0.623750 0.607500
0.886250 0.623750 0.607500
1.000000 0.623750 0.607500
0.090000 0.742500 0.607500
0.203750 0.742500 0.607500
0.317500 0.742500 0.607500
0.431250 0.742500 0.607500
0.545000 0.742500 0.607500
0.658750 0.742500 0.607500
0.772500 0.742500 0.607500
0.886250 0.742500 0.607500
1.000000 0.742500 0.607500
0.090000 0.861250 0.607500
0.203750 0.861250 0.607500
0.317500 0.861250 0.607500
0.431250 0.861250 0.607500
0.545000 0.861250 0.607500
0.658750 0.861250 0.607500
0.772500 0.861250 0.607500
0.886250 0.861250 0.607500
1.000000 0.861250 0.607500
0.090000 0.980000 0.607500
0.203750 0.980000 0.607500
0.317500 0.980000 0.607500
0.431250 0.980000 0.607500
0.545000 0.980000 0.607500
0.658750 0.980000 0.607500
0.772500 0.980000 0.607500
0.886250 0.980000 0.607500
1.000000 0.980000 0.607500
0.090000 0.030000 0.715000
0.203750 0.030000 0.715000
0.317500 0.030000 0.715000
0.431250 0.030000 0.715000
0.545000 0.030000 0.715000
0.658750 0.030000 0.715000
0.772500 0.030000 0.715000
0.886250 0.030000 0.715000
1.000000 0.030000 0.715000
0.090000 0.148750 0.715000
0.203750 0.148750 0.715000
0.317500 0.148750 0.715000
0.431250 0.148750 0.715000
0.545000 0.148750 0.715000
0.658750 0.148750 0.715000
0.772500 0.148750 0.715000
0.886250 0.148750 0.715000
1.000000 0.148750 0.715000
0.090000 0.267500 0.715000
0.203750 0.267500 0.715000
0.317500 0.267500 0.715000
0.431250 0.267500 0.715000
0.545000 0.267500 0.715000
0.658750 0.267500 0.715000
0.772500 0.267500 0.715000
0.886250 0.267500 0.715000
1.000000 0.267500 0.715000
0.090000 0.386250 0.715000
0.203750 0.386250 0.715000
0.317500 0.386250 0.715000
0.431250 0.386250 0.715000
0.545000 0.386250 0.715000
0.658750 0.386250 0.715000
0.772500 0.386250 0.715000
0.886250 0.386250 0.715000
1.000000 0.386250 0.715000
0.090000 0.505000 0.715000
0.203750 0.505000 0.715000
0.317500 0.505000 0.715000
0.431250 0.505000 0.715000
0.545000 0.505000 0.715000
0.658750 0.505000 0.715000
0.772500 0.505000 0.715000
0.886250 0.505000 0.715000
1.000000 0.505000 0.715000
0.090000 0.623750 0.715000
0.203750 0.623750 0.715000
0.317500 0.623750 0.715000
0.431250 0.623750 0.715000
0.545000 0.623750 0.715000
0.658750 0.623750 0.715000
0.772500 0.623750 0.715000
0.886250 0.623750 0.715000
1.000000 0.623750 0.715000
0.090000 0.742500 0.715000
0.203750 0.742500 0.715000
0.317500 0.742500 0.715000
0.431250 0.742500 0.715000
0.545000 0.742500 0.715000
0.658750 0.742500 0.715000
0.772500 0.742500 0.715000
0.886250 0.742500 0.715000
1.000000 0.742500 0.715000
0.090000 0.861250 0.715000
0.203750 0.861250 0.715000
0.317500 0.861250 0.715000
0.431250 0.861250 0.715000
0.545000 0.861250 0.715000
0.658750 0.861250 0.715000
0.772500 0.861250 0.715000
0.886250 0.861250 0.715000
1.000000 0.861250 0.715000
0.090000 0.980000 0.715000
0.203750 0.980000 0.715000
0.317500 0.980000 0.715000
0.431250 0.980000 0.715000
0.545000 0.980000 0.715000
0.658750 0.980000 0.715000
0.772500 0.980000 0.715000
0.886250 0.980000 0.715000
1.000000 0.980000 0.715000
0.090000 0.030000 0.822500
0.203750 0.030000 0.822500
0.317500 0.030000 0.822500
0.431250 0.030000 0.822500
0.545000 0.030000 0.822500
0.658750 0.030000 0.822500
0.772500 0.030000 0.822500
0.886250 0.030000 0.822500
1.000000 0.030000 0.822500
0.090000 0.148750 0.822500
0.203750 0.148750 0.822500
0.317500 0.148750 0.822500
0.431250 0.148750 0.822500
0.545000 0.148750 0.822500
0.658750 0.148750 0.822500
0.772500 0.148750 0.822500
0.886250 0.148750 0.822500
1.000000 0.148750 0.822500
0.090000 0.267500 0.822500
0.203750 0.267500 0.822500
0.317500 0.267500 0.822500
0.431250 0.267500 0.822500
0.545000 0.267500 0.822500
0.658750 0.267500 0.822500
0.772500 0.267500 0.822500
0.886250 0.267500 0.822500
1.000000 0.267500 0.822500
0.090000 0.386250 0.822500
0.203750 0.386250 0.822500
0.317500 0.386250 0.822500
0.431250 0.386250 0.822500
0.545000 0.386250 0.822500
0.658750 0.386250 0.822500
0.772500 0.386250 0.822500
0.886250 0.386250 0.822500
1.000000 0.386250 0.822500
0.090000 0.505000 0.822500
0.203750 0.505000 0.822500
0.317500 0.505000 0.822500
0.431250 0.505000 0.822500
0.545000 0.505000 0.822500
0.658750 0.505000 0.822500
0.772500 0.505000 0.822500
0.886250 0.505000 0.822500
1.000000 0.505000 0.822500
0.090000 0.623750 0.822500
0.203750 0.623750 0.822500
0.317500 0.623750 0.822500
0.431250 0.623750 0.822500
0.545000 0.623750 0.822500
0.658750 0.623750 0.822500
0.772500 0.623750 0.822500
0.886250 0.623750 0.822500
1.000000 0.623750 0.822500
0.090000 0.742500 0.822500
0.203750 0.742500 0.822500
0.317500 0.742500 0.822500
0.431250 0.742500 0.822500
0.545000 0.742500 0.822500
0.658750 0.742500 0.822500
0.772500 0.742500 0.822500
0.886250 0.742500 0.822500
1.000000 0.742500 0.822500
0.090000 0.861250 0.822500
0.203750 0.861250 0.822500
0.317500 0.861250 0.822500
0.431250 0.861250 0.822500
0.545000 0.861250 0.822500
0.658750 0.861250 0.822500
0.772500 0.861250 0.822500
0.886250 0.861250 0.822500
1.000000 0.861250 0.822500
0.090000 0.980000 0.822500
0.203750 0.980000 0.822500
0.317500 0.980000 0.822500
0.431250 0.980000 0.822500
0.545000 0.980000 0.822500
0.658750 0.980000 0.822500
0.772500 0.980000 0.822500
0.886250 0.980000 0.822500
1.000000 0.980000 0.822500
0.090000 0.030000 0.930000
0.203750 0.030000 0.930000
0.317500 0.030000 0.930000
0.431250 0.030000 0.930000
0.545000 0.030000 0.930000
0.658750 0.030000 0.930000
0.772500 0.030000 0.930000
0.886250 0.030000 0.930000
1.000000 0.030000 0.930000
0.090000 0.148750 0.930000
0.203750 0.148750 0.930000
0.317500 0.148750 0.930000
0.431250 0.148750 0.930000
0.545000 0.148750 0.930000
0.658750 0.148750 0.930000
0.772500 0.148750 0.930000
0.886250 0.148750 0.930000
1.000000 0.148750 0.930000
0.090000 0.267500 0.930000
0.203750 0.267500 0.930000
0.317500 0.267500 0.930000
0.431250 0.267500 0.930000
0.545000 0.267500 0.930000
0.658750 0.267500 0.930000
0.772500 0.267500 0.930000
0.886250 0.267500 0.930000
1.000000 0.267500 0.930000
0.090000 0.386250 0.930000
0.203750 0.386250 0.930000
0.317500 0.386250 0.930000
0.431250 0.386250 0.930000
0.545000 0.386250 0.930000
0.658750 0.386250 0.930000
0.772500 0.386250 0.930000
0.886250 0.386250 0.930000
1.000000 0.386250 0.930000
0.090000 0.505000 0.930000
0.203750 0.505000 0.930000
0.317500 0.505000 0.930000
0.431250 0.505000 0.930000
0.545000 0.505000 0.930000
0.658750 0.505000 0.930000
0.772500 0.505000 0.930000
0.886250 0.505000 0.930000
1.000000 0.505000 0.930000
0.090000 0.623750 0.930000
0.203750 0.623750 0.930000
0.317500 0.623750 0.930000
0.431250 0.623750 0.930000
0.545000 0.623750 0.930000
0.658750 0.623750 0.930000
0.772500 0.623750 0.930000
0.886250 0.623750 0.930000
1.000000 0.623750 0.930000
0.090000 0.742500 0.930000
0.203750 0.742500 0.930000
0.317500 0.742500 0.930000
0.431250 0.742500 0.930000
0.545000 0.742500 0.930000
0.658750 0.742500 0.930000
0.772500 0.742500 0.930000
0.886250 0.742500 0.930000
1.000000 0.742500 0.930000
0.090000 0.861250 0.930000
0.203750 0.861250 0.930000
0.317500 0.861250 0.930000
0.431250 0.861250 0.930000
0.545000 0.861250 0.930000
0.658750 0.861250 0.930000
0.772500 0.861250 0.930000
0.886250 0.861250 0.930000
1.000000 0.861250 0.930000
0.090000 0.980000 0.930000
0.203750 0.980000 0.930000
0.317500 0.980000 0.930000
0.431250 0.980000 0.930000
0.545000 0.980000 0.930000
0.658750 0.980000 0.930000
0.772500 0.980000 0.930000
0.886250 0.980000 0.930000
1.000000 0.980000 0.930000
